; generated by PrusaSlicer 2.9.4 on 2026-05-28 at 16:50:39 UTC


;
;
; 

; external perimeters extrusion width = 0.45mm
; perimeters extrusion width = 0.45mm
; infill extrusion width = 0.45mm
; solid infill extrusion width = 0.45mm
; top infill extrusion width = 0.40mm
; first layer extrusion width = 0.42mm

M73 P0 R85
M73 Q0 S86
M201 X1000 Y1000 Z200 E5000 ; sets maximum accelerations, mm/sec^2
M203 X200 Y200 Z12 E120 ; sets maximum feedrates, mm / sec
M204 S1250 T1250 ; sets acceleration (S) and retract acceleration (R), mm/sec^2
M205 X8.00 Y8.00 Z0.40 E4.50 ; sets the jerk limits, mm/sec
M205 S0 T0 ; sets the minimum extruding and travel feed rate, mm/sec

; printing object maindisc.stl id:0 copy 0
; stop printing object maindisc.stl id:0 copy 0

;TYPE:Custom
M862.3 P "MK3S" ; printer model check
M862.1 P0.4 ; nozzle diameter check
M115 U3.14.1 ; tell printer latest fw version
G90 ; use absolute coordinates
M83 ; extruder relative mode
M104 S250 ; set extruder temp
M140 S85 ; set bed temp
M190 S85 ; wait for bed temp
M109 S250 ; wait for extruder temp
G28 W ; home all without mesh bed level
G80 X29.2196 Y23.2492 W106.73 H106.742 ; mesh bed levelling

G1 Z0.2 F720
G1 Y-3 F1000 ; go outside print area
G92 E0
G1 X60 E9 F1000 ; intro line
G1 X100 E12.5 F1000 ; intro line

G92 E0
M221 S95

; Don't change E values below. Excessive value can damage the printer.

M907 E538 ; set extruder motor current
G21 ; set units to millimeters
G90 ; use absolute coordinates
M83 ; use relative distances for extrusion

M900 K0.08 ; Filament gcode LA 1.5
M900 K45 ; Filament gcode LA 1.0




M107
;LAYER_CHANGE
;Z:0.2
;HEIGHT:0.2
G1 E-1 F2100
G1 Z.4 F720
G1 X43.617 Y40.47 F10800
G1 Z.2 F720
G1 E1 F2100
M204 S800
;TYPE:Skirt/Brim
;WIDTH:0.42
G1 F1200
G1 X44.752 Y39.247 E.05232
G1 X47.055 Y37.05 E.0998
G1 X49.383 Y35.077 E.09568
G1 X52.084 Y33.057 E.10575
G1 X54.692 Y31.34 E.0979
G1 X57.449 Y29.753 E.09974
G1 X60.297 Y28.333 E.09978
G1 X63.103 Y27.133 E.09569
G1 X66.222 Y26.016 E.10388
G1 X69.278 Y25.127 E.09979
G1 X72.381 Y24.423 E.09976
G1 X75.521 Y23.905 E.09978
G1 X78.556 Y23.586 E.09568
G1 X81.926 Y23.439 E.10576
G1 X85.047 Y23.489 E.09787
G1 X88.22 Y23.731 E.09978
G1 X91.244 Y24.141 E.09568
G1 X94.367 Y24.752 E.09978
G1 X97.448 Y25.549 E.09978
G1 X100.476 Y26.528 E.09978
G1 X103.56 Y27.739 E.10388
G1 X106.329 Y29.021 E.09567
G1 X109.133 Y30.526 E.09978
G1 X111.951 Y32.267 E.10386
G1 X114.551 Y34.102 E.09978
G1 X116.937 Y36.005 E.09569
G1 X119.304 Y38.131 E.09976
G1 X121.54 Y40.396 E.09979
G1 X123.72 Y42.891 E.10388
G1 X125.587 Y45.304 E.09566
G1 X127.383 Y47.932 E.0998
G1 X129.018 Y50.661 E.09975
G1 X130.488 Y53.484 E.09979
G1 X131.835 Y56.511 E.10388
G1 X132.95 Y59.492 E.09979
G1 X133.849 Y62.407 E.09565
G1 X134.635 Y65.626 E.10389
G1 X135.179 Y68.628 E.09566
G1 X135.563 Y71.787 E.09978
G1 X135.757 Y74.964 E.0998
G1 X135.761 Y78.146 E.09977
G1 X135.563 Y81.453 E.10387
G1 X135.199 Y84.483 E.09569
G1 X134.635 Y87.615 E.09978
G1 X133.849 Y90.833 E.10386
G1 X132.907 Y93.873 E.09979
G1 X131.786 Y96.851 E.09977
G1 X130.488 Y99.756 E.09976
G1 X129.082 Y102.465 E.0957
G1 X127.453 Y105.199 E.09979
M73 Q0 S85
G1 X125.664 Y107.83 E.09976
G1 X123.637 Y110.451 E.10389
G1 X121.629 Y112.749 E.09568
G1 X119.399 Y115.019 E.09977
G1 X116.937 Y117.236 E.10388
G1 X114.551 Y119.138 E.09567
G1 X111.951 Y120.973 E.09978
G1 X109.246 Y122.649 E.09977
G1 X106.446 Y124.161 E.09977
G1 X103.44 Y125.553 E.10387
G1 X100.476 Y126.712 E.09979
G1 X97.574 Y127.655 E.09567
G1 X94.367 Y128.489 E.1039
G1 X91.244 Y129.1 E.09978
G1 X88.22 Y129.51 E.09568
G1 X85.047 Y129.751 E.09977
G1 X81.865 Y129.803 E.09978
G1 X78.556 Y129.654 E.10386
G1 X75.391 Y129.318 E.09979
G1 X72.381 Y128.818 E.09567
G1 X69.278 Y128.114 E.09976
G1 X66.222 Y127.225 E.09979
G1 X63.103 Y126.107 E.10389
G1 X60.178 Y124.853 E.09978
G1 X57.449 Y123.488 E.09567
G1 X54.692 Y121.9 E.09976
G1 X52.034 Y120.15 E.09978
G1 X49.383 Y118.163 E.10388
G1 X46.958 Y116.103 E.09976
G1 X44.752 Y113.994 E.09569
G1 X42.585 Y111.664 E.09977
G1 X40.561 Y109.208 E.09979
G1 X38.613 Y106.528 E.10388
G1 X36.97 Y103.956 E.09569
G1 X35.417 Y101.179 E.09976
G1 X33.957 Y98.137 E.1058
G1 X32.777 Y95.248 E.09785
G1 X31.752 Y92.235 E.09979
G1 X30.909 Y89.166 E.09979
G1 X30.275 Y86.182 E.09565
G1 X29.775 Y82.845 E.1058
G1 X29.499 Y79.736 E.09786
G1 X29.408 Y76.555 E.09978
G1 X29.507 Y73.374 E.09979
G1 X29.796 Y70.205 E.09977
G1 X30.275 Y67.059 E.09978
G1 X30.909 Y64.074 E.09568
G1 X31.79 Y60.88 E.10389
G1 X32.823 Y57.87 E.09978
G1 X33.98 Y55.047 E.09566
G1 X35.447 Y52.008 E.10581
G1 X36.97 Y49.284 E.09785
G1 X38.687 Y46.605 E.09977
G1 X40.561 Y44.032 E.0998
G1 X42.499 Y41.675 E.09568
G1 X43.576 Y40.514 E.04965
M204 S1000
;WIPE_START
G1 F8640
G1 X43.617 Y40.47 E-.01389
G1 X44.752 Y39.247 E-.38527
G1 X46.635 Y37.451 E-.60084
;WIPE_END
G1 Z.4 F720
; printing object maindisc.stl id:0 copy 0
G1 X86.404 Y80.748 F10800
G1 Z.2 F720
G1 E1 F2100
M204 S800
;TYPE:Perimeter
;WIDTH:0.419999
G1 F1200
G1 X86.171 Y80.879 E.00838
G1 X81.223 Y82.001 E.15908
G1 X80.941 Y81.993 E.00885
G1 X80.703 Y81.854 E.00864
G1 X77.25 Y78.122 E.15942
G1 X77.115 Y77.868 E.00902
G1 X77.115 Y77.605 E.00825
G1 X78.623 Y72.738 E.15976
G1 X78.769 Y72.503 E.00867
G1 X79.02 Y72.362 E.00903
G1 X83.968 Y71.24 E.15908
G1 X84.25 Y71.248 E.00885
G1 X84.488 Y71.387 E.00864
G1 X87.942 Y75.119 E.15944
G1 X88.077 Y75.373 E.00902
G1 X88.076 Y75.636 E.00825
G1 X86.568 Y80.502 E.15973
G1 X86.443 Y80.705 E.00747
M204 S1000
G1 X86.146 Y80.457 F10800
M204 S800
;TYPE:External perimeter
G1 F1200
G1 X86.102 Y80.505 E.00204
G1 X85.249 Y80.702 E.02745
G1 X81.14 Y81.633 E.1321
G1 X80.981 Y81.597 E.00511
G1 X77.527 Y77.866 E.15942
G1 X77.478 Y77.716 E.00495
G1 X78.983 Y72.852 E.15964
G1 X79.089 Y72.735 E.00495
G1 X79.943 Y72.539 E.02747
G1 X84.052 Y71.608 E.1321
G1 X84.21 Y71.643 E.00507
G1 X87.665 Y75.375 E.15946
G1 X87.714 Y75.524 E.00492
G1 X86.208 Y80.389 E.15968
G1 X86.187 Y80.412 E.00098
M204 S1000
;WIPE_START
G1 F8640
G1 X86.146 Y80.457 E-.01406
G1 X86.102 Y80.505 E-.01504
G1 X85.249 Y80.702 E-.20214
G1 X82.002 Y81.438 E-.76876
;WIPE_END
G1 Z.4 F720
G1 X56.022 Y63.249 F10800
G1 Z.2 F720
G1 E1 F2100
M204 S800
;TYPE:Perimeter
G1 F1200
G1 X55.902 Y63.469 E.00786
G1 X52.782 Y66.415 E.13454
G1 X52.53 Y66.553 E.00901
G1 X52.258 Y66.554 E.00853
G1 X48.154 Y65.327 E.13431
G1 X47.925 Y65.193 E.00832
G1 X47.777 Y64.963 E.00858
G1 X46.783 Y60.775 E.13496
G1 X46.783 Y60.513 E.00821
G1 X46.898 Y60.278 E.0082
G1 X50.04 Y57.311 E.1355
G1 X50.288 Y57.175 E.00887
G1 X50.555 Y57.17 E.00837
G1 X54.668 Y58.4 E.1346
G1 X54.786 Y58.451 E.00403
G1 X54.981 Y58.635 E.00841
G1 X55.056 Y58.812 E.00603
G1 X56.039 Y62.952 E.13342
G1 X56.036 Y63.193 E.00756
M204 S1000
G1 X55.654 Y63.13 F10800
M204 S800
;TYPE:External perimeter
G1 F1200
G1 X55.642 Y63.192 E.00198
G1 X55.089 Y63.719 E.02395
G1 X52.523 Y66.141 E.11063
G1 X52.366 Y66.193 E.00519
G1 X48.262 Y64.965 E.13431
G1 X48.14 Y64.86 E.00505
G1 X47.15 Y60.687 E.13447
G1 X47.187 Y60.523 E.00527
G1 X50.299 Y57.586 E.13417
G1 X50.458 Y57.535 E.00524
G1 X54.56 Y58.761 E.13424
G1 X54.689 Y58.899 E.00592
G1 X55.672 Y63.039 E.13342
G1 X55.665 Y63.071 E.00103
M204 S1000
;WIPE_START
G1 F8640
G1 X55.654 Y63.13 E-.01386
G1 X55.642 Y63.192 E-.01458
G1 X55.089 Y63.719 E-.17639
G1 X52.585 Y66.083 E-.79517
;WIPE_END
G1 Z.4 F720
G1 X94.051 Y41.929 F10800
G1 Z.2 F720
G1 E1 F2100
M204 S800
;TYPE:Perimeter
G1 F1200
G1 X94.27 Y41.798 E.008
G1 X98.441 Y40.808 E.13441
G1 X98.721 Y40.813 E.00878
G1 X98.949 Y40.933 E.00808
G1 X101.905 Y44.065 E.13503
G1 X102.027 Y44.267 E.0074
G1 X102.051 Y44.562 E.00928
G1 X100.816 Y48.692 E.13516
G1 X100.684 Y48.92 E.00826
G1 X100.444 Y49.07 E.00887
G1 X96.264 Y50.063 E.13471
G1 X95.982 Y50.058 E.00884
G1 X95.742 Y49.922 E.00865
G1 X92.801 Y46.806 E.13434
G1 X92.665 Y46.563 E.00873
G1 X92.67 Y46.256 E.00963
G1 X93.889 Y42.179 E.13342
G1 X94.013 Y41.973 E.00754
M204 S1000
G1 X94.313 Y42.217 F10800
M204 S800
;TYPE:External perimeter
G1 F1200
G1 X94.361 Y42.164 E.00224
G1 X98.529 Y41.175 E.13431
G1 X98.686 Y41.205 E.00501
G1 X101.63 Y44.324 E.13448
G1 X101.683 Y44.475 E.00502
G1 X100.454 Y48.587 E.13456
G1 X100.344 Y48.705 E.00506
G1 X96.177 Y49.696 E.1343
G1 X96.018 Y49.662 E.0051
G1 X93.075 Y46.548 E.13434
G1 X93.019 Y46.405 E.00482
G1 X94.251 Y42.287 E.13477
G1 X94.273 Y42.262 E.00104
M204 S1000
;WIPE_START
G1 F8640
G1 X94.313 Y42.217 E-.0139
G1 X94.361 Y42.164 E-.01651
G1 X98.446 Y41.194 E-.96959
;WIPE_END
G1 Z.4 F720
G1 X118.392 Y92.762 F10800
G1 Z.2 F720
G1 E1 F2100
M204 S800
;TYPE:Perimeter
G1 F1200
G1 X118.283 Y92.973 E.00745
G1 X115.151 Y95.929 E.13503
G1 X114.934 Y96.057 E.0079
G1 X114.645 Y96.073 E.00908
G1 X110.524 Y94.84 E.13487
G1 X110.276 Y94.689 E.0091
G1 X110.139 Y94.444 E.0088
G1 X109.153 Y90.288 E.13393
G1 X109.156 Y90.016 E.00853
G1 X109.291 Y89.769 E.00883
G1 X112.41 Y86.825 E.13448
G1 X112.661 Y86.688 E.00897
G1 X112.937 Y86.688 E.00865
G1 X117.037 Y87.914 E.13418
G1 X117.284 Y88.065 E.00908
G1 X117.411 Y88.263 E.00738
G1 X118.408 Y92.466 E.13544
G1 X118.406 Y92.705 E.00749
M204 S1000
G1 X118.022 Y92.644 F10800
M204 S800
;TYPE:External perimeter
G1 F1200
G1 X118.007 Y92.715 E.00228
G1 X114.892 Y95.655 E.1343
G1 X114.738 Y95.707 E.0051
G1 X110.632 Y94.479 E.13437
G1 X110.512 Y94.372 E.00504
G1 X109.52 Y90.201 E.13443
G1 X109.551 Y90.042 E.00508
G1 X112.668 Y87.099 E.13441
G1 X112.826 Y87.048 E.00521
G1 X116.929 Y88.275 E.13428
G1 X117.05 Y88.375 E.00492
G1 X118.041 Y92.553 E.13463
G1 X118.034 Y92.586 E.00106
M204 S1000
;WIPE_START
G1 F8640
G1 X118.022 Y92.644 E-.01368
G1 X118.007 Y92.715 E-.01676
G1 X114.954 Y95.597 E-.96956
;WIPE_END
G1 Z.4 F720
G1 X72.526 Y106.7 F10800
G1 Z.2 F720
G1 E1 F2100
M204 S800
;TYPE:Perimeter
G1 F1200
G1 X72.527 Y106.963 E.00825
G1 X71.302 Y111.062 E.13414
G1 X71.176 Y111.282 E.00795
G1 X70.951 Y111.432 E.00848
G1 X66.75 Y112.433 E.13541
G1 X66.49 Y112.433 E.00815
G1 X66.276 Y112.332 E.00742
G1 X63.287 Y109.176 E.13629
G1 X63.154 Y108.944 E.00838
G1 X63.145 Y108.668 E.00866
G1 X63.424 Y107.731 E.03065
G1 X64.376 Y104.548 E.10417
G1 X64.515 Y104.313 E.00856
G1 X64.747 Y104.171 E.00853
G1 X68.928 Y103.177 E.13475
G1 X69.209 Y103.183 E.00881
G1 X69.449 Y103.319 E.00865
G1 X72.391 Y106.434 E.13434
G1 X72.508 Y106.645 E.00756
M204 S1000
G1 X72.145 Y106.782 F10800
M204 S800
;TYPE:External perimeter
G1 F1200
G1 X72.166 Y106.848 E.00217
G1 X70.941 Y110.954 E.13435
G1 X70.843 Y111.069 E.00474
G1 X66.663 Y112.066 E.13474
G1 X66.505 Y112.032 E.00507
G1 X63.561 Y108.917 E.13439
G1 X63.511 Y108.763 E.00508
G1 X63.785 Y107.839 E.03022
G1 X64.737 Y104.656 E.10417
G1 X64.844 Y104.537 E.00502
G1 X69.015 Y103.544 E.13443
G1 X69.173 Y103.578 E.00507
G1 X72.117 Y106.693 E.13439
G1 X72.127 Y106.725 E.00105
M204 S1000
;WIPE_START
G1 F8640
G1 X72.145 Y106.782 E-.0138
G1 X72.166 Y106.848 E-.01599
G1 X70.964 Y110.874 E-.97021
;WIPE_END
G1 Z.4 F720
G1 X81.882 Y26.415 F10800
G1 Z.2 F720
G1 E1 F2100
M204 S800
;TYPE:Perimeter
G1 F1200
G1 X81.899 Y26.414 E.00053
G1 X84.848 Y26.458 E.09247
G1 X87.844 Y26.683 E.0942
G1 X90.821 Y27.086 E.09419
G1 X93.769 Y27.667 E.09421
G1 X96.677 Y28.423 E.09421
G1 X99.534 Y29.351 E.09419
G1 X102.33 Y30.448 E.09417
G1 X105.056 Y31.711 E.0942
G1 X107.702 Y33.135 E.09421
G1 X110.258 Y34.714 E.0942
G1 X112.714 Y36.444 E.09419
G1 X115.063 Y38.317 E.0942
G1 X117.296 Y40.327 E.0942
G1 X119.404 Y42.467 E.09418
G1 X121.381 Y44.73 E.09422
G1 X123.218 Y47.106 E.09417
G1 X124.911 Y49.588 E.0942
G1 X126.452 Y52.167 E.0942
G1 X127.836 Y54.834 E.09421
G1 X129.058 Y57.578 E.09418
G1 X130.113 Y60.391 E.0942
G1 X130.999 Y63.262 E.09421
G1 X131.711 Y66.181 E.09421
G1 X132.247 Y69.137 E.09419
G1 X132.606 Y72.119 E.09417
G1 X132.763 Y74.737 E.08223
G1 X132.786 Y75.5 E.02393
G1 X132.786 Y78.122 E.08221
G1 X132.606 Y81.121 E.0942
G1 X132.247 Y84.104 E.0942
G1 X131.711 Y87.06 E.09419
G1 X130.999 Y89.979 E.09421
G1 X130.113 Y92.85 E.09421
G1 X129.058 Y95.662 E.09417
G1 X127.836 Y98.407 E.09421
G1 X126.452 Y101.073 E.09418
G1 X124.911 Y103.652 E.0942
G1 X123.218 Y106.135 E.09423
G1 X121.381 Y108.511 E.09417
G1 X119.404 Y110.774 E.09422
G1 X117.296 Y112.914 E.09418
G1 X115.063 Y114.924 E.0942
G1 X112.714 Y116.797 E.0942
G1 X110.258 Y118.526 E.09417
G1 X107.702 Y120.106 E.09422
G1 X105.056 Y121.529 E.0942
G1 X102.33 Y122.792 E.0942
G1 X99.534 Y123.89 E.09418
G1 X96.677 Y124.818 E.09419
G1 X93.769 Y125.574 E.09421
G1 X90.821 Y126.155 E.09421
G1 X87.844 Y126.558 E.09419
G1 X84.848 Y126.782 E.0942
G1 X81.844 Y126.827 E.0942
G1 X78.843 Y126.692 E.09419
G1 X75.855 Y126.378 E.0942
G1 X72.892 Y125.886 E.09417
M73 Q1 S85
G1 X69.963 Y125.218 E.09419
G1 X67.079 Y124.375 E.09421
G1 X64.251 Y123.362 E.09419
G1 X61.488 Y122.181 E.09421
M73 P1 R85
G1 X58.802 Y120.837 E.09417
G1 X56.2 Y119.335 E.0942
G1 X53.692 Y117.68 E.09421
G1 X51.289 Y115.878 E.09418
G1 X48.997 Y113.936 E.09419
G1 X46.825 Y111.859 E.09423
G1 X44.782 Y109.657 E.09418
M73 P1 R84
G1 X42.874 Y107.337 E.09418
G1 X41.108 Y104.906 E.09421
G1 X39.491 Y102.374 E.0942
G1 X38.028 Y99.751 E.09417
G1 X36.703 Y96.993 E.09594
G1 X35.585 Y94.264 E.09247
G1 X34.614 Y91.421 E.0942
G1 X33.815 Y88.525 E.09419
G1 X33.19 Y85.586 E.09421
G1 X32.742 Y82.615 E.09421
G1 X32.473 Y79.623 E.09419
G1 X32.383 Y76.621 E.09417
G1 X32.478 Y73.563 E.09593
G1 X32.742 Y70.625 E.09249
G1 X33.19 Y67.655 E.09418
G1 X33.815 Y64.716 E.09421
G1 X34.614 Y61.82 E.09419
G1 X35.606 Y58.926 E.09592
G1 X36.724 Y56.197 E.09247
G1 X38.028 Y53.49 E.09421
G1 X39.491 Y50.866 E.0942
G1 X41.108 Y48.335 E.09417
G1 X42.874 Y45.904 E.09421
G1 X44.782 Y43.583 E.09421
G1 X46.825 Y41.381 E.09418
G1 X49.039 Y39.27 E.09592
G1 X51.289 Y37.363 E.09248
G1 X53.692 Y35.561 E.09418
G1 X56.2 Y33.905 E.09423
G1 X58.801 Y32.403 E.09417
G1 X61.488 Y31.059 E.0942
G1 X64.251 Y29.879 E.0942
G1 X67.132 Y28.85 E.09592
G1 X69.963 Y28.023 E.09247
G1 X72.892 Y27.354 E.0942
G1 X75.855 Y26.862 E.09417
G1 X78.843 Y26.548 E.0942
G1 X81.822 Y26.418 E.09349
M204 S1000
G1 X81.888 Y26.037 F10800
M204 S800
;TYPE:External perimeter
G1 F1200
G1 X81.894 Y26.037 E.00019
G1 X84.865 Y26.081 E.09316
G1 X87.884 Y26.308 E.09493
G1 X90.883 Y26.714 E.09489
G1 X93.853 Y27.299 E.09491
G1 X96.782 Y28.06 E.09489
G1 X99.661 Y28.996 E.09492
G1 X102.479 Y30.102 E.09492
G1 X105.225 Y31.374 E.09489
G1 X107.891 Y32.808 E.09492
G1 X110.465 Y34.399 E.09488
G1 X112.941 Y36.142 E.09494
G1 X115.307 Y38.029 E.09489
G1 X117.556 Y40.054 E.09489
G1 X119.681 Y42.21 E.09492
G1 X121.672 Y44.49 E.09491
G1 X123.524 Y46.884 E.0949
G1 X125.229 Y49.385 E.09491
G1 X126.781 Y51.984 E.09491
G1 X128.176 Y54.67 E.0949
G1 X129.407 Y57.435 E.0949
G1 X130.47 Y60.269 E.0949
G1 X131.362 Y63.162 E.09492
G1 X132.08 Y66.102 E.09489
G1 X132.62 Y69.08 E.0949
G1 X132.982 Y72.085 E.0949
G1 X133.139 Y74.715 E.08261
G1 X133.163 Y75.5 E.02462
G1 X133.163 Y78.134 E.08259
G1 X132.982 Y81.155 E.09489
G1 X132.62 Y84.16 E.0949
G1 X132.08 Y87.139 E.09493
G1 X131.362 Y90.079 E.09489
G1 X130.47 Y92.971 E.09489
G1 X129.407 Y95.805 E.0949
G1 X128.176 Y98.57 E.0949
G1 X126.781 Y101.257 E.09493
G1 X125.229 Y103.855 E.09489
G1 X123.524 Y106.356 E.09491
G1 X121.672 Y108.751 E.09493
G1 X119.681 Y111.03 E.09488
G1 X117.556 Y113.186 E.09492
G1 X115.307 Y115.212 E.09491
G1 X112.941 Y117.099 E.09489
G1 X110.465 Y118.841 E.09492
G1 X107.891 Y120.432 E.09488
G1 X105.225 Y121.867 E.09493
G1 X102.479 Y123.139 E.09489
G1 X99.661 Y124.245 E.09492
G1 X96.782 Y125.18 E.09491
G1 X93.853 Y125.942 E.09489
G1 X90.883 Y126.527 E.09491
G1 X87.884 Y126.933 E.09489
G1 X84.865 Y127.159 E.09492
G1 X81.839 Y127.204 E.09489
G1 X78.815 Y127.069 E.09491
G1 X75.805 Y126.752 E.0949
G1 X72.819 Y126.256 E.09491
G1 X69.868 Y125.583 E.0949
G1 X66.963 Y124.734 E.09489
G1 X64.113 Y123.713 E.09492
G1 X61.33 Y122.523 E.0949
G1 X58.623 Y121.169 E.0949
G1 X56.001 Y119.656 E.09492
G1 X53.475 Y117.989 E.09489
G1 X51.053 Y116.173 E.09492
G1 X48.744 Y114.216 E.0949
G1 X46.557 Y112.124 E.09489
G1 X44.498 Y109.905 E.09491
G1 X42.576 Y107.567 E.0949
G1 X40.796 Y105.119 E.0949
G1 X39.167 Y102.568 E.0949
G1 X37.693 Y99.924 E.09491
G1 X36.359 Y97.146 E.09662
