; generated by PrusaSlicer 2.9.4 on 2026-05-26 at 19:49:16 UTC


;
;
; 

; external perimeters extrusion width = 0.45mm
; perimeters extrusion width = 0.45mm
; infill extrusion width = 0.45mm
; solid infill extrusion width = 0.45mm
; top infill extrusion width = 0.40mm
; first layer extrusion width = 0.42mm

M73 P0 R104
M73 Q0 S104
M201 X1000 Y1000 Z200 E5000 ; sets maximum accelerations, mm/sec^2
M203 X200 Y200 Z12 E120 ; sets maximum feedrates, mm / sec
M204 S1250 T1250 ; sets acceleration (S) and retract acceleration (R), mm/sec^2
M205 X8.00 Y8.00 Z0.40 E4.50 ; sets the jerk limits, mm/sec
M205 S0 T0 ; sets the minimum extruding and travel feed rate, mm/sec

; printing object maindisc.stl id:0 copy 0
; stop printing object maindisc.stl id:0 copy 0

;TYPE:Custom
M862.3 P "MK3S" ; printer model check
M862.1 P0.4 ; nozzle diameter check
M115 U3.14.1 ; tell printer latest fw version
G90 ; use absolute coordinates
M83 ; extruder relative mode
M104 S250 ; set extruder temp
M140 S85 ; set bed temp
M190 S85 ; wait for bed temp
M109 S250 ; wait for extruder temp
G28 W ; home all without mesh bed level
G80 X28.3225 Y28.7091 W106.73 H106.742 ; mesh bed levelling

G1 Z0.2 F720
G1 Y-3 F1000 ; go outside print area
G92 E0
G1 X60 E9 F1000 ; intro line
G1 X100 E12.5 F1000 ; intro line

G92 E0
M221 S95

; Don't change E values below. Excessive value can damage the printer.

M907 E538 ; set extruder motor current
G21 ; set units to millimeters
G90 ; use absolute coordinates
M83 ; use relative distances for extrusion

M900 K0.08 ; Filament gcode LA 1.5
M900 K45 ; Filament gcode LA 1.0




M107
;LAYER_CHANGE
;Z:0.2
;HEIGHT:0.2
G1 E-1 F2100
M73 P0 R103
G1 Z.4 F720
G1 X43.855 Y44.707 F10800
G1 Z.2 F720
G1 E1 F2100
M204 S800
;TYPE:Skirt/Brim
;WIDTH:0.42
G1 F1200
G1 X46.06 Y42.598 E.09567
G1 X48.485 Y40.537 E.09979
G1 X51.168 Y38.529 E.10507
G1 X53.794 Y36.8 E.09858
G1 X56.552 Y35.212 E.09979
G1 X59.4 Y33.793 E.09977
G1 X62.206 Y32.593 E.09569
G1 X65.325 Y31.476 E.10388
G1 X68.381 Y30.587 E.09979
G1 X71.484 Y29.883 E.09976
G1 X74.494 Y29.383 E.09567
G1 X77.658 Y29.046 E.09977
G1 X81.006 Y28.898 E.10508
G1 X84.15 Y28.949 E.09859
G1 X87.323 Y29.191 E.09978
G1 X90.347 Y29.6 E.09568
G1 X93.47 Y30.212 E.09978
G1 X96.551 Y31.008 E.09977
G1 X99.579 Y31.988 E.09979
G1 X102.663 Y33.198 E.10387
G1 X105.549 Y34.54 E.09979
G1 X108.349 Y36.051 E.09976
G1 X110.945 Y37.655 E.09568
G1 X113.549 Y39.484 E.09977
G1 X116.139 Y41.549 E.10386
G1 X118.502 Y43.682 E.09981
G1 X120.643 Y45.855 E.09565
G1 X122.823 Y48.351 E.10391
G1 X124.767 Y50.87 E.09977
G1 X126.485 Y53.391 E.09565
G1 X128.185 Y56.236 E.10391
G1 X129.647 Y59.062 E.09976
G1 X130.938 Y61.971 E.09979
G1 X132.052 Y64.951 E.09975
G1 X132.952 Y67.867 E.09568
G1 X133.737 Y71.086 E.10389
G1 X134.302 Y74.218 E.09979
G1 X134.678 Y77.378 E.09978
G1 X134.86 Y80.424 E.09568
G1 X134.864 Y83.606 E.09977
G1 X134.666 Y86.913 E.10387
G1 X134.302 Y89.943 E.09569
G1 X133.737 Y93.074 E.09976
G1 X132.952 Y96.293 E.10389
G1 X132.01 Y99.333 E.09979
G1 X130.888 Y102.311 E.09978
G1 X129.59 Y105.216 E.09976
G1 X128.185 Y107.925 E.09568
G1 X126.486 Y110.769 E.10387
G1 X124.767 Y113.29 E.09567
G1 X122.823 Y115.81 E.09979
G1 X120.732 Y118.209 E.09978
G1 X118.502 Y120.479 E.09977
G1 X116.04 Y122.696 E.10388
G1 X113.654 Y124.598 E.09567
G1 X111.054 Y126.433 E.09978
G1 X108.236 Y128.175 E.10388
G1 X105.431 Y129.679 E.09979
G1 X102.542 Y131.013 E.09977
G1 X99.702 Y132.128 E.09566
G1 X96.677 Y133.115 E.09977
G1 X93.47 Y133.949 E.1039
G1 X90.347 Y134.56 E.09978
G1 X87.193 Y134.983 E.09978
G1 X84.15 Y135.211 E.09568
G1 X80.968 Y135.263 E.09978
G1 X77.658 Y135.114 E.10389
G1 X74.624 Y134.795 E.09565
G1 X71.484 Y134.278 E.09978
G1 X68.381 Y133.573 E.09977
G1 X65.325 Y132.685 E.09978
G1 X62.206 Y131.567 E.10389
G1 X59.4 Y130.368 E.09568
G1 X56.552 Y128.948 E.09978
G1 X53.794 Y127.36 E.09979
G1 X51.136 Y125.61 E.09978
G1 X48.485 Y123.623 E.10388
G1 X46.06 Y121.562 E.09979
G1 X43.855 Y119.454 E.09565
G1 X41.601 Y117.025 E.1039
G1 X39.583 Y114.565 E.09976
G1 X37.79 Y112.096 E.09567
G1 X36.006 Y109.304 E.10389
G1 X34.46 Y106.523 E.09976
G1 X33.083 Y103.654 E.09978
G1 X31.879 Y100.708 E.09979
G1 X30.855 Y97.695 E.09978
G1 X30.012 Y94.626 E.09979
G1 X29.377 Y91.642 E.09566
G1 X28.88 Y88.328 E.10507
G1 X28.602 Y85.196 E.09859
G1 X28.511 Y82.015 E.09978
G1 X28.61 Y78.834 E.09979
G1 X28.884 Y75.795 E.09567
G1 X29.401 Y72.407 E.10746
G1 X30.043 Y69.407 E.09619
G1 X30.893 Y66.34 E.09979
G1 X31.925 Y63.33 E.09977
G1 X33.083 Y60.507 E.09567
G1 X34.52 Y57.522 E.10387
G1 X36.073 Y54.744 E.09979
G1 X37.716 Y52.173 E.09567
G1 X39.785 Y49.345 E.10987
G1 X41.687 Y47.037 E.09377
G1 X43.814 Y44.751 E.0979
M204 S1000
;WIPE_START
G1 F8640
G1 X43.855 Y44.707 E-.01389
G1 X46.06 Y42.598 E-.70453
G1 X46.989 Y41.808 E-.28158
;WIPE_END
G1 Z.4 F720
; printing object maindisc.stl id:0 copy 0
G1 X83.369 Y76.717 F10800
G1 Z.2 F720
G1 E1 F2100
M204 S800
;TYPE:Perimeter
;WIDTH:0.419999
G1 F1200
G1 X83.591 Y76.847 E.00807
G1 X87.044 Y80.579 E.15942
G1 X87.18 Y80.833 E.00903
G1 X87.179 Y81.096 E.00825
G1 X85.671 Y85.962 E.15973
G1 X85.525 Y86.198 E.0087
G1 X85.274 Y86.339 E.00903
G1 X80.326 Y87.461 E.15908
G1 X80.044 Y87.452 E.00885
G1 X79.806 Y87.314 E.00863
G1 X76.353 Y83.582 E.15942
G1 X76.217 Y83.328 E.00903
G1 X76.218 Y83.064 E.00828
G1 X77.726 Y78.198 E.15973
G1 X77.872 Y77.963 E.00867
G1 X78.123 Y77.821 E.00904
G1 X83.071 Y76.7 E.15907
G1 X83.312 Y76.707 E.00756
M204 S1000
G1 X83.245 Y77.088 F10800
M204 S800
;TYPE:External perimeter
G1 F1200
G1 X83.313 Y77.103 E.00218
G1 X86.768 Y80.835 E.15946
G1 X86.816 Y80.984 E.00491
G1 X85.311 Y85.848 E.15964
G1 X85.205 Y85.965 E.00495
G1 X84.351 Y86.162 E.02748
G1 X80.242 Y87.093 E.1321
G1 X80.084 Y87.057 E.00508
G1 X76.629 Y83.326 E.15944
G1 X76.58 Y83.176 E.00495
G1 X78.086 Y78.312 E.15965
G1 X78.192 Y78.195 E.00495
G1 X79.046 Y77.999 E.02747
G1 X83.154 Y77.068 E.13207
G1 X83.187 Y77.075 E.00106
M204 S1000
;WIPE_START
G1 F8640
G1 X83.245 Y77.088 E-.01372
G1 X83.313 Y77.103 E-.01608
G1 X86.167 Y80.186 E-.9702
;WIPE_END
G1 Z.4 F720
G1 X63.641 Y109.759 F10800
G1 Z.2 F720
G1 E1 F2100
M204 S800
;TYPE:Perimeter
G1 F1200
G1 X63.85 Y109.631 E.00768
G1 X64.718 Y109.423 E.02799
G1 X68.03 Y108.637 E.10673
G1 X68.312 Y108.642 E.00884
G1 X68.552 Y108.779 E.00866
G1 X71.494 Y111.894 E.13434
G1 X71.629 Y112.138 E.00874
G1 X71.63 Y112.423 E.00894
G1 X70.405 Y116.522 E.13414
G1 X70.279 Y116.742 E.00795
G1 X70.054 Y116.892 E.00848
G1 X65.853 Y117.892 E.1354
G1 X65.593 Y117.893 E.00815
G1 X65.379 Y117.792 E.00742
G1 X62.39 Y114.636 E.13629
G1 X62.257 Y114.404 E.00838
G1 X62.248 Y114.128 E.00866
G1 X63.478 Y110.008 E.13481
G1 X63.601 Y109.801 E.00755
M204 S1000
G1 X63.902 Y110.047 F10800
M204 S800
;TYPE:External perimeter
G1 F1200
G1 X63.947 Y109.997 E.00211
G1 X64.805 Y109.79 E.02767
G1 X68.118 Y109.004 E.10676
G1 X68.276 Y109.038 E.00507
G1 X71.219 Y112.153 E.13436
G1 X71.269 Y112.308 E.00511
G1 X70.043 Y116.414 E.13436
G1 X69.945 Y116.529 E.00474
G1 X65.766 Y117.526 E.13471
G1 X65.608 Y117.492 E.00507
G1 X62.664 Y114.377 E.13439
G1 X62.614 Y114.223 E.00508
G1 X63.84 Y110.116 E.13439
G1 X63.862 Y110.092 E.00102
M204 S1000
;WIPE_START
G1 F8640
G1 X63.902 Y110.047 E-.0139
G1 X63.947 Y109.997 E-.01553
G1 X64.805 Y109.79 E-.2038
G1 X68.036 Y109.024 E-.76677
;WIPE_END
G1 Z.4 F720
G1 X111.778 Y92.148 F10800
G1 Z.2 F720
G1 E1 F2100
M204 S800
;TYPE:Perimeter
G1 F1200
G1 X112.04 Y92.148 E.00821
G1 X116.14 Y93.374 E.13418
G1 X116.387 Y93.525 E.00908
G1 X116.513 Y93.723 E.00736
G1 X117.511 Y97.926 E.13545
G1 X117.509 Y98.194 E.0084
G1 X117.386 Y98.433 E.00843
G1 X114.254 Y101.389 E.13503
G1 X114.037 Y101.517 E.0079
G1 X113.747 Y101.533 E.00911
G1 X109.626 Y100.3 E.13487
G1 X109.379 Y100.149 E.00908
G1 X109.242 Y99.904 E.0088
G1 X108.256 Y95.748 E.13393
G1 X108.258 Y95.476 E.00853
G1 X108.392 Y95.232 E.00873
G1 X108.946 Y94.707 E.02393
G1 X111.512 Y92.285 E.11063
G1 X111.724 Y92.17 E.00756
M204 S1000
G1 X111.86 Y92.53 F10800
M204 S800
;TYPE:External perimeter
G1 F1200
G1 X111.928 Y92.508 E.00224
G1 X116.032 Y93.735 E.13431
G1 X116.152 Y93.835 E.0049
G1 X117.144 Y98.013 E.13464
G1 X117.109 Y98.175 E.0052
G1 X113.995 Y101.115 E.13428
G1 X113.84 Y101.167 E.00513
G1 X109.734 Y99.939 E.13437
G1 X109.615 Y99.832 E.00502
G1 X108.622 Y95.661 E.13443
G1 X108.652 Y95.508 E.00489
G1 X109.205 Y94.981 E.02395
G1 X111.771 Y92.559 E.11063
G1 X111.803 Y92.549 E.00105
M204 S1000
;WIPE_START
G1 F8640
G1 X111.86 Y92.53 E-.01387
G1 X111.928 Y92.508 E-.0165
G1 X115.951 Y93.711 E-.96963
;WIPE_END
G1 Z.4 F720
G1 X91.768 Y52.001 F10800
G1 Z.2 F720
G1 E1 F2100
M204 S800
;TYPE:Perimeter
G1 F1200
G1 X91.764 Y51.744 E.00806
G1 X92.992 Y47.639 E.13434
G1 X93.134 Y47.401 E.00869
G1 X93.373 Y47.258 E.00873
G1 X97.544 Y46.268 E.13441
G1 X97.824 Y46.273 E.00878
G1 X98.051 Y46.393 E.00805
G1 X101.007 Y49.525 E.13503
G1 X101.13 Y49.726 E.00739
G1 X101.154 Y50.022 E.00931
G1 X99.919 Y54.152 E.13516
G1 X99.787 Y54.38 E.00826
G1 X99.547 Y54.53 E.00887
G1 X98.679 Y54.737 E.02798
G1 X95.366 Y55.523 E.10676
M73 Q0 S103
G1 X95.085 Y55.518 E.00881
G1 X94.845 Y55.382 E.00865
G1 X91.903 Y52.266 E.13437
G1 X91.786 Y52.056 E.00754
M204 S1000
G1 X92.147 Y51.92 F10800
M204 S800
;TYPE:External perimeter
G1 F1200
G1 X92.125 Y51.854 E.00218
G1 X93.353 Y47.747 E.1344
G1 X93.464 Y47.624 E.00519
G1 X97.631 Y46.635 E.13428
G1 X97.789 Y46.665 E.00504
G1 X100.733 Y49.784 E.13448
G1 X100.786 Y49.935 E.00502
G1 X99.556 Y54.047 E.13457
G1 X99.447 Y54.165 E.00504
G1 X98.592 Y54.37 E.02757
G1 X95.279 Y55.156 E.10676
G1 X95.121 Y55.122 E.00507
G1 X92.178 Y52.007 E.13436
G1 X92.167 Y51.976 E.00103
M204 S1000
;WIPE_START
G1 F8640
G1 X92.147 Y51.92 E-.01373
G1 X92.125 Y51.854 E-.01606
G1 X93.329 Y47.828 E-.97021
;WIPE_END
G1 Z.4 F720
G1 X47.009 Y70.624 F10800
G1 Z.2 F720
G1 E1 F2100
M204 S800
;TYPE:Perimeter
G1 F1200
G1 X46.88 Y70.423 E.00749
G1 X45.886 Y66.234 E.13499
G1 X45.886 Y65.975 E.00812
G1 X46 Y65.738 E.00825
G1 X49.143 Y62.771 E.13552
G1 X49.391 Y62.635 E.00887
G1 X49.658 Y62.63 E.00837
G1 X53.771 Y63.86 E.1346
G1 X53.913 Y63.926 E.00491
G1 X54.108 Y64.136 E.00899
G1 X54.355 Y65.1 E.0312
G1 X55.141 Y68.412 E.10673
G1 X55.139 Y68.685 E.00856
G1 X55.005 Y68.928 E.0087
G1 X51.885 Y71.875 E.13456
G1 X51.633 Y72.013 E.00901
G1 X51.361 Y72.014 E.00853
G1 X47.257 Y70.786 E.13431
G1 X47.05 Y70.666 E.0075
M204 S1000
G1 X47.295 Y70.364 F10800
M204 S800
;TYPE:External perimeter
G1 F1200
G1 X47.243 Y70.32 E.00214
G1 X46.253 Y66.147 E.13447
G1 X46.29 Y65.983 E.00527
G1 X49.402 Y63.045 E.13419
G1 X49.561 Y62.995 E.00523
G1 X53.663 Y64.221 E.13424
G1 X53.792 Y64.359 E.00592
G1 X54.775 Y68.499 E.13342
G1 X54.745 Y68.652 E.00489
G1 X54.192 Y69.179 E.02395
G1 X51.626 Y71.601 E.11063
G1 X51.468 Y71.652 E.00521
G1 X47.365 Y70.425 E.13428
G1 X47.34 Y70.404 E.00102
M204 S1000
;WIPE_START
G1 F8640
G1 X47.295 Y70.364 E-.0139
G1 X47.243 Y70.32 E-.01573
G1 X46.273 Y66.231 E-.97037
;WIPE_END
G1 Z.4 F720
G1 X80.962 Y31.875 F10800
G1 Z.2 F720
G1 E1 F2100
M204 S800
;TYPE:Perimeter
G1 F1200
G1 X80.979 Y31.874 E.00053
G1 X83.951 Y31.918 E.0932
G1 X86.947 Y32.143 E.0942
G1 X89.924 Y32.546 E.09419
G1 X92.872 Y33.127 E.09421
G1 X95.779 Y33.882 E.09417
G1 X98.637 Y34.811 E.09423
G1 X101.433 Y35.908 E.09417
G1 X104.159 Y37.171 E.0942
G1 X106.805 Y38.595 E.09421
G1 X109.36 Y40.174 E.09417
G1 X111.817 Y41.903 E.0942
G1 X114.166 Y43.777 E.09422
G1 X116.399 Y45.787 E.0942
G1 X118.507 Y47.927 E.09418
G1 X120.484 Y50.189 E.09419
G1 X122.321 Y52.566 E.09419
G1 X124.014 Y55.048 E.0942
G1 X125.555 Y57.627 E.0942
G1 X126.938 Y60.294 E.0942
G1 X128.172 Y63.068 E.09519
G1 X129.216 Y65.851 E.0932
G1 X130.102 Y68.722 E.09421
G1 X130.814 Y71.64 E.09418
G1 X131.35 Y74.596 E.09419
G1 X131.709 Y77.579 E.0942
G1 X131.866 Y80.197 E.08223
G1 X131.889 Y80.96 E.02393
G1 X131.889 Y83.582 E.08221
G1 X131.709 Y86.581 E.0942
G1 X131.35 Y89.564 E.0942
G1 X130.814 Y92.52 E.09419
G1 X130.102 Y95.439 E.09421
G1 X129.216 Y98.309 E.09418
G1 X128.16 Y101.122 E.09421
G1 X126.938 Y103.867 E.09421
G1 X125.555 Y106.533 E.09417
G1 X124.014 Y109.112 E.0942
G1 X122.321 Y111.594 E.0942
G1 X120.484 Y113.971 E.09419
G1 X118.507 Y116.233 E.09419
G1 X116.399 Y118.374 E.09421
G1 X114.166 Y120.384 E.0942
G1 X111.817 Y122.257 E.0942
G1 X109.36 Y123.986 E.0942
G1 X106.805 Y125.566 E.09419
G1 X104.159 Y126.989 E.0942
G1 X101.433 Y128.252 E.0942
G1 X98.637 Y129.35 E.09418
G1 X95.779 Y130.278 E.09422
G1 X92.872 Y131.034 E.09418
G1 X89.924 Y131.614 E.0942
G1 X86.947 Y132.018 E.0942
G1 X83.951 Y132.242 E.0942
G1 X80.947 Y132.287 E.0942
G1 X77.946 Y132.152 E.09419
G1 X74.958 Y131.838 E.0942
G1 X71.995 Y131.346 E.09417
G1 X69.066 Y130.678 E.09419
G1 X66.182 Y129.835 E.09421
G1 X63.354 Y128.822 E.09419
G1 X60.591 Y127.641 E.09421
G1 X57.904 Y126.297 E.0942
G1 X55.303 Y124.795 E.09417
G1 X52.795 Y123.14 E.09421
G1 X50.391 Y121.338 E.0942
G1 X48.1 Y119.395 E.09419
G1 X45.928 Y117.319 E.09421
G1 X43.885 Y115.117 E.09418
G1 X41.977 Y112.796 E.09421
G1 X40.211 Y110.366 E.09419
G1 X38.594 Y107.834 E.0942
G1 X37.131 Y105.21 E.0942
G1 X35.827 Y102.503 E.09421
G1 X34.688 Y99.724 E.09417
G1 X33.717 Y96.881 E.0942
G1 X32.911 Y93.953 E.09522
G1 X32.293 Y91.046 E.09318
G1 X31.845 Y88.075 E.09421
G1 X31.576 Y85.083 E.09419
G1 X31.486 Y82.08 E.0942
G1 X31.579 Y79.045 E.0952
G1 X31.845 Y76.085 E.09318
G1 X32.293 Y73.114 E.09421
G1 X32.917 Y70.176 E.09417
G1 X33.717 Y67.28 E.0942
G1 X34.688 Y64.437 E.0942
G1 X35.827 Y61.657 E.0942
G1 X37.13 Y58.95 E.0942
G1 X38.611 Y56.299 E.09521
G1 X40.211 Y53.794 E.0932
G1 X41.977 Y51.364 E.09419
G1 X43.885 Y49.043 E.09421
G1 X45.928 Y46.841 E.09418
G1 X48.1 Y44.765 E.09421
G1 X50.391 Y42.823 E.09417
G1 X52.822 Y41.003 E.09522
G1 X55.303 Y39.365 E.09321
G1 X57.904 Y37.863 E.09417
G1 X60.591 Y36.519 E.0942
G1 X63.354 Y35.339 E.0942
G1 X66.213 Y34.316 E.09521
G1 X69.066 Y33.483 E.09319
G1 X71.995 Y32.814 E.0942
G1 X74.958 Y32.322 E.09417
G1 X77.946 Y32.008 E.0942
G1 X80.902 Y31.877 E.09277
M204 S1000
G1 X80.968 Y31.497 F10800
M204 S800
;TYPE:External perimeter
G1 F1200
G1 X80.974 Y31.497 E.00019
G1 X83.968 Y31.541 E.09388
G1 X86.987 Y31.768 E.09493
G1 X89.986 Y32.174 E.09489
G1 X92.956 Y32.759 E.09491
G1 X95.885 Y33.52 E.09489
G1 X98.764 Y34.456 E.09492
G1 X101.582 Y35.561 E.09491
G1 X104.328 Y36.834 E.0949
G1 X106.993 Y38.268 E.09489
G1 X109.568 Y39.859 E.09491
G1 X112.043 Y41.602 E.09491
G1 X114.41 Y43.489 E.09491
G1 X116.659 Y45.514 E.09489
G1 X118.783 Y47.67 E.09489
G1 X120.775 Y49.95 E.09493
G1 X122.627 Y52.344 E.0949
G1 X124.332 Y54.845 E.09491
G1 X125.884 Y57.444 E.09491
G1 X127.278 Y60.13 E.09488
G1 X128.521 Y62.925 E.09591
G1 X129.573 Y65.729 E.0939
G1 X130.465 Y68.621 E.09489
G1 X131.183 Y71.562 E.09492
G1 X131.723 Y74.54 E.0949
G1 X132.085 Y77.545 E.0949
G1 X132.242 Y80.175 E.08261
G1 X132.266 Y80.96 E.02462
M73 Q1 S103
G1 X132.266 Y83.594 E.08259
G1 X132.085 Y86.615 E.09489
M73 P1 R103
G1 X131.723 Y89.62 E.0949
G1 X131.183 Y92.598 E.0949
G1 X130.465 Y95.539 E.09492
G1 X129.573 Y98.431 E.09489
G1 X128.509 Y101.265 E.09491
G1 X127.278 Y104.03 E.0949
G1 X125.884 Y106.717 E.09491
G1 X124.332 Y109.315 E.09489
G1 X122.626 Y111.816 E.09492
G1 X120.775 Y114.211 E.09491
G1 X118.783 Y116.49 E.09491
G1 X116.659 Y118.646 E.09489
G1 X114.41 Y120.672 E.09491
G1 X112.043 Y122.559 E.09491
M73 P1 R102
G1 X109.568 Y124.301 E.0949
G1 X106.993 Y125.892 E.09491
G1 X104.328 Y127.327 E.0949
G1 X101.582 Y128.599 E.09489
G1 X98.764 Y129.705 E.09492
G1 X95.885 Y130.64 E.09491
G1 X92.956 Y131.402 E.09489
G1 X89.986 Y131.987 E.09491
G1 X86.987 Y132.393 E.09489
G1 X83.968 Y132.619 E.09492
G1 X80.942 Y132.664 E.09489
G1 X77.918 Y132.529 E.09491
G1 X74.908 Y132.212 E.0949
G1 X71.922 Y131.716 E.09491
G1 X68.971 Y131.043 E.0949
G1 X66.065 Y130.194 E.09492
G1 X63.216 Y129.173 E.09489
G1 X60.433 Y127.983 E.0949
G1 X57.726 Y126.629 E.0949
G1 X55.104 Y125.116 E.09492
G1 X52.578 Y123.448 E.09491
G1 X50.156 Y121.633 E.0949
G1 X47.847 Y119.676 E.0949
G1 X45.659 Y117.584 E.09491
G1 X43.601 Y115.365 E.09489
G1 X41.678 Y113.027 E.09492
G1 X39.899 Y110.578 E.09491
