; generated by PrusaSlicer 2.9.4 on 2026-05-20 at 20:09:10 UTC


;
;
; 

; external perimeters extrusion width = 0.45mm
; perimeters extrusion width = 0.45mm
; infill extrusion width = 0.45mm
; solid infill extrusion width = 0.45mm
; top infill extrusion width = 0.40mm
; support material extrusion width = 0.35mm
; first layer extrusion width = 0.42mm

M73 P0 R61
M73 Q0 S61
M201 X1000 Y1000 Z200 E5000 ; sets maximum accelerations, mm/sec^2
M203 X200 Y200 Z12 E120 ; sets maximum feedrates, mm / sec
M204 S1250 T1250 ; sets acceleration (S) and retract acceleration (R), mm/sec^2
M205 X8.00 Y8.00 Z0.40 E4.50 ; sets the jerk limits, mm/sec
M205 S0 T0 ; sets the minimum extruding and travel feed rate, mm/sec

; printing object horse (Assembly).stl id:0 copy 0
; stop printing object horse (Assembly).stl id:0 copy 0

;TYPE:Custom
M862.3 P "MK3S" ; printer model check
M862.1 P0.4 ; nozzle diameter check
M115 U3.14.1 ; tell printer latest fw version
G90 ; use absolute coordinates
M83 ; extruder relative mode
M104 S250 ; set extruder temp
M140 S85 ; set bed temp
M190 S85 ; wait for bed temp
M109 S250 ; wait for extruder temp
G28 W ; home all without mesh bed level
G80 X85.5374 Y36.6982 W31.3083 H35.1575 ; mesh bed levelling

G1 Z0.2 F720
G1 Y-3 F1000 ; go outside print area
G92 E0
G1 X60 E9 F1000 ; intro line
G1 X100 E12.5 F1000 ; intro line
M73 P0 R60

G92 E0
M221 S95

; Don't change E values below. Excessive value can damage the printer.

M907 E538 ; set extruder motor current
G21 ; set units to millimeters
G90 ; use absolute coordinates
M83 ; use relative distances for extrusion

M900 K0.08 ; Filament gcode LA 1.5
M900 K45 ; Filament gcode LA 1.0




M107
;LAYER_CHANGE
;Z:0.2
;HEIGHT:0.2
G1 E-1 F2100
G1 Z.4 F720
G1 X87.847 Y40.896 F10800
G1 Z.2 F720
G1 E1 F2100
M204 S800
;TYPE:Skirt/Brim
;WIDTH:0.42
G1 F1200
G1 X87.972 Y40.627 E.0093
G1 X90.96 Y37.638 E.13252
G1 X92.774 Y36.887 E.06156
G1 X109.614 Y36.887 E.52801
G1 X111.429 Y37.64 E.06161
G1 X114.417 Y40.63 E.13254
G1 X115.158 Y42.223 E.05509
G1 X116.654 Y59.998 E.55929
G1 X116.657 Y66.114 E.19176
M73 Q0 S60
G1 X115.906 Y67.928 E.06156
G1 X112.918 Y70.916 E.13249
G1 X111.104 Y71.667 E.06156
G1 X91.279 Y71.667 E.6216
G1 X89.465 Y70.916 E.06156
G1 X86.477 Y67.928 E.13249
G1 X85.726 Y66.114 E.06156
G1 X85.763 Y59.241 E.2155
G1 X87.23 Y42.22 E.53566
G1 X87.821 Y40.95 E.04392
M204 S1000
G1 X88.143 Y41.1 F10800
M204 S800
G1 F1200
G1 X88.239 Y40.893 E.00715
G1 X91.226 Y37.905 E.13247
G1 X92.774 Y37.264 E.05253
G1 X109.614 Y37.265 E.52801
G1 X111.162 Y37.906 E.05253
G1 X114.15 Y40.896 E.13254
G1 X114.782 Y42.256 E.04702
G1 X116.275 Y59.968 E.55732
G1 X116.28 Y66.114 E.1927
G1 X115.639 Y67.662 E.05253
G1 X112.652 Y70.649 E.13245
G1 X111.104 Y71.29 E.05253
G1 X91.279 Y71.29 E.6216
G1 X89.732 Y70.649 E.0525
G1 X86.744 Y67.662 E.13247
G1 X86.103 Y66.114 E.05253
G1 X86.153 Y59.089 E.22027
G1 X87.606 Y42.252 E.52987
G1 X88.117 Y41.154 E.03797
M204 S1000
;WIPE_START
G1 F8640
G1 X88.143 Y41.1 E-.01384
G1 X88.239 Y40.893 E-.05269
G1 X91.097 Y38.034 E-.93347
;WIPE_END
G1 Z.4 F720
G1 X90.525 Y42.541 F10800
G1 Z.2 F720
G1 E1 F2100
M204 S800
G1 F1200
G1 X91.039 Y41.648 E.03231
G1 X91.949 Y40.722 E.04071
G1 X92.945 Y40.138 E.0362
G1 X94.091 Y39.791 E.03754
G1 X103.231 Y39.739 E.28658
G1 X108.605 Y39.849 E.16853
G1 X109.685 Y40.249 E.03611
G1 X110.659 Y40.908 E.03687
G1 X111.47 Y41.807 E.03796
G1 X112.014 Y42.843 E.03669
G1 X112.314 Y44.215 E.04403
G1 X112.308 Y54.7 E.32875
G1 X112.737 Y55.51 E.02874
G1 X113.357 Y57.148 E.05491
G1 X113.74 Y59.063 E.06123
G1 X113.805 Y60.168 E.03471
G1 X113.805 Y64.428 E.13357
G1 X113.446 Y65.852 E.04605
G1 X112.801 Y66.954 E.04004
G1 X111.823 Y67.913 E.04295
G1 X110.723 Y68.5 E.03909
G1 X109.454 Y68.81 E.04096
G1 X92.965 Y68.815 E.517
G1 X91.543 Y68.457 E.04598
G1 X90.456 Y67.825 E.03942
G1 X89.574 Y66.955 E.03884
G1 X88.956 Y65.897 E.03842
G1 X88.613 Y64.676 E.03977
G1 X88.578 Y60.183 E.14088
G1 X88.727 Y58.451 E.05451
G1 X88.954 Y57.407 E.0335
G1 X89.557 Y55.709 E.0565
G1 X90.075 Y54.692 E.03579
G1 X90.073 Y44.127 E.33126
G1 X90.431 Y42.704 E.04601
G1 X90.495 Y42.593 E.00402
M204 S1000
G1 X90.815 Y42.78 F10800
M204 S800
G1 F1200
G1 X91.352 Y41.86 E.0334
G1 X92.199 Y41.006 E.03771
G1 X93.114 Y40.476 E.03315
G1 X94.172 Y40.16 E.03462
G1 X103.226 Y40.116 E.28389
G1 X108.504 Y40.213 E.16552
G1 X109.531 Y40.594 E.03435
G1 X110.427 Y41.206 E.03402
G1 X111.173 Y42.04 E.03508
G1 X111.668 Y42.993 E.03367
G1 X111.937 Y44.235 E.03984
G1 X111.931 Y54.794 E.33107
G1 X112.789 Y56.626 E.06343
G1 X113.162 Y57.899 E.04159
G1 X113.364 Y59.095 E.03803
G1 X113.428 Y60.174 E.03389
G1 X113.428 Y64.404 E.13263
G1 X113.088 Y65.732 E.04298
G1 X112.49 Y66.74 E.03675
G1 X111.579 Y67.624 E.0398
G1 X110.611 Y68.139 E.03438
G1 X109.386 Y68.438 E.03954
G1 X92.989 Y68.438 E.51412
G1 X91.663 Y68.098 E.04292
G1 X90.669 Y67.513 E.03616
G1 X89.859 Y66.706 E.03585
G1 X89.295 Y65.73 E.03534
G1 X88.99 Y64.648 E.03525
G1 X88.955 Y60.185 E.13994
G1 X89.1 Y58.506 E.05284
G1 X89.575 Y56.683 E.05907
G1 X90.452 Y54.792 E.06536
G1 X90.45 Y44.151 E.33364
G1 X90.788 Y42.832 E.04269
M204 S1000
G1 X91.148 Y42.945 F10800
M204 S800
G1 F1200
G1 X91.664 Y42.073 E.03177
G1 X92.447 Y41.291 E.0347
G1 X93.281 Y40.815 E.03011
G1 X94.253 Y40.529 E.03177
G1 X103.222 Y40.493 E.28122
G1 X108.403 Y40.578 E.16247
G1 X109.378 Y40.94 E.03261
G1 X110.193 Y41.503 E.03106
G1 X110.874 Y42.272 E.03221
G1 X111.321 Y43.143 E.0307
G1 X111.56 Y44.255 E.03566
G1 X111.553 Y54.888 E.33339
G1 X112.046 Y55.814 E.03289
G1 X112.633 Y57.36 E.05185
G1 X112.988 Y59.128 E.05654
G1 X113.051 Y60.18 E.03304
G1 X113.051 Y64.379 E.13166
G1 X112.73 Y65.609 E.03986
G1 X112.18 Y66.523 E.03345
G1 X111.338 Y67.333 E.03663
G1 X110.497 Y67.779 E.02985
G1 X109.363 Y68.061 E.03664
G1 X93.014 Y68.061 E.51261
G1 X91.784 Y67.74 E.03986
G1 X90.917 Y67.228 E.03157
G1 X90.171 Y66.494 E.03281
G1 X89.65 Y65.602 E.03239
G1 X89.367 Y64.619 E.03207
G1 X89.333 Y60.187 E.13897
G1 X89.473 Y58.562 E.05114
G1 X89.687 Y57.585 E.03136
G1 X90.241 Y56.026 E.05188
G1 X90.829 Y54.893 E.04002
G1 X90.827 Y44.175 E.33606
G1 X91.133 Y43.003 E.03798
M204 S1000
G1 X91.497 Y43.1 F10800
M204 S800
G1 F1200
G1 X91.505 Y43.069 E.001
G1 X91.974 Y42.289 E.02854
G1 X92.693 Y41.577 E.03173
G1 X93.445 Y41.154 E.02705
G1 X94.331 Y40.899 E.02891
G1 X103.218 Y40.87 E.27865
G1 X108.304 Y40.943 E.15948
G1 X109.185 Y41.265 E.02941
G1 X109.928 Y41.772 E.0282
G1 X110.55 Y42.466 E.02922
G1 X110.974 Y43.293 E.02914
G1 X111.183 Y44.274 E.03145
G1 X111.176 Y54.982 E.33574
G1 X111.701 Y55.967 E.035
G1 X112.077 Y56.875 E.03081
G1 X112.427 Y58.072 E.0391
G1 X112.612 Y59.161 E.03463
G1 X112.674 Y64.354 E.16283
G1 X112.373 Y65.485 E.0367
G1 X111.872 Y66.305 E.03013
G1 X111.097 Y67.042 E.03353
G1 X110.383 Y67.419 E.02532
G1 X109.339 Y67.684 E.03377
G1 X93.039 Y67.684 E.51108
G1 X91.908 Y67.383 E.0367
G1 X91.131 Y66.917 E.02841
G1 X90.455 Y66.244 E.02991
M73 Q1 S60
G1 X90.005 Y65.473 E.02799
M73 P1 R60
G1 X89.744 Y64.589 E.0289
G1 X89.71 Y60.189 E.13796
G1 X89.846 Y58.618 E.04944
G1 X90.281 Y56.948 E.05411
G1 X90.584 Y56.184 E.02577
G1 X91.206 Y54.995 E.04207
G1 X91.204 Y44.2 E.33847
G1 X91.481 Y43.158 E.03381
M204 S1000
G1 X91.844 Y43.256 F10800
M204 S800
G1 F1200
G1 X91.861 Y43.195 E.00199
G1 X92.283 Y42.506 E.02533
G1 X92.938 Y41.865 E.02874
G1 X93.608 Y41.495 E.024
G1 X94.409 Y41.269 E.0261
G1 X108.205 Y41.308 E.43257
G1 X109.033 Y41.61 E.02763
G1 X109.694 Y42.069 E.02523
G1 X110.251 Y42.697 E.02632
G1 X110.626 Y43.44 E.0261
G1 X110.805 Y44.293 E.02733
G1 X110.799 Y55.076 E.33809
G1 X111.364 Y56.136 E.03766
G1 X111.909 Y57.572 E.04816
G1 X112.237 Y59.194 E.05189
G1 X112.297 Y60.191 E.03132
G1 X112.297 Y64.329 E.12974
G1 X112.017 Y65.36 E.0335
G1 X111.595 Y66.048 E.02531
G1 X110.856 Y66.751 E.03198
G1 X110.267 Y67.06 E.02085
G1 X109.315 Y67.307 E.03084
G1 X93.064 Y67.307 E.50954
G1 X92.033 Y67.027 E.0335
G1 X91.348 Y66.608 E.02518
G1 X90.739 Y65.996 E.02707
G1 X90.359 Y65.342 E.02372
G1 X90.12 Y64.558 E.0257
G1 X90.087 Y60.191 E.13693
G1 X90.218 Y58.675 E.04771
G1 X90.42 Y57.763 E.02929
G1 X90.926 Y56.342 E.04729
G1 X91.583 Y55.096 E.04417
G1 X91.581 Y44.225 E.34085
G1 X91.829 Y43.314 E.0296
M204 S1000
G1 X92.191 Y43.415 F10800
M204 S800
G1 F1200
G1 X92.217 Y43.322 E.00303
G1 X92.563 Y42.76 E.02069
G1 X93.183 Y42.153 E.02721
G1 X93.731 Y41.852 E.0196
G1 X94.486 Y41.639 E.0246
G1 X103.212 Y41.624 E.2736
G1 X108.109 Y41.674 E.15355
G1 X108.841 Y41.936 E.02438
G1 X109.43 Y42.338 E.02236
G1 X109.926 Y42.89 E.02327
G1 X110.278 Y43.587 E.02448
G1 X110.428 Y44.312 E.02321
G1 X110.422 Y55.182 E.34082
G1 X111.025 Y56.301 E.03986
G1 X111.365 Y57.124 E.02792
G1 X111.693 Y58.245 E.03662
G1 X111.861 Y59.227 E.03124
G1 X111.92 Y64.303 E.15917
G1 X111.661 Y65.232 E.03024
G1 X111.316 Y65.794 E.02068
G1 X110.655 Y66.431 E.02878
G1 X110.148 Y66.701 E.01801
G1 X109.29 Y66.93 E.02784
G1 X93.09 Y66.93 E.50794
G1 X92.161 Y66.671 E.03024
G1 X91.6 Y66.326 E.02065
G1 X91.024 Y65.747 E.02561
G1 X90.712 Y65.208 E.01953
G1 X90.497 Y64.526 E.02242
G1 X90.464 Y60.193 E.13586
G1 X90.591 Y58.731 E.04601
G1 X90.786 Y57.853 E.0282
G1 X91.269 Y56.5 E.04504
G1 X91.96 Y55.197 E.04624
G1 X91.959 Y44.252 E.34317
G1 X92.175 Y43.473 E.02535
M204 S1000
G1 X92.536 Y43.576 F10800
M204 S800
G1 F1200
G1 X92.572 Y43.451 E.00408
G1 X92.843 Y43.013 E.01615
G1 X93.428 Y42.441 E.02565
G1 X93.853 Y42.21 E.01517
G1 X94.564 Y42.008 E.02318
G1 X108.015 Y42.041 E.42175
G1 X108.652 Y42.263 E.02115
G1 X109.165 Y42.608 E.01938
G1 X109.628 Y43.123 E.02171
G1 X109.929 Y43.732 E.0213
G1 X110.051 Y44.331 E.01917
G1 X110.045 Y55.284 E.34342
G1 X110.687 Y56.467 E.0422
G1 X111.186 Y57.784 E.04416
G1 X111.485 Y59.26 E.04722
G1 X111.543 Y60.202 E.02959
G1 X111.543 Y64.276 E.12774
G1 X111.306 Y65.103 E.02697
G1 X111.035 Y65.541 E.01615
G1 X110.45 Y66.113 E.02565
G1 X110.026 Y66.344 E.01514
G1 X109.264 Y66.553 E.02477
G1 X93.117 Y66.553 E.50628
G1 X92.29 Y66.316 E.02697
G1 X91.852 Y66.045 E.01615
G1 X91.31 Y65.5 E.0241
G1 X91.051 Y65.042 E.0165
G1 X90.866 Y64.442 E.01969
G1 X90.841 Y60.196 E.13313
G1 X90.964 Y58.788 E.04431
G1 X91.148 Y57.958 E.02666
G1 X91.611 Y56.658 E.04327
G1 X92.337 Y55.299 E.04831
G1 X92.336 Y44.279 E.34552
G1 X92.52 Y43.634 E.02103
M204 S1000
G1 X92.88 Y43.74 F10800
M204 S800
G1 F1200
G1 X92.926 Y43.583 E.00513
G1 X93.124 Y43.265 E.01175
G1 X93.635 Y42.757 E.02259
G1 X93.978 Y42.566 E.01231
G1 X94.642 Y42.378 E.02164
G1 X107.923 Y42.407 E.41642
G1 X108.466 Y42.592 E.01799
G1 X108.905 Y42.882 E.0165
G1 X109.302 Y43.315 E.01842
G1 X109.58 Y43.876 E.01963
G1 X109.674 Y44.349 E.01512
G1 X109.668 Y55.386 E.34606
G1 X110.348 Y56.633 E.04453
G1 X110.825 Y57.896 E.04233
G1 X111.112 Y59.313 E.04533
G1 X111.165 Y60.208 E.02811
G1 X111.166 Y64.248 E.12667
G1 X110.952 Y64.971 E.02364
G1 X110.754 Y65.289 E.01175
G1 X110.243 Y65.797 E.02259
G1 X109.901 Y65.988 E.01228
G1 X109.237 Y66.175 E.02163
G1 X93.145 Y66.175 E.50455
G1 X92.422 Y65.962 E.02363
G1 X92.104 Y65.764 E.01175
G1 X91.596 Y65.253 E.02259
G1 X91.234 Y64.357 E.0303
G1 X91.25 Y59.52 E.15166
G1 X91.337 Y58.845 E.02134
G1 X91.694 Y57.476 E.04436
G1 X92.268 Y56.167 E.04482
G1 X92.715 Y55.401 E.02781
G1 X92.713 Y44.306 E.34788
G1 X92.863 Y43.798 E.01661
M204 S1000
G1 X93.221 Y43.907 F10800
M204 S800
G1 F1200
G1 X93.279 Y43.719 E.00617
G1 X93.846 Y43.07 E.02702
G1 X94.67 Y42.755 E.02766
G1 X103.21 Y42.756 E.26777
G1 X107.835 Y42.775 E.14501
G1 X108.283 Y42.922 E.01478
G1 X108.644 Y43.155 E.01347
G1 X109.005 Y43.548 E.01673
G1 X109.229 Y44.016 E.01627
G1 X109.297 Y44.366 E.01118
G1 X109.291 Y55.488 E.34872
G1 X110.009 Y56.799 E.04687
G1 X110.297 Y57.499 E.02373
G1 X110.592 Y58.503 E.03281
G1 X110.738 Y59.366 E.02744
G1 X110.788 Y64.219 E.15217
G1 X110.6 Y64.835 E.02019
G1 X110.032 Y65.484 E.02704
G1 X109.209 Y65.798 E.02762
G1 X93.174 Y65.798 E.50277
G1 X92.558 Y65.61 E.02019
G1 X91.909 Y65.042 E.02704
G1 X91.603 Y64.273 E.02595
G1 X91.595 Y60.204 E.12758
G1 X91.71 Y58.902 E.04098
G1 X92.048 Y57.607 E.04196
G1 X92.598 Y56.351 E.04299
G1 X93.092 Y55.503 E.03077
G1 X93.09 Y44.335 E.35016
G1 X93.203 Y43.965 E.01213
M204 S1000
G1 X93.559 Y44.079 F10800
M204 S800
G1 F1200
G1 X93.629 Y43.86 E.00721
G1 X94.062 Y43.38 E.02027
G1 X94.699 Y43.133 E.02142
G1 X107.745 Y43.143 E.40905
G1 X108.142 Y43.273 E.0131
G1 X108.678 Y43.739 E.02227
G1 X108.92 Y44.383 E.02157
G1 X108.913 Y55.59 E.35139
G1 X109.671 Y56.965 E.04923
G1 X110.098 Y58.096 E.0379
G1 X110.365 Y59.419 E.04232
G1 X110.411 Y60.219 E.02512
G1 X110.411 Y64.188 E.12445
G1 X110.249 Y64.694 E.01666
G1 X109.816 Y65.174 E.02027
G1 X109.179 Y65.421 E.02142
G1 X93.205 Y65.421 E.50085
G1 X92.699 Y65.259 E.01666
M73 P1 R59
G1 X92.219 Y64.826 E.02027
G1 X91.972 Y64.189 E.02142
G1 X91.972 Y60.216 E.12457
G1 X92.083 Y58.959 E.03957
G1 X92.239 Y58.258 E.02252
G1 X92.645 Y57.118 E.03794
G1 X93.469 Y55.605 E.05402
G1 X93.467 Y44.366 E.35239
G1 X93.541 Y44.136 E.00758
M204 S1000
G1 X93.892 Y44.251 F10800
M204 S800
G1 F1200
G1 X93.963 Y44.035 E.00713
G1 X94.283 Y43.686 E.01485
G1 X94.731 Y43.51 E.01509
G1 X103.21 Y43.51 E.26585
G1 X107.656 Y43.51 E.1394
G1 X108.128 Y43.707 E.01604
G1 X108.382 Y43.974 E.01155
G1 X108.524 Y44.287 E.01078
G1 X108.536 Y55.692 E.3576
G1 X109.332 Y57.131 E.05156
G1 X109.594 Y57.772 E.02171
G1 X109.857 Y58.674 E.02946
G1 X109.991 Y59.471 E.02534
G1 X110.034 Y64.157 E.14693
G1 X109.915 Y64.519 E.01195
G1 X109.595 Y64.868 E.01485
G1 X109.147 Y65.044 E.01509
G1 X93.236 Y65.044 E.49888
G1 X92.874 Y64.925 E.01195
G1 X92.525 Y64.605 E.01485
G1 X92.349 Y64.157 E.01509
G1 X92.375 Y59.642 E.14157
G1 X92.456 Y59.016 E.01979
G1 X92.763 Y57.846 E.03793
G1 X93.27 Y56.693 E.03949
G1 X93.846 Y55.707 E.0358
G1 X93.844 Y44.397 E.35462
G1 X93.873 Y44.308 E.00293
M204 S1000
G1 X94.221 Y44.432 F10800
M204 S800
G1 F1200
G1 X94.297 Y44.219 E.00709
G1 X94.514 Y43.984 E.01003
G1 X94.766 Y43.887 E.00847
G1 X107.621 Y43.887 E.40306
G1 X107.849 Y43.969 E.0076
G1 X108.056 Y44.168 E.009
G1 X108.166 Y44.418 E.00856
G1 X108.159 Y55.795 E.35672
G1 X108.993 Y57.297 E.05387
G1 X109.243 Y57.909 E.02073
G1 X109.617 Y59.523 E.05195
G1 X109.657 Y64.122 E.1442
G1 X109.581 Y64.335 E.00709
G1 X109.364 Y64.57 E.01003
G1 X109.112 Y64.667 E.00847
G1 X93.271 Y64.667 E.49668
G1 X93.058 Y64.591 E.00709
M73 Q1 S59
G1 X92.823 Y64.374 E.01003
G1 X92.726 Y64.122 E.00847
G1 X92.726 Y60.233 E.12194
G1 X92.826 Y59.09 E.03597
G1 X92.971 Y58.439 E.02091
G1 X93.33 Y57.434 E.03346
G1 X94.223 Y55.809 E.05814
G1 X94.221 Y44.492 E.35484
M204 S1000
G1 X94.627 Y44.493 F10800
M204 S800
G1 F1200
G1 X94.627 Y44.404 E.00279
G1 X94.808 Y44.264 E.00717
G1 X103.21 Y44.264 E.26344
G1 X107.579 Y44.264 E.13699
G1 X107.789 Y44.474 E.00931
G1 X107.782 Y55.869 E.35728
G1 X108.654 Y57.463 E.05697
G1 X109.122 Y58.845 E.04575
G1 X109.28 Y60.234 E.04383
G1 X109.251 Y64.15 E.12279
G1 X109.071 Y64.29 E.00715
G1 X93.243 Y64.261 E.49628
G1 X93.103 Y64.08 E.00717
G1 X93.103 Y60.237 E.12049
G1 X93.195 Y59.164 E.03377
G1 X93.672 Y57.592 E.05151
G1 X94.6 Y55.869 E.06136
G1 X94.627 Y44.553 E.35481
M204 S1000
;WIPE_START
G1 F8640
M73 P2 R59
M73 Q2 S59
G1 X94.627 Y44.493 E-.01385
G1 X94.627 Y44.404 E-.02055
G1 X94.808 Y44.264 E-.05284
G1 X98.761 Y44.264 E-.91276
;WIPE_END
G1 Z.4 F720
; printing object horse (Assembly).stl id:0 copy 0
G1 X104.306 Y56.429 F10800
G1 Z.2 F720
G1 E1 F2100
M204 S800
;TYPE:Perimeter
;WIDTH:0.419999
G1 F1200
G1 X104.123 Y56.568 E.00721
G1 X100.34 Y57.582 E.1228
G1 X100.096 Y57.593 E.00766
G1 X99.891 Y57.514 E.00689
G1 X97.067 Y54.709 E.1248
G1 X96.91 Y54.407 E.01067
G1 X96.921 Y54.163 E.00766
G1 X97.919 Y50.438 E.12091
G1 X98.019 Y50.237 E.00704
G1 X98.206 Y50.069 E.00788
G1 X102.043 Y49.041 E.12455
G1 X102.287 Y49.03 E.00766
G1 X102.439 Y49.079 E.00501
G1 X102.727 Y49.324 E.01186
G1 X105.316 Y51.913 E.1148
G1 X105.459 Y52.157 E.00887
G1 X105.462 Y52.46 E.0095
G1 X104.464 Y56.184 E.12088
G1 X104.366 Y56.383 E.00696
G1 X104.353 Y56.393 E.00051
M204 S1000
G1 X104.042 Y56.158 F10800
M204 S800
;TYPE:External perimeter
G1 F1200
G1 X103.999 Y56.211 E.00214
G1 X100.242 Y57.218 E.12196
