; generated by PrusaSlicer 2.9.4 on 2026-05-26 at 09:29:06 UTC


;
;
; 

; external perimeters extrusion width = 0.45mm
; perimeters extrusion width = 0.45mm
; infill extrusion width = 0.45mm
; solid infill extrusion width = 0.45mm
; top infill extrusion width = 0.40mm
; first layer extrusion width = 0.42mm

M73 P0 R20
M73 Q0 S20
M201 X1000 Y1000 Z200 E5000 ; sets maximum accelerations, mm/sec^2
M203 X200 Y200 Z12 E120 ; sets maximum feedrates, mm / sec
M204 S1250 T1250 ; sets acceleration (S) and retract acceleration (R), mm/sec^2
M205 X8.00 Y8.00 Z0.40 E4.50 ; sets the jerk limits, mm/sec
M205 S0 T0 ; sets the minimum extruding and travel feed rate, mm/sec

; printing object bevel_gears.stl id:0 copy 0
; stop printing object bevel_gears.stl id:0 copy 0

;TYPE:Custom
M862.3 P "MK3S" ; printer model check
M862.1 P0.4 ; nozzle diameter check
M115 U3.14.1 ; tell printer latest fw version
G90 ; use absolute coordinates
M83 ; extruder relative mode
M104 S250 ; set extruder temp
M140 S85 ; set bed temp
M190 S85 ; wait for bed temp
M109 S250 ; wait for extruder temp
G28 W ; home all without mesh bed level
G80 X30.5802 Y30.2341 W41.3759 H16.5593 ; mesh bed levelling

G1 Z0.2 F720
G1 Y-3 F1000 ; go outside print area
G92 E0
G1 X60 E9 F1000 ; intro line
G1 X100 E12.5 F1000 ; intro line

G92 E0
M221 S95

; Don't change E values below. Excessive value can damage the printer.

M907 E538 ; set extruder motor current
G21 ; set units to millimeters
G90 ; use absolute coordinates
M83 ; use relative distances for extrusion

M900 K0.08 ; Filament gcode LA 1.5
M900 K45 ; Filament gcode LA 1.0




M107
;LAYER_CHANGE
;Z:0.2
;HEIGHT:0.2
G1 E-1 F2100
G1 Z.4 F720
G1 X33.46 Y32.525 F10800
G1 Z.2 F720
G1 E1 F2100
M204 S800
;TYPE:Skirt/Brim
;WIDTH:0.42
G1 F1200
G1 X34.901 Y31.498 E.05548
G1 X36.314 Y30.878 E.04838
G1 X37.609 Y30.568 E.04175
G1 X38.827 Y30.474 E.0383
G1 X63.501 Y30.423 E.77364
G1 X64.831 Y30.499 E.04177
G1 X66.13 Y30.793 E.04176
G1 X67.762 Y31.514 E.05594
G1 X68.854 Y32.277 E.04177
G1 X69.805 Y33.209 E.04175
G1 X70.59 Y34.284 E.04174
G1 X71.188 Y35.475 E.04179
G1 X71.624 Y36.955 E.04838
G1 X71.766 Y38.734 E.05596
G1 X71.615 Y40.057 E.04175
G1 X71.248 Y41.337 E.04175
G1 X70.567 Y42.722 E.04839
G1 X69.776 Y43.793 E.04175
G1 X68.769 Y44.758 E.04373
G1 X67.323 Y45.692 E.05397
G1 X66.087 Y46.189 E.04177
G1 X65.235 Y46.402 E.02754
G1 X63.924 Y46.546 E.04135
G1 X38.838 Y46.605 E.78656
G1 X37.609 Y46.51 E.03865
G1 X36.75 Y46.33 E.02752
G1 X35.496 Y45.881 E.04176
G1 X34.51 Y45.348 E.03514
G1 X33.796 Y44.837 E.02753
G1 X32.828 Y43.922 E.04176
G1 X32.14 Y43.038 E.03512
G1 X31.69 Y42.284 E.02753
G1 X31.171 Y41.057 E.04177
G1 X30.805 Y39.311 E.05593
G1 X30.805 Y37.768 E.04838
G1 X31.054 Y36.413 E.0432
G1 X31.69 Y34.795 E.05451
G1 X32.534 Y33.503 E.04839
G1 X33.419 Y32.569 E.04034
M204 S1000
G1 X33.691 Y32.825 F10800
M204 S800
G1 F1200
G1 X33.692 Y32.823 E.00007
G1 X35.094 Y31.822 E.05401
G1 X36.422 Y31.24 E.04546
G1 X37.656 Y30.942 E.0398
G1 X38.827 Y30.851 E.03683
M73 Q1 S20
G1 X63.5 Y30.8 E.77361
G1 X64.767 Y30.871 E.03979
M73 P1 R20
G1 X66.006 Y31.149 E.03981
G1 X67.581 Y31.845 E.05399
G1 X68.621 Y32.574 E.03982
G1 X69.527 Y33.463 E.0398
G1 X70.366 Y34.645 E.04545
G1 X70.907 Y35.794 E.03982
G1 X71.252 Y37.016 E.03981
G1 X71.389 Y38.733 E.05401
G1 X71.243 Y39.994 E.0398
G1 X70.892 Y41.214 E.0398
G1 X70.252 Y42.515 E.04546
G1 X69.499 Y43.537 E.0398
G1 X68.539 Y44.46 E.04176
G1 X67.144 Y45.36 E.05205
G1 X65.966 Y45.832 E.03979
G1 X65.174 Y46.03 E.0256
G1 X63.923 Y46.169 E.03947
G1 X38.837 Y46.228 E.78656
G1 X37.656 Y46.136 E.03714
G1 X36.857 Y45.968 E.0256
G1 X35.662 Y45.542 E.03978
G1 X34.703 Y45.024 E.03417
G1 X34.005 Y44.52 E.02699
G1 X33.115 Y43.679 E.03839
G1 X32.446 Y42.819 E.03416
G1 X32.029 Y42.118 E.02557
G1 X31.532 Y40.949 E.03983
G1 X31.179 Y39.264 E.05398
G1 X31.179 Y37.814 E.04546
G1 X31.416 Y36.521 E.04122
G1 X32.029 Y34.96 E.05258
G1 X32.822 Y33.747 E.04544
G1 X33.649 Y32.868 E.03784
M204 S1000
;WIPE_START
G1 F8640
G1 X33.691 Y32.825 E-.01388
G1 X33.692 Y32.823 E-.00052
G1 X35.094 Y31.822 E-.39777
G1 X36.422 Y31.24 E-.33479
G1 X37.487 Y30.983 E-.25304
;WIPE_END
G1 Z.4 F720
; printing object bevel_gears.stl id:0 copy 0
G1 X35.945 Y37.024 F10800
G1 Z.2 F720
G1 E1 F2100
M204 S800
;TYPE:Perimeter
;WIDTH:0.419999
G1 F1200
G1 X36.091 Y36.73 E.01029
G1 X36.437 Y36.315 E.01694
G1 X36.706 Y36.036 E.01215
G1 X37.246 Y35.664 E.02056
G1 X37.792 Y35.439 E.01852
G1 X38.111 Y35.335 E.01052
G1 X38.743 Y35.257 E.01997
G1 X39.406 Y35.318 E.02088
G1 X39.684 Y35.368 E.00886
G1 X40.297 Y35.6 E.02055
G1 X40.876 Y35.98 E.02171
G1 X41.06 Y36.127 E.00738
G1 X41.495 Y36.618 E.02057
G1 X41.855 Y37.267 E.02327
G1 X42.083 Y38.076 E.02635
G1 X42.1 Y38.867 E.02481
G1 X41.926 Y39.64 E.02484
G1 X41.573 Y40.348 E.02481
G1 X41.227 Y40.763 E.01694
G1 X40.958 Y41.042 E.01215
G1 X40.418 Y41.415 E.02058
G1 X39.872 Y41.639 E.0185
G1 X39.552 Y41.743 E.01055
G1 X38.9 Y41.823 E.0206
G1 X38.262 Y41.762 E.0201
G1 X37.98 Y41.711 E.00899
G1 X37.366 Y41.478 E.02059
G1 X36.788 Y41.099 E.02167
G1 X36.604 Y40.952 E.00738
G1 X36.169 Y40.46 E.02059
G1 X35.809 Y39.811 E.02327
G1 X35.581 Y39.003 E.02632
G1 X35.564 Y38.211 E.02484
G1 X35.738 Y37.439 E.02481
G1 X35.918 Y37.077 E.01268
M204 S1000
G1 X36.275 Y37.197 F10800
M204 S800
;TYPE:External perimeter
G1 F1200
G1 X36.425 Y36.905 E.01029
G1 X36.886 Y36.377 E.02198
G1 X37.46 Y35.974 E.02199
G1 X37.926 Y35.791 E.0157
G1 X38.309 Y35.691 E.01241
G1 X38.816 Y35.63 E.01601
G1 X39.362 Y35.693 E.01723
G1 X39.738 Y35.791 E.01218
G1 X40.204 Y35.974 E.0157
G1 X40.744 Y36.347 E.02058
G1 X41.213 Y36.868 E.02198
G1 X41.521 Y37.442 E.02042
G1 X41.717 Y38.166 E.02352
G1 X41.723 Y38.867 E.02198
G1 X41.56 Y39.549 E.02199
G1 X41.239 Y40.173 E.022
G1 X40.778 Y40.702 E.022
G1 X40.204 Y41.104 E.02197
G1 X39.738 Y41.287 E.0157
G1 X39.357 Y41.387 E.01235
G1 X38.855 Y41.448 E.01586
G1 X38.307 Y41.387 E.01729
G1 X37.926 Y41.287 E.01235
G1 X37.473 Y41.113 E.01522
G1 X37.002 Y40.788 E.01794
G1 X36.451 Y40.21 E.02504
G1 X36.143 Y39.635 E.02045
G1 X35.947 Y38.912 E.02349
G1 X35.941 Y38.211 E.02198
G1 X36.104 Y37.529 E.02199
G1 X36.247 Y37.25 E.00983
M204 S1000
;WIPE_START
G1 F8640
G1 X36.275 Y37.197 E-.01384
G1 X36.425 Y36.905 E-.0758
G1 X36.886 Y36.377 E-.16185
G1 X37.46 Y35.974 E-.16194
G1 X37.926 Y35.791 E-.1156
G1 X38.309 Y35.691 E-.0914
G1 X38.816 Y35.63 E-.11791
G1 X39.362 Y35.693 E-.12691
G1 X39.738 Y35.791 E-.08972
G1 X39.92 Y35.862 E-.04503
;WIPE_END
G1 Z.4 F720
G1 X43.464 Y37.8 F10800
G1 Z.2 F720
G1 E1 F2100
M204 S800
;TYPE:Perimeter
G1 F1200
G1 X43.527 Y38.209 E.01298
G1 X43.527 Y38.928 E.02254
G1 X43.399 Y39.696 E.02441
G1 X43.146 Y40.431 E.02437
G1 X42.776 Y41.116 E.02441
G1 X42.298 Y41.73 E.0244
G1 X41.725 Y42.257 E.02441
G1 X41.074 Y42.682 E.02438
G1 X40.362 Y42.995 E.02439
G1 X39.607 Y43.186 E.02442
G1 X38.832 Y43.25 E.02438
G1 X38.057 Y43.186 E.02438
G1 X37.302 Y42.995 E.02442
G1 X36.59 Y42.682 E.02439
G1 X35.939 Y42.257 E.02438
G1 X35.366 Y41.73 E.02441
G1 X34.888 Y41.116 E.0244
G1 X34.518 Y40.431 E.02441
G1 X34.265 Y39.696 E.02437
G1 X34.137 Y38.928 E.02441
G1 X34.137 Y38.15 E.02439
G1 X34.265 Y37.383 E.02438
G1 X34.518 Y36.647 E.0244
G1 X34.888 Y35.963 E.02438
G1 X35.366 Y35.349 E.0244
G1 X35.939 Y34.822 E.02441
G1 X36.59 Y34.396 E.02439
G1 X37.302 Y34.084 E.02437
G1 X38.056 Y33.893 E.02439
G1 X38.838 Y33.829 E.0246
G1 X39.607 Y33.893 E.02419
G1 X40.362 Y34.084 E.02442
G1 X41.074 Y34.396 E.02437
G1 X41.725 Y34.822 E.02439
G1 X42.298 Y35.349 E.02441
G1 X42.776 Y35.963 E.0244
G1 X43.117 Y36.594 E.02249
G1 X43.41 Y37.448 E.02831
G1 X43.455 Y37.741 E.00929
M204 S1000
G1 X43.832 Y37.723 F10800
M204 S800
;TYPE:External perimeter
G1 F1200
G1 X43.904 Y38.209 E.0154
G1 X43.904 Y38.959 E.02352
G1 X43.765 Y39.788 E.02636
G1 X43.492 Y40.583 E.02636
G1 X43.092 Y41.323 E.02637
G1 X42.576 Y41.986 E.02634
G1 X41.958 Y42.555 E.02634
G1 X41.254 Y43.015 E.02637
G1 X40.484 Y43.353 E.02637
G1 X39.67 Y43.559 E.02633
G1 X38.832 Y43.628 E.02636
G1 X37.994 Y43.559 E.02636
G1 X37.18 Y43.353 E.02633
G1 X36.41 Y43.015 E.02637
G1 X35.706 Y42.555 E.02637
G1 X35.088 Y41.986 E.02634
G1 X34.571 Y41.323 E.02636
G1 X34.171 Y40.583 E.02637
G1 X33.899 Y39.788 E.02635
G1 X33.76 Y38.959 E.02636
G1 X33.76 Y38.119 E.02634
G1 X33.899 Y37.29 E.02636
G1 X34.171 Y36.495 E.02635
G1 X34.571 Y35.756 E.02635
G1 X35.088 Y35.092 E.02639
G1 X35.706 Y34.523 E.02634
G1 X36.41 Y34.063 E.02637
G1 X37.18 Y33.726 E.02635
G1 X37.994 Y33.519 E.02633
G1 X38.839 Y33.45 E.02658
G1 X39.67 Y33.519 E.02615
G1 X40.484 Y33.726 E.02633
G1 X41.254 Y34.063 E.02635
G1 X41.958 Y34.523 E.02637
G1 X42.576 Y35.092 E.02634
G1 X43.092 Y35.756 E.02637
G1 X43.449 Y36.415 E.0235
G1 X43.601 Y36.813 E.01336
G1 X43.782 Y37.386 E.01884
G1 X43.823 Y37.664 E.00881
M204 S1000
;WIPE_START
G1 F8640
G1 X43.832 Y37.723 E-.01378
G1 X43.904 Y38.209 E-.11344
G1 X43.904 Y38.959 E-.17318
G1 X43.765 Y39.788 E-.19409
G1 X43.492 Y40.583 E-.19409
G1 X43.092 Y41.323 E-.19423
G1 X42.78 Y41.724 E-.11719
;WIPE_END
G1 Z.4 F720
G1 X41.059 Y34.566 F10800
G1 Z.2 F720
G1 E1 F2100
M204 S800
;TYPE:Solid infill
;WIDTH:0.424125
G1 F1200
G1 X42.069 Y35.577 E.0453
G1 X42.506 Y36.139 E.02257
G1 X42.851 Y36.776 E.02296
G1 X42.915 Y36.962 E.00623
G1 X40.407 Y34.453 E.11245
G1 X40.257 Y34.388 E.00518
G1 X39.648 Y34.233 E.01992
G1 X43.129 Y37.715 E.15606
G1 X43.206 Y38.177 E.01485
G1 X43.206 Y38.331 E.00488
G1 X42.237 Y37.362 E.04344
G1 X42.165 Y37.168 E.00656
G1 X41.776 Y36.453 E.0258
G1 X41.236 Y35.848 E.0257
G1 X40.537 Y35.359 E.02704
G1 X40.037 Y35.162 E.01703
G1 X39.042 Y34.167 E.0446
G1 X38.881 Y34.154 E.00512
G1 X38.516 Y34.18 E.0116
G1 X39.327 Y34.991 E.03635
G1 X38.733 Y34.936 E.01891
G1 X38.028 Y34.231 E.0316
G1 X37.597 Y34.34 E.01409
G1 X38.256 Y34.998 E.02952
G1 X37.964 Y35.036 E.00933
G1 X37.812 Y35.093 E.00515
G1 X37.198 Y34.479 E.02752
G1 X36.823 Y34.644 E.01299
G1 X37.419 Y35.239 E.02669
G1 X37.246 Y35.303 E.00585
M73 Q2 S20
G1 X37.05 Y35.409 E.00706
G1 X36.487 Y34.846 E.02524
G1 X36.161 Y35.059 E.01234
G1 X36.731 Y35.63 E.02557
M73 P2 R20
G1 X36.423 Y35.861 E.0122
G1 X35.877 Y35.314 E.0245
G1 X35.597 Y35.574 E.01211
G1 X36.167 Y36.144 E.02555
G1 X35.919 Y36.435 E.01212
G1 X35.361 Y35.877 E.02501
G1 X35.157 Y36.139 E.01053
G1 X35.131 Y36.187 E.00173
G1 X35.713 Y36.768 E.02607
G1 X35.53 Y37.124 E.01269
G1 X34.942 Y36.536 E.02636
G1 X34.812 Y36.776 E.00865
G1 X34.769 Y36.902 E.00422
G1 X35.39 Y37.523 E.02784
G1 X35.283 Y37.955 E.01411
G1 X34.631 Y37.304 E.0292
G1 X34.577 Y37.462 E.00529
G1 X34.53 Y37.742 E.009
G1 X35.249 Y38.461 E.03223
G1 X35.244 Y38.875 E.01312
G1 X35.26 Y39.011 E.00434
G1 X34.306 Y38.056 E.04279
M204 S1000
;WIPE_START
G1 F8640
G1 X35.26 Y39.011 E-.31169
G1 X35.244 Y38.875 E-.03162
G1 X35.249 Y38.461 E-.0956
G1 X34.53 Y37.742 E-.23479
G1 X34.577 Y37.462 E-.06556
G1 X34.631 Y37.304 E-.03855
G1 X35.283 Y37.955 E-.21274
G1 X35.293 Y37.915 E-.00945
;WIPE_END
G1 Z.4 F720
G1 X42.182 Y37.846 F10800
G1 Z.2 F720
G1 E1 F2100
M204 S800
G1 F1200
G1 X43.206 Y38.87 E.0459
G1 X43.206 Y38.902 E.00101
G1 X43.134 Y39.337 E.01398
G1 X42.415 Y38.618 E.03223
G1 X42.41 Y39.008 E.01236
G1 X42.381 Y39.123 E.00376
G1 X43.033 Y39.775 E.02923
G1 X42.895 Y40.176 E.01344
G1 X42.274 Y39.555 E.02784
G1 X42.215 Y39.796 E.00786
G1 X42.134 Y39.954 E.00563
G1 X42.722 Y40.542 E.02636
G1 X42.532 Y40.892 E.01262
G1 X41.951 Y40.311 E.02604
G1 X41.835 Y40.537 E.00805
G1 X41.745 Y40.643 E.00441
G1 X42.303 Y41.201 E.02501
G1 X42.067 Y41.505 E.0122
G1 X41.496 Y40.934 E.0256
G1 X41.241 Y41.218 E.0121
G1 X41.787 Y41.764 E.02448
G1 X41.503 Y42.019 E.0121
G1 X40.933 Y41.449 E.02555
G1 X40.614 Y41.669 E.01228
G1 X41.177 Y42.232 E.02524
G1 X40.841 Y42.435 E.01244
G1 X40.245 Y41.839 E.02672
G1 X39.852 Y41.986 E.0133
G1 X40.466 Y42.599 E.0275
G1 X40.297 Y42.673 E.00585
G1 X40.062 Y42.735 E.0077
G1 X39.406 Y42.078 E.02943
G1 X38.925 Y42.137 E.01536
G1 X39.636 Y42.847 E.03185
G1 X39.554 Y42.869 E.00269
G1 X39.151 Y42.902 E.01282
G1 X38.142 Y41.893 E.04523
M204 S1000
;WIPE_START
G1 F8640
G1 X39.151 Y42.902 E-.32948
G1 X39.554 Y42.869 E-.09337
G1 X39.636 Y42.847 E-.0196
G1 X38.925 Y42.137 E-.23201
G1 X39.406 Y42.078 E-.1119
G1 X40.06 Y42.732 E-.21364
;WIPE_END
G1 Z.4 F720
G1 X38.807 Y43.097 F10800
G1 Z.2 F720
G1 E1 F2100
M204 S800
G1 F1200
G1 X37.627 Y41.917 E.0529
G1 X37.247 Y41.775 E.01286
G1 X37.086 Y41.694 E.00571
G1 X36.428 Y41.231 E.0255
G1 X35.888 Y40.625 E.02573
G1 X35.499 Y39.91 E.0258
G1 X35.427 Y39.716 E.00656
G1 X34.458 Y38.747 E.04344
G1 X34.458 Y38.902 E.00491
G1 X34.535 Y39.364 E.01485
G1 X38.016 Y42.845 E.15604
G1 X37.407 Y42.691 E.01991
G1 X37.257 Y42.625 E.00519
G1 X34.749 Y40.117 E.11243
G1 X34.812 Y40.302 E.00619
G1 X35.157 Y40.94 E.02299
G1 X35.595 Y41.502 E.02259
G1 X36.605 Y42.512 E.04528
M204 S1000
;WIPE_START
G1 F8640
G1 X35.595 Y41.502 E-.32981
G1 X35.157 Y40.94 E-.16452
G1 X34.812 Y40.302 E-.16748
G1 X34.749 Y40.117 E-.04513
G1 X35.646 Y41.014 E-.29306
;WIPE_END
G1 Z.4 F720
G1 X66.626 Y39.321 F10800
G1 Z.2 F720
G1 E1 F2100
M204 S800
;TYPE:Perimeter
;WIDTH:0.419999
G1 F1200
G1 X66.548 Y39.64 E.0103
G1 X66.321 Y40.106 E.01625
G1 X66.088 Y40.493 E.01416
G1 X65.682 Y40.952 E.01921
G1 X65.04 Y41.415 E.02482
G1 X64.306 Y41.711 E.02481
G1 X63.776 Y41.792 E.01681
G1 X63.385 Y41.823 E.0123
G1 X62.734 Y41.743 E.02057
G1 X61.898 Y41.434 E.02795
G1 X61.327 Y41.042 E.02172
G1 X60.798 Y40.47 E.02443
G1 X60.532 Y40.004 E.01682
G1 X60.359 Y39.64 E.01264
G1 X60.202 Y39.003 E.02057
G1 X60.186 Y38.303 E.02195
G1 X60.202 Y38.076 E.00714
G1 X60.359 Y37.439 E.02057
G1 X60.713 Y36.73 E.02485
G1 X61.094 Y36.276 E.01858
G1 X61.327 Y36.036 E.01049
G1 X61.867 Y35.664 E.02056
G1 X62.508 Y35.403 E.0217
G1 X62.734 Y35.335 E.0074
G1 X63.385 Y35.256 E.02056
G1 X64.113 Y35.328 E.02294
G1 X64.557 Y35.463 E.01455
G1 X65.04 Y35.664 E.0164
G1 X65.58 Y36.036 E.02056
G1 X66.117 Y36.618 E.02483
G1 X66.435 Y37.189 E.02049
G1 X66.586 Y37.595 E.01358
G1 X66.71 Y38.097 E.01621
G1 X66.721 Y38.654 E.01747
G1 X66.683 Y39.089 E.01369
G1 X66.641 Y39.263 E.00561
M204 S1000
G1 X66.258 Y39.23 F10800
M204 S800
;TYPE:External perimeter
G1 F1200
G1 X66.182 Y39.549 E.01028
G1 X65.861 Y40.173 E.022
G1 X65.4 Y40.702 E.022
G1 X64.826 Y41.104 E.02197
G1 X64.172 Y41.358 E.022
G1 X63.476 Y41.448 E.022
G1 X62.78 Y41.369 E.02196
G1 X62.092 Y41.111 E.02304
G1 X61.542 Y40.732 E.02094
G1 X61.081 Y40.219 E.02163
G1 X60.742 Y39.592 E.02235
G1 X60.569 Y38.912 E.022
G1 X60.563 Y38.303 E.0191
G1 X60.726 Y37.529 E.0248
G1 X61.047 Y36.905 E.022
G1 X61.542 Y36.347 E.02339
G1 X62.082 Y35.974 E.02058
G1 X62.642 Y35.756 E.01884
G1 X63.431 Y35.63 E.02505
G1 X64.067 Y35.702 E.02007
G1 X64.785 Y35.953 E.02385
G1 X65.301 Y36.302 E.01953
G1 X65.835 Y36.868 E.0244
G1 X66.101 Y37.364 E.01765
G1 X66.22 Y37.686 E.01076
G1 X66.34 Y38.173 E.01573
G1 X66.344 Y38.867 E.02176
G1 X66.272 Y39.172 E.00983
M204 S1000
;WIPE_START
G1 F8640
G1 X66.258 Y39.23 E-.01378
G1 X66.182 Y39.549 E-.07572
G1 X65.861 Y40.173 E-.16203
G1 X65.4 Y40.702 E-.16202
G1 X64.826 Y41.104 E-.16181
G1 X64.172 Y41.358 E-.162
G1 X63.476 Y41.448 E-.16205
G1 X63.043 Y41.399 E-.10059
;WIPE_END
G1 Z.4 F720
G1 X59.053 Y37.858 F10800
G1 Z.2 F720
G1 E1 F2100
M204 S800
;TYPE:Perimeter
G1 F1200
G1 X59.098 Y37.505 E.01116
G1 X59.322 Y36.76 E.02439
G1 X59.666 Y36.062 E.0244
G1 X60.12 Y35.43 E.0244
G1 X60.671 Y34.881 E.02439
G1 X61.306 Y34.431 E.0244
G1 X62.006 Y34.091 E.0244
G1 X62.752 Y33.871 E.02439
G1 X63.524 Y33.777 E.02438
G1 X64.302 Y33.811 E.02442
G1 X65.063 Y33.973 E.0244
G1 X65.787 Y34.258 E.0244
G1 X66.454 Y34.658 E.02439
G1 X67.046 Y35.162 E.02438
G1 X67.547 Y35.757 E.02439
G1 X67.908 Y36.367 E.02222
G1 X68.239 Y37.221 E.02872
G1 X68.385 Y37.984 E.02436
G1 X68.412 Y38.692 E.02221
G1 X68.314 Y39.464 E.0244
G1 X68.09 Y40.209 E.02439
G1 X67.746 Y40.907 E.0244
G1 X67.292 Y41.539 E.0244
G1 X66.741 Y42.087 E.02437
G1 X66.106 Y42.538 E.02442
G1 X65.406 Y42.877 E.02439
G1 X64.66 Y43.097 E.02439
G1 X63.888 Y43.191 E.02438
G1 X63.11 Y43.157 E.02442
G1 X62.349 Y42.995 E.0244
G1 X61.625 Y42.711 E.02438
G1 X60.958 Y42.31 E.0244
G1 X60.366 Y41.806 E.02438
