; generated by PrusaSlicer 2.9.4 on 2026-05-26 at 10:25:13 UTC


;
;
; 

; external perimeters extrusion width = 0.45mm
; perimeters extrusion width = 0.45mm
; infill extrusion width = 0.45mm
; solid infill extrusion width = 0.45mm
; top infill extrusion width = 0.40mm
; support material extrusion width = 0.35mm
; first layer extrusion width = 0.42mm

; external perimeters extrusion width = 0.45mm
; perimeters extrusion width = 0.45mm
; infill extrusion width = 0.45mm
; solid infill extrusion width = 0.45mm
; top infill extrusion width = 0.40mm
; support material extrusion width = 0.35mm
; first layer extrusion width = 0.42mm

; external perimeters extrusion width = 0.45mm
; perimeters extrusion width = 0.45mm
; infill extrusion width = 0.45mm
; solid infill extrusion width = 0.45mm
; top infill extrusion width = 0.40mm
; support material extrusion width = 0.35mm
; first layer extrusion width = 0.42mm

; external perimeters extrusion width = 0.45mm
; perimeters extrusion width = 0.45mm
; infill extrusion width = 0.45mm
; solid infill extrusion width = 0.45mm
; top infill extrusion width = 0.40mm
; support material extrusion width = 0.35mm
; first layer extrusion width = 0.42mm

; external perimeters extrusion width = 0.45mm
; perimeters extrusion width = 0.45mm
; infill extrusion width = 0.45mm
; solid infill extrusion width = 0.45mm
; top infill extrusion width = 0.40mm
; support material extrusion width = 0.35mm
; first layer extrusion width = 0.42mm

; external perimeters extrusion width = 0.45mm
; perimeters extrusion width = 0.45mm
; infill extrusion width = 0.45mm
; solid infill extrusion width = 0.45mm
; top infill extrusion width = 0.40mm
; support material extrusion width = 0.35mm
; first layer extrusion width = 0.42mm

M73 P0 R87
M73 Q0 S89
M201 X1000 Y1000 Z200 E5000 ; sets maximum accelerations, mm/sec^2
M203 X200 Y200 Z12 E120 ; sets maximum feedrates, mm / sec
M204 S1250 T1250 ; sets acceleration (S) and retract acceleration (R), mm/sec^2
M205 X8.00 Y8.00 Z0.40 E4.50 ; sets the jerk limits, mm/sec
M205 S0 T0 ; sets the minimum extruding and travel feed rate, mm/sec

; printing object tije.stl id:1 copy 0
; stop printing object tije.stl id:1 copy 0
; printing object horse_support.stl id:3 copy 0
; stop printing object horse_support.stl id:3 copy 0
; printing object horse_support.stl id:2 copy 0
; stop printing object horse_support.stl id:2 copy 0
; printing object horse_support.stl id:5 copy 0
; stop printing object horse_support.stl id:5 copy 0
; printing object External1.stl id:0 copy 0
; stop printing object External1.stl id:0 copy 0
; printing object horse_support.stl id:4 copy 0
; stop printing object horse_support.stl id:4 copy 0

;TYPE:Custom
M862.3 P "MK3S" ; printer model check
M862.1 P0.4 ; nozzle diameter check
M115 U3.14.1 ; tell printer latest fw version
G90 ; use absolute coordinates
M83 ; extruder relative mode
M104 S250 ; set extruder temp
M140 S85 ; set bed temp
M190 S85 ; wait for bed temp
M109 S250 ; wait for extruder temp
G28 W ; home all without mesh bed level
G80 X28.7836 Y25.2065 W159.879 H102.793 ; mesh bed levelling

G1 Z0.2 F720
G1 Y-3 F1000 ; go outside print area
G92 E0
G1 X60 E9 F1000 ; intro line
G1 X100 E12.5 F1000 ; intro line

G92 E0
M221 S95

; Don't change E values below. Excessive value can damage the printer.

M907 E538 ; set extruder motor current
G21 ; set units to millimeters
G90 ; use absolute coordinates
M83 ; use relative distances for extrusion

M900 K0.08 ; Filament gcode LA 1.5
M900 K45 ; Filament gcode LA 1.0




M107
;LAYER_CHANGE
;Z:0.2
;HEIGHT:0.2
G1 E-1 F2100
G1 Z.4 F720
G1 X34.633 Y26.76 F10800
G1 Z.2 F720
G1 E1 F2100
M204 S800
;TYPE:Skirt/Brim
;WIDTH:0.42
G1 F1200
G1 X35.044 Y26.249 E.02056
G1 X35.52 Y25.862 E.01923
G1 X36.198 Y25.538 E.02356
G1 X37.08 Y25.395 E.02802
G1 X185.827 Y25.409 E4.66386
G1 X186.462 Y25.538 E.02032
G1 X187.14 Y25.862 E.02356
G1 X187.894 Y26.569 E.03241
G1 X188.259 Y27.199 E.02283
G1 X188.473 Y28.157 E.03078
G1 X188.46 Y32.517 E.13671
G1 X179.311 Y117.821 E2.68999
G1 X178.79 Y119.021 E.04102
G1 X178.114 Y119.545 E.02682
G1 X173.5 Y121.852 E.16174
G1 X172.617 Y122.081 E.0286
G1 X41.589 Y127.809 E4.11221
G1 X33.607 Y127.811 E.25027
M73 Q0 S88
G1 X32.358 Y127.42 E.04104
G1 X31.421 Y125.74 E.06031
G1 X28.972 Y79.897 E1.43942
G1 X34.198 Y27.941 E1.63726
G1 X34.397 Y27.208 E.02381
G1 X34.605 Y26.813 E.014
M204 S1000
;WIPE_START
G1 F8640
G1 X34.633 Y26.76 E-.01384
G1 X35.044 Y26.249 E-.15142
G1 X35.52 Y25.862 E-.14165
G1 X36.198 Y25.538 E-.17351
G1 X37.08 Y25.395 E-.20632
G1 X38.437 Y25.395 E-.31326
;WIPE_END
G1 Z.4 F720
; printing object horse_support.stl id:5 copy 0
G1 X171.984 Y73.477 F10800
G1 Z.2 F720
G1 E1 F2100
M204 S800
;TYPE:Support material
G1 F1200
G1 X173.134 Y73.629 E.03637
G1 X174.828 Y74.133 E.05542
G1 X174.828 Y100.166 E.81625
G1 X177.135 Y100.166 E.07233
G1 X177.135 Y117.588 E.54625
G1 X172.521 Y117.588 E.14467
G1 X172.521 Y119.895 E.07233
M73 P0 R86
G1 X162.02 Y119.895 E.32925
G1 X162.02 Y94.517 E.79571
G1 X159.713 Y94.517 E.07233
G1 X159.713 Y75.22 E.60504
G1 X161.04 Y74.586 E.04611
G1 X162.15 Y74.215 E.0367
G1 X163.267 Y74.042 E.03544
G1 X164.6 Y74.089 E.04182
G1 X164.6 Y87.323 E.41494
G1 X166.907 Y87.323 E.07233
G1 X166.907 Y115.008 E.86804
G1 X172.249 Y115.008 E.16749
G1 X172.249 Y107.36 E.2398
G1 X169.941 Y107.36 E.07237
G1 X169.941 Y75.06 E1.01274
G1 X167.634 Y75.06 E.07233
G1 X167.634 Y74.461 E.01878
G1 X170.153 Y73.659 E.08289
G1 X171.235 Y73.488 E.03435
G1 X171.927 Y73.476 E.0217
M204 S1000
G1 X176.488 Y117.418 F10800
M204 S800
G1 F1200
G1 X176.488 Y100.505 E.5303
G1 X176.069 Y100.505 E.01314
G1 X176.069 Y117.249 E.525
G1 X175.65 Y117.249 E.01314
G1 X175.65 Y100.505 E.525
G1 X175.231 Y100.505 E.01314
G1 X175.231 Y117.249 E.525
G1 X174.812 Y117.249 E.01314
G1 X174.812 Y100.505 E.525
G1 X174.489 Y100.505 E.01013
G1 X174.489 Y74.375 E.81929
G1 X174.393 Y74.343 E.00317
G1 X174.393 Y117.249 E1.34529
G1 X173.974 Y117.249 E.01314
G1 X173.974 Y74.209 E1.34949
G1 X173.555 Y74.085 E.0137
M73 P1 R86
M73 Q1 S88
G1 X173.555 Y117.249 E1.35338
G1 X173.136 Y117.249 E.01314
G1 X173.136 Y73.978 E1.35673
G1 X172.717 Y73.896 E.01339
G1 X172.717 Y117.249 E1.3593
G1 X172.298 Y117.249 E.01314
G1 X172.298 Y115.347 E.05964
G1 X171.879 Y115.347 E.01314
G1 X171.879 Y119.556 E.13197
G1 X171.46 Y119.556 E.01314
G1 X171.46 Y115.347 E.13197
G1 X171.042 Y115.347 E.01311
G1 X171.042 Y119.556 E.13197
G1 X170.623 Y119.556 E.01314
G1 X170.623 Y115.347 E.13197
G1 X170.204 Y115.347 E.01314
G1 X170.204 Y119.556 E.13197
G1 X169.785 Y119.556 E.01314
G1 X169.785 Y115.347 E.13197
G1 X169.366 Y115.347 E.01314
G1 X169.366 Y119.556 E.13197
G1 X168.947 Y119.556 E.01314
G1 X168.947 Y115.347 E.13197
G1 X168.528 Y115.347 E.01314
G1 X168.528 Y119.556 E.13197
G1 X168.109 Y119.556 E.01314
G1 X168.109 Y115.347 E.13197
G1 X167.69 Y115.347 E.01314
G1 X167.69 Y119.556 E.13197
G1 X167.271 Y119.556 E.01314
G1 X167.271 Y115.347 E.13197
G1 X166.852 Y115.347 E.01314
G1 X166.852 Y119.556 E.13197
G1 X166.433 Y119.556 E.01314
G1 X166.433 Y87.663 E.99998
G1 X166.014 Y87.663 E.01314
G1 X166.014 Y119.556 E.99998
G1 X165.595 Y119.556 E.01314
G1 X165.595 Y87.663 E.99998
G1 X165.176 Y87.663 E.01314
G1 X165.176 Y119.556 E.99998
G1 X164.757 Y119.556 E.01314
G1 X164.757 Y87.663 E.99998
G1 X164.338 Y87.663 E.01314
G1 X164.338 Y119.556 E.99998
G1 X163.919 Y119.556 E.01314
G1 X163.919 Y74.375 E1.41662
G1 X163.5 Y74.374 E.01314
G1 X163.5 Y119.556 E1.41665
G1 X163.081 Y119.556 E.01314
G1 X163.081 Y74.4 E1.41583
G1 X162.662 Y74.456 E.01325
M73 Q1 S87
G1 X162.662 Y119.556 E1.41408
G1 X162.36 Y119.556 E.00947
G1 X162.36 Y94.178 E.79571
G1 X162.243 Y94.178 E.00367
G1 X162.243 Y74.542 E.61567
G1 X161.824 Y74.661 E.01366
G1 X161.824 Y94.178 E.61194
G1 X161.405 Y94.178 E.01314
G1 X161.405 Y74.808 E.60733
G1 X160.986 Y74.984 E.01425
G1 X160.986 Y94.178 E.60181
G1 X160.567 Y94.178 E.01314
G1 X160.567 Y75.174 E.59586
G1 X160.148 Y75.38 E.01464
G1 X160.148 Y94.347 E.5947
M204 S1000
;WIPE_START
G1 F8640
G1 X160.148 Y90.016 E-1
;WIPE_END
G1 Z.4 F720
G1 X172.298 Y107.19 F10800
G1 Z.2 F720
G1 E1 F2100
M204 S800
G1 F1200
G1 X172.298 Y73.841 E1.04563
G1 X171.879 Y73.815 E.01316
G1 X171.879 Y107.02 E1.04112
G1 X171.46 Y107.02 E.01314
G1 X171.46 Y73.818 E1.04103
G1 X171.042 Y73.85 E.01314
M73 P1 R85
G1 X171.042 Y107.02 E1.04002
G1 X170.623 Y107.02 E.01314
G1 X170.623 Y73.91 E1.03814
G1 X170.204 Y73.997 E.01342
G1 X170.204 Y74.721 E.0227
G1 X169.785 Y74.721 E.01314
G1 X169.785 Y74.11 E.01916
G1 X169.366 Y74.239 E.01375
G1 X169.366 Y74.721 E.01511
G1 X168.947 Y74.721 E.01314
G1 X168.947 Y74.38 E.01069
G1 X168.528 Y74.525 E.0139
G1 X168.528 Y74.721 E.00615
G1 X168.109 Y74.721 E.01314
G1 X168.109 Y74.489 E.00727
M204 S1000
;WIPE_START
G1 F8640
G1 X168.109 Y74.721 E-.05357
G1 X168.528 Y74.721 E-.09675
G1 X168.528 Y74.525 E-.04526
G1 X168.947 Y74.38 E-.10238
G1 X168.947 Y74.721 E-.07874
G1 X169.366 Y74.721 E-.09675
G1 X169.366 Y74.239 E-.1113
G1 X169.785 Y74.11 E-.10123
G1 X169.785 Y74.721 E-.14108
G1 X170.204 Y74.721 E-.09675
G1 X170.204 Y74.391 E-.07619
;WIPE_END
G1 Z.4 F720
G1 X165.089 Y86.96 F10800
G1 Z.2 F720
G1 E1 F2100
M204 S800
;TYPE:Support material interface
;WIDTH:0.35
G1 F1200
G1 X164.964 Y86.96 E.00319
G1 X164.964 Y74.085 E.32875
G1 X165.242 Y74.129 E.00719
G1 X165.242 Y86.96 E.32762
G1 X165.749 Y86.96 E.01295
G1 X165.749 Y74.223 E.32522
G1 X166.257 Y74.323 E.01322
G1 X166.257 Y86.96 E.32267
G1 X166.764 Y86.96 E.01295
G1 X166.764 Y74.418 E.32024
G1 X167.271 Y74.489 E.01307
G1 X167.271 Y114.644 E1.02531
G1 X167.778 Y114.644 E.01295
M73 P2 R85
G1 X167.778 Y75.424 E1.00143
G1 X168.285 Y75.424 E.01295
M73 Q2 S87
G1 X168.285 Y114.644 E1.00143
G1 X168.792 Y114.644 E.01295
G1 X168.792 Y75.424 E1.00143
G1 X169.299 Y75.424 E.01295
G1 X169.299 Y114.644 E1.00143
G1 X169.806 Y114.644 E.01295
G1 X169.806 Y107.723 E.17672
G1 X170.313 Y107.723 E.01295
G1 X170.313 Y114.644 E.17672
G1 X170.82 Y114.644 E.01295
G1 X170.82 Y107.723 E.17672
G1 X171.327 Y107.723 E.01295
G1 X171.327 Y114.644 E.17672
G1 X171.834 Y114.644 E.01295
G1 X171.834 Y107.723 E.17672
M204 S1000
;WIPE_START
G1 F8640
G1 X171.834 Y112.054 E-1
;WIPE_END
G1 Z.4 F720
G1 X167.215 Y73.257 F10800
G1 Z.2 F720
G1 E1 F2100
M204 S800
;TYPE:Perimeter
;WIDTH:0.419999
G1 F1200
G1 X167.208 Y73.26 E.00024
G1 X165.594 Y72.96 E.05147
G1 X164.744 Y72.839 E.02692
G1 X164.058 Y72.78 E.02159
G1 X163.461 Y72.772 E.01872
G1 X162.719 Y72.822 E.02332
G1 X161.892 Y72.986 E.02643
G1 X161.378 Y73.117 E.01663
G1 X160.534 Y73.424 E.02816
G1 X159.759 Y73.777 E.0267
G1 X158.817 Y74.251 E.03306
G1 X158.084 Y74.586 E.02527
G1 X158.085 Y74.367 E.00687
G1 X158.192 Y73.738 E.02001
G1 X158.554 Y72.531 E.03951
G1 X158.94 Y71.574 E.03235
G1 X159.421 Y70.57 E.03491
G1 X159.689 Y70.073 E.0177
G1 X160.292 Y69.072 E.03664
G1 X160.958 Y68.12 E.03643
G1 X161.746 Y67.163 E.03887
G1 X162.112 Y66.772 E.01679
G1 X162.534 Y66.365 E.01838
G1 X163.095 Y65.888 E.02309
G1 X163.56 Y65.547 E.01808
G1 X164.327 Y65.105 E.02776
G1 X165.067 Y64.818 E.02489
G1 X165.78 Y64.681 E.02276
G1 X166.666 Y64.684 E.02778
G1 X167.45 Y64.565 E.02486
G1 X168.176 Y64.602 E.02279
G1 X168.948 Y64.784 E.02487
G1 X169.586 Y65.042 E.02158
G1 X170.076 Y65.277 E.01704
G1 X170.601 Y65.583 E.01905
G1 X171.026 Y65.869 E.01606
G1 X171.446 Y66.183 E.01644
G1 X172.292 Y66.907 E.03491
G1 X173.103 Y67.72 E.03601
G1 X173.868 Y68.602 E.03661
G1 X174.566 Y69.522 E.03621
G1 X175.179 Y70.446 E.03477
G1 X175.69 Y71.335 E.03215
G1 X176.079 Y72.139 E.028
G1 X176.412 Y73.101 E.03192
G1 X176.442 Y73.305 E.00647
G1 X176.294 Y73.278 E.00472
G1 X174.565 Y72.708 E.05708
G1 X173.751 Y72.475 E.02655
G1 X172.919 Y72.301 E.02665
G1 X172.007 Y72.21 E.02874
G1 X171.107 Y72.228 E.02822
G1 X170.038 Y72.394 E.03392
G1 X169.455 Y72.531 E.01878
G1 X167.272 Y73.239 E.07196
M204 S1000
G1 X167.242 Y73.645 F10800
M204 S800
;TYPE:External perimeter
G1 F1200
G1 X167.24 Y73.646 E.00007
G1 X166.804 Y73.579 E.01383
G1 X165.541 Y73.333 E.04034
G1 X164.4 Y73.173 E.03613
G1 X163.627 Y73.14 E.02426
G1 X162.798 Y73.192 E.02604
G1 X162.349 Y73.261 E.01424
G1 X161.506 Y73.471 E.02724
G1 X160.69 Y73.768 E.02723
G1 X159.929 Y74.114 E.02621
G1 X158.65 Y74.757 E.04488
G1 X158.182 Y74.954 E.01592
G1 X157.886 Y75.02 E.00951
G1 X157.784 Y75 E.00326
G1 X157.724 Y74.845 E.00521
G1 X157.706 Y74.348 E.01559
G1 X157.817 Y73.68 E.02123
G1 X158.036 Y72.886 E.02582
G1 X158.201 Y72.399 E.01612
G1 X158.594 Y71.422 E.03302
G1 X159.085 Y70.399 E.03558
G1 X159.361 Y69.886 E.01826
G1 X159.976 Y68.866 E.03734
G1 X160.657 Y67.893 E.03724
G1 X161.469 Y66.907 E.04005
G1 X161.847 Y66.504 E.01732
G1 X162.282 Y66.084 E.01896
G1 X162.859 Y65.594 E.02373
G1 X163.356 Y65.23 E.01932
G1 X164.164 Y64.764 E.02925
G1 X164.962 Y64.454 E.02684
G1 X165.746 Y64.303 E.02503
G1 X166.607 Y64.312 E.027
G1 X167.432 Y64.186 E.02617
G1 X168.229 Y64.227 E.02502
G1 X169.062 Y64.423 E.02683
G1 X169.728 Y64.692 E.02252
G1 X170.362 Y65.001 E.02211
G1 X170.803 Y65.265 E.01612
G1 X171.244 Y65.562 E.01667
G1 X171.681 Y65.889 E.01711
G1 X172.548 Y66.63 E.03576
G1 X173.38 Y67.463 E.03691
G1 X174.161 Y68.364 E.03739
G1 X174.873 Y69.303 E.03695
G1 X175.5 Y70.247 E.03553
G1 X176.024 Y71.158 E.03295
G1 X176.428 Y71.994 E.02911
G1 X176.768 Y72.978 E.03264
G1 X176.842 Y73.512 E.0169
G1 X176.811 Y73.676 E.00523
G1 X176.641 Y73.718 E.00549
G1 X176.2 Y73.644 E.01402
G1 X174.458 Y73.07 E.05751
G1 X173.673 Y72.843 E.02562
G1 X172.88 Y72.676 E.02541
G1 X172.013 Y72.587 E.02733
G1 X171.157 Y72.601 E.02684
G1 X170.123 Y72.761 E.03281
G1 X169.57 Y72.89 E.0178
G1 X167.299 Y73.626 E.07485
M204 S1000
;WIPE_START
G1 F8640
G1 X167.242 Y73.645 E-.01387
G1 X167.24 Y73.646 E-.00052
G1 X166.804 Y73.579 E-.10186
G1 X165.541 Y73.333 E-.29711
G1 X164.4 Y73.173 E-.26604
G1 X163.627 Y73.14 E-.17865
G1 X163.013 Y73.178 E-.14195
;WIPE_END
G1 Z.4 F720
G1 X174.138 Y69.208 F10800
G1 Z.2 F720
G1 E1 F2100
M204 S800
;TYPE:Solid infill
;WIDTH:0.420885
G1 F1200
G1 X172.069 Y67.138 E.09198
G1 X171.245 Y66.434 E.03406
G1 X170.84 Y66.131 E.0159
G1 X170.429 Y65.853 E.01559
G1 X169.988 Y65.592 E.01611
G1 X174.701 Y70.305 E.20947
G1 X174.906 Y70.614 E.01165
G1 X175.463 Y71.602 E.03565
G1 X169.02 Y65.159 E.28636
G1 X168.85 Y65.09 E.00577
G1 X168.284 Y64.957 E.01827
G1 X175.884 Y72.558 E.33781
G1 X175.981 Y72.837 E.00928
G1 X175.454 Y72.662 E.01745
G1 X167.69 Y64.898 E.34508
G1 X167.466 Y64.887 E.00705
G1 X167.186 Y64.928 E.00889
G1 X174.66 Y72.402 E.33219
G1 X173.905 Y72.182 E.02471
G1 X166.721 Y64.998 E.3193
G1 X166.194 Y65.005 E.01656
G1 X173.224 Y72.036 E.31248
G1 X173.038 Y71.996 E.00598
G1 X172.603 Y71.949 E.01375
G1 X165.681 Y65.026 E.30768
G1 X165.232 Y65.113 E.01437
G1 X172.011 Y71.891 E.30128
G1 X171.483 Y71.898 E.0166
G1 X164.836 Y65.251 E.29543
G1 X164.453 Y65.402 E.01294
G1 X170.976 Y71.926 E.28994
G1 X170.502 Y71.986 E.01502
G1 X164.114 Y65.598 E.28392
G1 X163.775 Y65.793 E.01229
G1 X170.047 Y72.065 E.27876
G1 X169.612 Y72.165 E.01403
G1 X163.46 Y66.013 E.27343
G1 X163.16 Y66.247 E.01196
G1 X169.193 Y72.281 E.26816
G1 X168.789 Y72.411 E.01334
G1 X162.874 Y66.496 E.2629
G1 X162.599 Y66.756 E.01189
G1 X168.385 Y72.542 E.25716
G1 X167.982 Y72.673 E.01332
G1 X162.324 Y67.016 E.25145
G1 X162.064 Y67.29 E.01187
G1 X167.578 Y72.803 E.24505
G1 X167.167 Y72.927 E.01349
G1 X161.815 Y67.575 E.23787
G1 X161.575 Y67.87 E.01195
G1 X166.51 Y72.805 E.21934
G1 X165.853 Y72.682 E.02101
G1 X161.335 Y68.164 E.20081
G1 X161.105 Y68.469 E.01201
G1 X165.221 Y72.585 E.18294
G1 X164.599 Y72.497 E.01974
G1 X160.885 Y68.783 E.16507
G1 X160.665 Y69.098 E.01208
G1 X164.027 Y72.46 E.14943
G1 X163.482 Y72.45 E.01713
G1 X160.455 Y69.423 E.13454
G1 X160.254 Y69.756 E.01222
G1 X162.98 Y72.482 E.12116
G1 X162.497 Y72.533 E.01526
G1 X160.053 Y70.09 E.1086
G1 X159.86 Y70.431 E.01231
G1 X162.049 Y72.62 E.09729
G1 X161.619 Y72.724 E.0139
G1 X159.676 Y70.781 E.08636
G1 X159.502 Y71.142 E.01259
G1 X161.203 Y72.843 E.0756
G1 X160.809 Y72.984 E.01315
G1 X159.329 Y71.503 E.0658
G1 X159.165 Y71.873 E.01272
G1 X160.419 Y73.127 E.05574
G1 X160.05 Y73.294 E.01273
