; generated by PrusaSlicer 2.9.4 on 2026-05-21 at 08:14:45 UTC


;
;
; 

; external perimeters extrusion width = 0.45mm
; perimeters extrusion width = 0.45mm
; infill extrusion width = 0.45mm
; solid infill extrusion width = 0.45mm
; top infill extrusion width = 0.40mm
; support material extrusion width = 0.35mm
; first layer extrusion width = 0.42mm

M73 P0 R73
M73 Q0 S73
M201 X1000 Y1000 Z200 E5000 ; sets maximum accelerations, mm/sec^2
M203 X200 Y200 Z12 E120 ; sets maximum feedrates, mm / sec
M204 S1250 T1250 ; sets acceleration (S) and retract acceleration (R), mm/sec^2
M205 X8.00 Y8.00 Z0.40 E4.50 ; sets the jerk limits, mm/sec
M205 S0 T0 ; sets the minimum extruding and travel feed rate, mm/sec

; printing object horse.stl id:0 copy 0
; stop printing object horse.stl id:0 copy 0

;TYPE:Custom
M862.3 P "MK3S" ; printer model check
M862.1 P0.4 ; nozzle diameter check
M115 U3.14.1 ; tell printer latest fw version
G90 ; use absolute coordinates
M83 ; extruder relative mode
M104 S250 ; set extruder temp
M140 S85 ; set bed temp
M190 S85 ; wait for bed temp
M109 S250 ; wait for extruder temp
G28 W ; home all without mesh bed level
G80 X41.3341 Y27.6492 W34.3216 H45.6245 ; mesh bed levelling

G1 Z0.2 F720
G1 Y-3 F1000 ; go outside print area
G92 E0
G1 X60 E9 F1000 ; intro line
G1 X100 E12.5 F1000 ; intro line

G92 E0
M221 S95

; Don't change E values below. Excessive value can damage the printer.

M907 E538 ; set extruder motor current
G21 ; set units to millimeters
G90 ; use absolute coordinates
M83 ; use relative distances for extrusion

M900 K0.08 ; Filament gcode LA 1.5
M900 K45 ; Filament gcode LA 1.0




M107
;LAYER_CHANGE
;Z:0.2
;HEIGHT:0.2
G1 E-1 F2100
G1 Z.4 F720
G1 X46.508 Y29.37 F10800
G1 Z.2 F720
G1 E1 F2100
M204 S800
;TYPE:Skirt/Brim
;WIDTH:0.42
G1 F1200
G1 X47.121 Y28.479 E.03391
G1 X48.668 Y27.838 E.0525
G1 X63.94 Y27.838 E.47884
G1 X65.487 Y28.479 E.0525
G1 X65.951 Y29.051 E.02309
G1 X75.179 Y45.201 E.58321
G1 X75.467 Y46.286 E.0352
G1 X75.425 Y55.066 E.27529
G1 X73.118 Y66.601 E.36883
G1 X72.519 Y67.72 E.0398
G1 X71.84 Y68.24 E.02682
G1 X62.612 Y72.854 E.32349
G1 X61.633 Y73.085 E.03154
G1 X50.975 Y73.085 E.33417
G1 X49.428 Y72.444 E.0525
G1 X46.89 Y69.896 E.11276
G1 X42.043 Y64.188 E.23479
G1 X41.523 Y62.771 E.04733
G1 X41.523 Y56.785 E.18769
G1 X41.756 Y46.238 E.33077
G1 X43.156 Y38.331 E.25177
G1 X46.487 Y29.426 E.2981
M204 S1000
;WIPE_START
G1 F8640
G1 X46.508 Y29.37 E-.01381
G1 X47.121 Y28.479 E-.24972
G1 X48.668 Y27.838 E-.38666
G1 X50.183 Y27.838 E-.34981
;WIPE_END
G1 Z.4 F720
G1 X48.69 Y36.697 F10800
G1 Z.2 F720
G1 E1 F2100
M204 S800
G1 F1200
G1 X49.511 Y36.448 E.0269
G1 X58.65 Y36.396 E.28655
G1 X64.025 Y36.506 E.16856
G1 X65.104 Y36.906 E.03608
G1 X66.079 Y37.566 E.03692
G1 X66.89 Y38.465 E.03796
G1 X67.434 Y39.5 E.03666
G1 X67.733 Y40.872 E.04403
G1 X67.727 Y51.357 E.32875
G1 X68.156 Y52.167 E.02874
G1 X68.776 Y53.805 E.05491
G1 X69.159 Y55.72 E.06123
G1 X69.225 Y56.825 E.03471
G1 X69.225 Y61.085 E.13357
G1 X68.866 Y62.509 E.04605
G1 X68.22 Y63.612 E.04008
G1 X67.242 Y64.57 E.04293
G1 X66.143 Y65.157 E.03907
G1 X64.873 Y65.467 E.04099
G1 X48.385 Y65.472 E.51697
G1 X46.962 Y65.114 E.04601
G1 X45.876 Y64.482 E.0394
G1 X44.994 Y63.612 E.03884
G1 X44.376 Y62.555 E.03839
G1 X44.033 Y61.333 E.0398
G1 X43.998 Y56.84 E.14088
G1 X44.146 Y55.108 E.0545
G1 X44.373 Y54.064 E.0335
G1 X44.976 Y52.366 E.0565
G1 X45.495 Y51.349 E.0358
G1 X45.493 Y40.784 E.33126
G1 X45.851 Y39.361 E.04601
G1 X46.459 Y38.305 E.03821
G1 X47.369 Y37.379 E.04071
G1 X48.364 Y36.795 E.03617
G1 X48.632 Y36.714 E.00878
M204 S1000
G1 X48.739 Y37.072 F10800
M204 S800
G1 F1200
G1 X49.592 Y36.817 E.02791
G1 X58.646 Y36.773 E.28389
G1 X63.924 Y36.87 E.16552
G1 X64.951 Y37.252 E.03436
G1 X65.846 Y37.863 E.03398
G1 X66.592 Y38.698 E.03511
G1 X67.088 Y39.651 E.03369
G1 X67.356 Y40.892 E.03981
G1 X67.35 Y51.451 E.33107
G1 X68.208 Y53.283 E.06343
G1 X68.581 Y54.556 E.04159
G1 X68.784 Y55.752 E.03804
G1 X68.848 Y56.831 E.03389
G1 X68.848 Y61.061 E.13263
G1 X68.508 Y62.389 E.04298
G1 X67.91 Y63.397 E.03675
G1 X66.999 Y64.281 E.0398
G1 X66.031 Y64.796 E.03438
G1 X64.806 Y65.095 E.03954
G1 X48.409 Y65.095 E.51412
G1 X47.083 Y64.755 E.04292
G1 X46.088 Y64.17 E.03619
G1 X45.278 Y63.363 E.03585
G1 X44.714 Y62.387 E.03534
G1 X44.41 Y61.305 E.03524
G1 X44.375 Y56.842 E.13994
G1 X44.519 Y55.164 E.05281
G1 X44.995 Y53.34 E.05911
G1 X45.872 Y51.449 E.06536
G1 X45.87 Y40.808 E.33364
G1 X46.209 Y39.481 E.04294
G1 X46.772 Y38.517 E.035
G1 X47.618 Y37.663 E.03769
G1 X48.533 Y37.133 E.03315
G1 X48.681 Y37.089 E.00484
M204 S1000
G1 X48.786 Y37.446 F10800
M204 S800
G1 F1200
G1 X49.672 Y37.186 E.02895
G1 X58.642 Y37.15 E.28125
G1 X63.823 Y37.235 E.16247
G1 X64.797 Y37.597 E.03258
G1 X65.613 Y38.16 E.03108
G1 X66.294 Y38.929 E.03221
G1 X66.741 Y39.8 E.0307
G1 X66.979 Y40.912 E.03566
G1 X66.973 Y51.545 E.33339
G1 X67.466 Y52.471 E.03289
G1 X68.053 Y54.017 E.05185
G1 X68.408 Y55.785 E.05654
G1 X68.47 Y56.837 E.03304
G1 X68.471 Y61.036 E.13166
G1 X68.15 Y62.266 E.03986
G1 X67.6 Y63.18 E.03345
G1 X66.757 Y63.991 E.03668
G1 X65.917 Y64.436 E.02981
G1 X64.783 Y64.718 E.03664
G1 X48.433 Y64.718 E.51264
G1 X47.204 Y64.397 E.03983
G1 X46.336 Y63.885 E.0316
G1 X45.591 Y63.151 E.03279
G1 X45.07 Y62.259 E.03239
G1 X44.786 Y61.276 E.03208
G1 X44.752 Y56.844 E.13897
G1 X44.892 Y55.219 E.05114
G1 X45.106 Y54.242 E.03136
G1 X45.661 Y52.683 E.05189
G1 X46.249 Y51.55 E.04002
G1 X46.247 Y40.832 E.33606
G1 X46.567 Y39.602 E.03985
M73 P0 R72
G1 X47.084 Y38.73 E.03179
G1 X47.866 Y37.948 E.03468
G1 X48.7 Y37.472 E.03011
G1 X48.729 Y37.463 E.00095
M204 S1000
G1 X48.865 Y37.811 F10800
M204 S800
G1 F1200
G1 X49.751 Y37.556 E.02891
G1 X58.638 Y37.527 E.27865
G1 X63.724 Y37.6 E.15948
G1 X64.605 Y37.922 E.02941
G1 X65.348 Y38.429 E.0282
G1 X65.97 Y39.123 E.02922
G1 X66.394 Y39.95 E.02914
G1 X66.602 Y40.931 E.03144
G1 X66.596 Y51.639 E.33574
G1 X67.121 Y52.624 E.035
G1 X67.496 Y53.532 E.0308
G1 X67.847 Y54.729 E.03911
G1 X68.032 Y55.818 E.03463
G1 X68.093 Y61.011 E.16283
G1 X67.793 Y62.142 E.03669
G1 X67.292 Y62.962 E.03013
G1 X66.517 Y63.699 E.03353
G1 X65.802 Y64.076 E.02534
G1 X64.759 Y64.341 E.03374
G1 X48.458 Y64.341 E.51111
G1 X47.327 Y64.04 E.0367
G1 X46.551 Y63.574 E.02838
G1 X45.874 Y62.901 E.02993
G1 X45.425 Y62.13 E.02797
G1 X45.163 Y61.246 E.02891
G1 X45.129 Y56.846 E.13796
G1 X45.265 Y55.275 E.04944
G1 X45.701 Y53.605 E.05412
G1 X46.003 Y52.841 E.02576
G1 X46.626 Y51.652 E.04209
G1 X46.624 Y40.857 E.33847
G1 X46.924 Y39.726 E.03669
G1 X47.394 Y38.946 E.02855
G1 X48.113 Y38.234 E.03173
G1 X48.813 Y37.841 E.02517
M204 S1000
G1 X48.995 Y38.17 F10800
M204 S800
G1 F1200
G1 X49.027 Y38.152 E.00115
G1 X49.828 Y37.926 E.0261
G1 X63.625 Y37.966 E.4326
G1 X64.452 Y38.268 E.0276
G1 X65.113 Y38.726 E.02521
G1 X65.671 Y39.354 E.02634
G1 X66.046 Y40.097 E.0261
G1 X66.225 Y40.95 E.02733
G1 X66.219 Y51.733 E.33809
G1 X66.784 Y52.793 E.03766
G1 X67.329 Y54.229 E.04816
G1 X67.656 Y55.851 E.05188
G1 X67.716 Y56.848 E.03132
G1 X67.716 Y60.986 E.12974
G1 X67.437 Y62.017 E.03349
G1 X67.014 Y62.705 E.02532
G1 X66.276 Y63.408 E.03196
G1 X65.687 Y63.717 E.02085
G1 X64.734 Y63.964 E.03087
G1 X48.484 Y63.964 E.50951
G1 X47.453 Y63.684 E.0335
G1 X46.768 Y63.265 E.02518
G1 X46.159 Y62.653 E.02707
G1 X45.779 Y61.999 E.02372
G1 X45.54 Y61.215 E.0257
G1 X45.506 Y56.848 E.13693
G1 X45.638 Y55.332 E.04771
G1 X45.839 Y54.42 E.02928
G1 X46.346 Y52.999 E.04731
G1 X47.003 Y51.753 E.04417
G1 X47.001 Y40.883 E.34082
G1 X47.281 Y39.852 E.0335
G1 X47.702 Y39.163 E.02532
G1 X48.357 Y38.522 E.02874
G1 X48.942 Y38.199 E.02095
M204 S1000
G1 X49.121 Y38.525 F10800
M204 S800
G1 F1200
G1 X49.15 Y38.509 E.00104
G1 X49.906 Y38.296 E.02463
G1 X58.632 Y38.281 E.2736
G1 X63.528 Y38.331 E.15352
G1 X64.261 Y38.593 E.02441
G1 X64.849 Y38.995 E.02233
G1 X65.346 Y39.547 E.02329
G1 X65.698 Y40.244 E.02448
G1 X65.848 Y40.969 E.02321
G1 X65.842 Y51.839 E.34082
G1 X66.445 Y52.958 E.03986
G1 X66.784 Y53.781 E.02791
G1 X67.113 Y54.902 E.03663
G1 X67.281 Y55.884 E.03124
G1 X67.339 Y60.96 E.15916
G1 X67.081 Y61.889 E.03023
G1 X66.735 Y62.451 E.02069
G1 X66.074 Y63.088 E.02878
G1 X65.567 Y63.358 E.01801
G1 X64.709 Y63.587 E.02784
G1 X48.51 Y63.587 E.50791
G1 X47.58 Y63.328 E.03027
G1 X47.02 Y62.983 E.02062
G1 X46.444 Y62.404 E.02561
G1 X46.132 Y61.865 E.01953
G1 X45.917 Y61.183 E.02242
G1 X45.883 Y56.85 E.13586
G1 X46.011 Y55.389 E.04598
G1 X46.206 Y54.51 E.02823
G1 X46.688 Y53.157 E.04503
G1 X47.38 Y51.855 E.04623
G1 X47.378 Y40.909 E.3432
G1 X47.637 Y39.979 E.03027
G1 X47.983 Y39.417 E.02069
G1 X48.603 Y38.81 E.02721
G1 X49.068 Y38.554 E.01664
M204 S1000
G1 X49.246 Y38.881 F10800
M204 S800
G1 F1200
G1 X49.273 Y38.867 E.00095
G1 X49.984 Y38.666 E.02317
G1 X63.434 Y38.698 E.42172
G1 X64.072 Y38.92 E.02118
G1 X64.585 Y39.265 E.01938
G1 X65.048 Y39.78 E.02171
G1 X65.349 Y40.389 E.0213
G1 X65.471 Y40.988 E.01917
G1 X65.464 Y51.941 E.34342
G1 X66.106 Y53.124 E.0422
G1 X66.605 Y54.441 E.04416
G1 X66.905 Y55.917 E.04723
G1 X66.962 Y56.86 E.02962
G1 X66.962 Y60.933 E.12771
G1 X66.726 Y61.76 E.02697
G1 X66.455 Y62.198 E.01615
G1 X65.87 Y62.77 E.02565
G1 X65.446 Y63.001 E.01514
G1 X64.683 Y63.21 E.0248
G1 X48.537 Y63.21 E.50625
G1 X47.71 Y62.973 E.02697
M73 P1 R72
M73 Q1 S73
G1 X47.271 Y62.702 E.01618
G1 X46.73 Y62.157 E.02408
G1 X46.471 Y61.699 E.0165
G1 X46.286 Y61.099 E.01969
G1 X46.261 Y56.853 E.13313
G1 X46.384 Y55.445 E.04431
G1 X46.568 Y54.615 E.02666
G1 X47.031 Y53.315 E.04327
G1 X47.757 Y51.956 E.04831
G1 X47.755 Y40.936 E.34552
G1 X47.992 Y40.108 E.027
G1 X48.262 Y39.671 E.01611
G1 X48.847 Y39.098 E.02568
G1 X49.193 Y38.91 E.01235
M204 S1000
G1 X49.375 Y39.236 F10800
M204 S800
G1 F1200
G1 X49.397 Y39.223 E.0008
G1 X50.061 Y39.035 E.02164
G1 X63.343 Y39.064 E.41645
G1 X63.885 Y39.249 E.01796
G1 X64.324 Y39.539 E.0165
G1 X64.722 Y39.972 E.01844
G1 X64.999 Y40.533 E.01962
G1 X65.094 Y41.006 E.01513
G1 X65.087 Y52.043 E.34606
G1 X65.768 Y53.29 E.04455
G1 X66.245 Y54.553 E.04233
G1 X66.531 Y55.97 E.04532
M73 Q1 S72
G1 X66.585 Y56.865 E.02811
G1 X66.585 Y60.905 E.12667
G1 X66.372 Y61.628 E.02363
G1 X66.173 Y61.946 E.01176
G1 X65.663 Y62.454 E.02257
G1 X65.32 Y62.645 E.01231
G1 X64.656 Y62.833 E.02164
G1 X48.565 Y62.833 E.50452
G1 X47.842 Y62.619 E.02364
G1 X47.524 Y62.421 E.01175
G1 X47.015 Y61.91 E.02261
G1 X46.654 Y61.014 E.03029
G1 X46.669 Y56.178 E.15163
G1 X46.757 Y55.502 E.02137
G1 X47.114 Y54.133 E.04436
G1 X47.688 Y52.824 E.04482
G1 X48.134 Y52.058 E.02779
G1 X48.132 Y40.963 E.34788
G1 X48.346 Y40.24 E.02364
G1 X48.544 Y39.922 E.01175
G1 X49.055 Y39.414 E.02259
G1 X49.322 Y39.265 E.00959
M204 S1000
G1 X49.469 Y39.649 F10800
M204 S800
G1 F1200
G1 X50.089 Y39.413 E.0208
G1 X58.629 Y39.413 E.26777
G1 X63.254 Y39.432 E.14501
G1 X63.703 Y39.579 E.01481
G1 X64.063 Y39.812 E.01345
G1 X64.424 Y40.205 E.01673
G1 X64.649 Y40.673 E.01628
G1 X64.717 Y41.023 E.01118
G1 X64.71 Y52.145 E.34872
G1 X65.429 Y53.457 E.04691
G1 X65.717 Y54.156 E.0237
G1 X66.011 Y55.16 E.0328
G1 X66.158 Y56.023 E.02745
G1 X66.208 Y60.876 E.15217
G1 X66.019 Y61.492 E.0202
G1 X65.452 Y62.141 E.02702
G1 X64.628 Y62.455 E.02765
G1 X48.594 Y62.455 E.50273
G1 X47.978 Y62.267 E.02019
G1 X47.329 Y61.699 E.02704
G1 X47.023 Y60.93 E.02595
G1 X47.015 Y56.861 E.12758
G1 X47.13 Y55.559 E.04098
G1 X47.468 Y54.264 E.04196
G1 X48.018 Y53.008 E.04299
G1 X48.511 Y52.16 E.03076
G1 X48.509 Y40.992 E.35016
G1 X48.698 Y40.376 E.0202
G1 X49.266 Y39.727 E.02704
G1 X49.413 Y39.671 E.00493
M204 S1000
G1 X49.546 Y40.012 F10800
M204 S800
G1 F1200
G1 X50.119 Y39.79 E.01927
G1 X63.165 Y39.8 E.40905
G1 X63.562 Y39.93 E.0131
G1 X64.098 Y40.396 E.02227
G1 X64.34 Y41.04 E.02157
G1 X64.333 Y52.247 E.35139
G1 X65.09 Y53.622 E.04921
G1 X65.518 Y54.753 E.03792
G1 X65.784 Y56.076 E.04231
G1 X65.831 Y56.876 E.02513
G1 X65.831 Y60.845 E.12445
G1 X65.669 Y61.351 E.01666
G1 X65.236 Y61.831 E.02027
G1 X64.599 Y62.078 E.02142
G1 X48.625 Y62.078 E.50085
G1 X48.118 Y61.916 E.01669
G1 X47.639 Y61.483 E.02025
G1 X47.391 Y60.846 E.02143
G1 X47.392 Y56.873 E.12457
G1 X47.502 Y55.616 E.03956
G1 X47.659 Y54.915 E.02252
G1 X48.064 Y53.776 E.0379
G1 X48.888 Y52.262 E.05405
G1 X48.887 Y41.023 E.35239
G1 X49.049 Y40.517 E.01666
G1 X49.481 Y40.037 E.02025
G1 X49.49 Y40.034 E.0003
M204 S1000
G1 X49.703 Y40.343 F10800
M204 S800
G1 F1200
G1 X50.15 Y40.167 E.01506
G1 X58.63 Y40.167 E.26588
G1 X63.076 Y40.167 E.1394
G1 X63.547 Y40.364 E.01601
G1 X63.801 Y40.631 E.01155
G1 X63.943 Y40.944 E.01078
G1 X63.956 Y52.349 E.3576
G1 X64.752 Y53.788 E.05156
G1 X65.014 Y54.429 E.02171
G1 X65.277 Y55.331 E.02946
G1 X65.411 Y56.128 E.02534
G1 X65.454 Y60.814 E.14693
G1 X65.335 Y61.176 E.01195
G1 X65.014 Y61.525 E.01487
G1 X64.567 Y61.701 E.01506
G1 X48.655 Y61.701 E.49891
G1 X48.294 Y61.582 E.01192
G1 X47.945 Y61.262 E.01485
G1 X47.769 Y60.815 E.01506
G1 X47.794 Y56.299 E.1416
G1 X47.875 Y55.673 E.01979
G1 X48.183 Y54.503 E.03793
G1 X48.69 Y53.35 E.03949
G1 X49.265 Y52.364 E.03579
G1 X49.264 Y41.054 E.35462
G1 X49.383 Y40.692 E.01195
G1 X49.663 Y40.387 E.01298
M204 S1000
G1 X49.934 Y40.641 F10800
M204 S800
G1 F1200
G1 X50.186 Y40.544 E.00847
G1 X63.041 Y40.544 E.40306
G1 X63.268 Y40.626 E.00757
G1 X63.476 Y40.825 E.00903
G1 X63.585 Y41.075 E.00855
G1 X63.579 Y52.452 E.35672
G1 X64.413 Y53.954 E.05387
G1 X64.662 Y54.566 E.02072
G1 X65.037 Y56.18 E.05195
G1 X65.077 Y60.779 E.1442
G1 X65.001 Y60.992 E.00709
G1 X64.783 Y61.227 E.01005
G1 X64.532 Y61.324 E.00844
G1 X48.69 Y61.324 E.49671
G1 X48.477 Y61.248 E.00709
G1 X48.243 Y61.031 E.01001
G1 X48.146 Y60.779 E.00847
G1 X48.146 Y56.89 E.12194
G1 X48.245 Y55.747 E.03597
G1 X48.391 Y55.096 E.02092
G1 X48.749 Y54.091 E.03345
G1 X49.643 Y52.466 E.05815
G1 X49.641 Y41.089 E.35672
G1 X49.717 Y40.876 E.00709
G1 X49.893 Y40.685 E.00814
M204 S1000
G1 X50.133 Y40.994 F10800
M204 S800
G1 F1200
G1 X50.227 Y40.921 E.00373
G1 X58.629 Y40.921 E.26344
G1 X62.999 Y40.921 E.13702
G1 X63.208 Y41.131 E.00929
G1 X63.202 Y52.526 E.35728
G1 X64.074 Y54.12 E.05697
G1 X64.542 Y55.502 E.04575
G1 X64.7 Y56.892 E.04386
G1 X64.671 Y60.807 E.12276
G1 X64.49 Y60.947 E.00717
G1 X48.663 Y60.918 E.49625
G1 X48.523 Y60.738 E.00715
G1 X48.523 Y56.894 E.12053
G1 X48.615 Y55.821 E.03377
G1 X49.092 Y54.249 E.05151
G1 X50.02 Y52.526 E.06136
G1 X50.046 Y41.061 E.35948
G1 X50.086 Y41.031 E.00157
M204 S1000
;WIPE_START
G1 F8640
G1 X50.133 Y40.994 E-.01381
G1 X50.227 Y40.921 E-.02748
G1 X54.379 Y40.921 E-.95871
;WIPE_END
G1 Z.4 F720
; printing object horse.stl id:0 copy 0
G1 X63.862 Y68.401 F10800
G1 Z.2 F720
G1 E1 F2100
M204 S800
;TYPE:Support material
G1 F1200
G1 X61.555 Y68.401 E.07233
G1 X61.555 Y70.708 E.07233
G1 X51.054 Y70.708 E.32925
G1 X51.054 Y68.401 E.07233
G1 X48.747 Y68.401 E.07233
G1 X48.747 Y66.169 E.06998
G1 X63.862 Y66.169 E.47392
G1 X63.862 Y68.344 E.0682
M204 S1000
G1 X63.22 Y68.231 F10800
M204 S800
G1 F1200
G1 X63.22 Y66.508 E.05402
G1 X62.801 Y66.508 E.01314
G1 X62.801 Y68.062 E.04872
G1 X62.382 Y68.062 E.01314
G1 X62.382 Y66.508 E.04872
G1 X61.963 Y66.508 E.01314
G1 X61.963 Y68.062 E.04872
G1 X61.544 Y68.062 E.01314
G1 X61.544 Y66.508 E.04872
G1 X61.125 Y66.508 E.01314
G1 X61.125 Y70.369 E.12106
G1 X60.706 Y70.369 E.01314
G1 X60.706 Y66.508 E.12106
G1 X60.287 Y66.508 E.01314
G1 X60.287 Y70.369 E.12106
G1 X59.868 Y70.369 E.01314
G1 X59.868 Y66.508 E.12106
G1 X59.449 Y66.508 E.01314
G1 X59.449 Y70.369 E.12106
G1 X59.03 Y70.369 E.01314
G1 X59.03 Y66.508 E.12106
G1 X58.611 Y66.508 E.01314
G1 X58.611 Y70.369 E.12106
G1 X58.192 Y70.369 E.01314
G1 X58.192 Y66.508 E.12106
G1 X57.773 Y66.508 E.01314
G1 X57.773 Y70.369 E.12106
G1 X57.354 Y70.369 E.01314
G1 X57.354 Y66.508 E.12106
G1 X56.935 Y66.508 E.01314
G1 X56.935 Y70.369 E.12106
G1 X56.516 Y70.369 E.01314
G1 X56.516 Y66.508 E.12106
G1 X56.097 Y66.508 E.01314
G1 X56.097 Y70.369 E.12106
G1 X55.678 Y70.369 E.01314
G1 X55.678 Y66.508 E.12106
G1 X55.259 Y66.508 E.01314
G1 X55.259 Y70.369 E.12106
G1 X54.84 Y70.369 E.01314
G1 X54.84 Y66.508 E.12106
G1 X54.421 Y66.508 E.01314
G1 X54.421 Y70.369 E.12106
G1 X54.002 Y70.369 E.01314
G1 X54.002 Y66.508 E.12106
