; generated by PrusaSlicer 2.9.4 on 2026-05-26 at 12:43:47 UTC


;
;
; 

; external perimeters extrusion width = 0.45mm
; perimeters extrusion width = 0.45mm
; infill extrusion width = 0.45mm
; solid infill extrusion width = 0.45mm
; top infill extrusion width = 0.40mm
; support material extrusion width = 0.35mm
; first layer extrusion width = 0.42mm

M73 P0 R191
M73 Q0 S192
M201 X1000 Y1000 Z200 E5000 ; sets maximum accelerations, mm/sec^2
M203 X200 Y200 Z12 E120 ; sets maximum feedrates, mm / sec
M204 S1250 T1250 ; sets acceleration (S) and retract acceleration (R), mm/sec^2
M205 X8.00 Y8.00 Z0.40 E4.50 ; sets the jerk limits, mm/sec
M205 S0 T0 ; sets the minimum extruding and travel feed rate, mm/sec

; printing object disc_up_down.stl id:0 copy 0
; stop printing object disc_up_down.stl id:0 copy 0

;TYPE:Custom
M862.3 P "MK3S" ; printer model check
M862.1 P0.4 ; nozzle diameter check
M115 U3.14.1 ; tell printer latest fw version
G90 ; use absolute coordinates
M83 ; extruder relative mode
M104 S250 ; set extruder temp
M140 S85 ; set bed temp
M190 S85 ; wait for bed temp
M109 S250 ; wait for extruder temp
G28 W ; home all without mesh bed level
G80 X23.3995 Y18.8316 W112.153 H112.153 ; mesh bed levelling

G1 Z0.2 F720
G1 Y-3 F1000 ; go outside print area
G92 E0
G1 X60 E9 F1000 ; intro line
G1 X100 E12.5 F1000 ; intro line

G92 E0
M221 S95

; Don't change E values below. Excessive value can damage the printer.

M907 E538 ; set extruder motor current
G21 ; set units to millimeters
G90 ; use absolute coordinates
M83 ; use relative distances for extrusion

M900 K0.08 ; Filament gcode LA 1.5
M900 K45 ; Filament gcode LA 1.0




M107
;LAYER_CHANGE
;Z:0.2
;HEIGHT:0.2
G1 E-1 F2100
G1 Z.4 F720
G1 X35.788 Y35.788 F10800
G1 Z.2 F720
G1 E1 F2100
M204 S800
;TYPE:Skirt/Brim
;WIDTH:0.42
G1 F1200
G1 X42.686 Y28.89 E.30587
G1 X43.254 Y28.48 E.02196
G1 X57.097 Y21.558 E.48528
G1 X64.305 Y19.132 E.23846
G1 X64.997 Y19.02 E.02198
G1 X93.955 Y19.02 E.90796
G1 X94.647 Y19.132 E.02198
G1 X101.855 Y21.558 E.23846
G1 X115.697 Y28.48 E.48525
G1 X116.266 Y28.89 E.02199
G1 X125.494 Y38.118 E.40918
G1 X125.904 Y38.687 E.02199
G1 X132.825 Y52.529 E.48523
G1 X135.251 Y59.737 E.23846
G1 X135.364 Y60.429 E.02198
G1 X135.364 Y89.387 E.90796
G1 X135.251 Y90.079 E.02198
M73 Q0 S191
G1 X132.825 Y97.287 E.23846
G1 X125.904 Y111.129 E.48523
G1 X125.494 Y111.698 E.02199
G1 X123.187 Y114.005 E.1023
G1 X116.266 Y120.926 E.30689
G1 X115.697 Y121.336 E.02199
G1 X101.855 Y128.258 E.48525
G1 X94.647 Y130.683 E.23845
G1 X93.955 Y130.796 E.02198
G1 X64.997 Y130.796 E.90796
G1 X64.305 Y130.683 E.02198
G1 X57.097 Y128.258 E.23845
G1 X43.254 Y121.336 E.48528
G1 X42.686 Y120.926 E.02196
G1 X33.457 Y111.698 E.40921
G1 X33.047 Y111.129 E.02199
G1 X26.126 Y97.287 E.48523
G1 X23.7 Y90.079 E.23846
G1 X23.588 Y89.387 E.02198
G1 X23.588 Y60.429 E.90796
G1 X23.7 Y59.737 E.02198
G1 X26.126 Y52.529 E.23846
G1 X33.047 Y38.687 E.48523
G1 X33.457 Y38.118 E.02199
G1 X35.745 Y35.83 E.10145
M204 S1000
;WIPE_START
G1 F8640
G1 X35.788 Y35.788 E-.01388
G1 X38.808 Y32.768 E-.98612
;WIPE_END
G1 Z.4 F720
; printing object disc_up_down.stl id:0 copy 0
G1 X93.955 Y23.516 F10800
G1 Z.2 F720
G1 E1 F2100
M204 S800
;TYPE:Support material
G1 F1200
G1 X100.876 Y23.516 E.217
G1 X100.876 Y25.823 E.07233
G1 X105.49 Y25.823 E.14467
G1 X105.49 Y28.13 E.07233
G1 X110.104 Y28.13 E.14467
G1 X110.104 Y30.437 E.07233
G1 X114.718 Y30.437 E.14467
G1 X114.718 Y32.744 E.07233
G1 X117.025 Y32.744 E.07233
G1 X117.025 Y35.051 E.07233
G1 X119.333 Y35.051 E.07237
G1 X119.333 Y37.358 E.07233
G1 X121.64 Y37.358 E.07233
G1 X121.64 Y39.665 E.07233
G1 X123.947 Y39.665 E.07233
G1 X123.947 Y44.28 E.1447
G1 X126.254 Y44.28 E.07233
G1 X126.254 Y48.894 E.14467
G1 X128.561 Y48.894 E.07233
G1 X128.561 Y53.508 E.14467
G1 X130.868 Y53.508 E.07233
G1 X130.868 Y60.429 E.217
G1 X133.175 Y60.429 E.07233
G1 X133.175 Y89.387 E.90796
G1 X130.868 Y89.387 E.07233
G1 X130.868 Y96.308 E.217
G1 X128.561 Y96.308 E.07233
M73 P0 R190
G1 X128.561 Y100.922 E.14467
G1 X126.254 Y100.922 E.07233
G1 X126.254 Y105.536 E.14467
G1 X123.947 Y105.536 E.07233
G1 X123.947 Y110.15 E.14467
G1 X121.64 Y110.15 E.07233
G1 X121.64 Y112.458 E.07237
G1 X119.333 Y112.458 E.07233
G1 X119.333 Y114.765 E.07233
G1 X117.025 Y114.765 E.07237
G1 X117.025 Y117.072 E.07233
G1 X114.718 Y117.072 E.07233
G1 X114.718 Y119.379 E.07233
G1 X110.104 Y119.379 E.14467
G1 X110.104 Y121.686 E.07233
G1 X105.49 Y121.686 E.14467
G1 X105.49 Y123.993 E.07233
G1 X100.876 Y123.993 E.14467
G1 X100.876 Y126.3 E.07233
G1 X93.955 Y126.3 E.217
G1 X93.955 Y128.607 E.07233
G1 X64.997 Y128.607 E.90796
G1 X64.997 Y126.3 E.07233
G1 X58.076 Y126.3 E.217
G1 X58.076 Y123.993 E.07233
G1 X53.462 Y123.993 E.14467
G1 X53.462 Y121.686 E.07233
G1 X48.847 Y121.686 E.1447
G1 X48.847 Y119.379 E.07233
G1 X44.233 Y119.379 E.14467
G1 X44.233 Y117.072 E.07233
G1 X41.926 Y117.072 E.07233
G1 X41.926 Y114.765 E.07233
G1 X39.619 Y114.765 E.07233
G1 X39.619 Y112.458 E.07233
G1 X37.312 Y112.458 E.07233
G1 X37.312 Y110.15 E.07237
G1 X35.005 Y110.15 E.07233
G1 X35.005 Y105.536 E.14467
G1 X32.698 Y105.536 E.07233
G1 X32.698 Y100.922 E.14467
G1 X30.391 Y100.922 E.07233
G1 X30.391 Y96.308 E.14467
G1 X28.084 Y96.308 E.07233
G1 X28.084 Y89.387 E.217
G1 X25.777 Y89.387 E.07233
G1 X25.777 Y60.429 E.90796
G1 X28.084 Y60.429 E.07233
G1 X28.084 Y53.508 E.217
G1 X30.391 Y53.508 E.07233
G1 X30.391 Y48.894 E.14467
G1 X32.698 Y48.894 E.07233
G1 X32.698 Y44.28 E.14467
G1 X35.005 Y44.28 E.07233
G1 X35.005 Y39.665 E.1447
G1 X37.312 Y39.665 E.07233
G1 X37.312 Y37.358 E.07233
G1 X39.619 Y37.358 E.07233
G1 X39.619 Y35.051 E.07233
G1 X41.926 Y35.051 E.07233
G1 X41.926 Y32.744 E.07233
G1 X44.233 Y32.744 E.07233
G1 X44.233 Y30.437 E.07233
G1 X48.847 Y30.437 E.14467
G1 X48.847 Y28.13 E.07233
G1 X53.462 Y28.13 E.1447
G1 X53.462 Y25.823 E.07233
G1 X58.076 Y25.823 E.14467
G1 X58.076 Y23.516 E.07233
G1 X64.997 Y23.516 E.217
G1 X64.997 Y21.209 E.07233
G1 X93.955 Y21.209 E.90796
G1 X93.955 Y23.459 E.07055
M204 S1000
G1 X54.18 Y93.435 F10800
M204 S800
G1 F1200
G1 X55.319 Y93.483 E.03574
G1 X56.393 Y93.718 E.03447
G1 X57.411 Y94.131 E.03445
G1 X58.345 Y94.71 E.03446
G1 X59.168 Y95.439 E.03447
G1 X59.856 Y96.296 E.03446
G1 X60.372 Y97.22 E.03318
G1 X60.742 Y98.255 E.03446
G1 X60.931 Y99.338 E.03447
G1 X60.934 Y100.437 E.03446
G1 X60.742 Y101.56 E.03572
G1 X60.372 Y102.596 E.03449
G1 X59.812 Y103.58 E.0355
G1 X59.14 Y104.406 E.03339
G1 X58.345 Y105.106 E.03321
G1 X57.411 Y105.685 E.03446
G1 X56.354 Y106.11 E.03572
G1 X55.279 Y106.338 E.03446
G1 X54.18 Y106.381 E.03448
G1 X53.091 Y106.238 E.03444
G1 X52.01 Y105.898 E.03553
G1 X51.061 Y105.415 E.03339
G1 X50.21 Y104.786 E.03318
G1 X49.447 Y103.995 E.03446
G1 X48.809 Y103.05 E.03575
G1 X48.359 Y102.047 E.03447
G1 X48.086 Y100.983 E.03444
G1 X47.996 Y99.888 E.03445
G1 X48.092 Y98.793 E.03446
G1 X48.373 Y97.73 E.03447
G1 X48.809 Y96.765 E.0332
G1 X49.421 Y95.853 E.03444
G1 X50.21 Y95.03 E.03575
G1 X51.096 Y94.379 E.03447
G1 X52.079 Y93.888 E.03445
G1 X53.091 Y93.578 E.03319
G1 X54.124 Y93.442 E.03267
M204 S1000
G1 X77.805 Y73.237 F10800
M204 S800
G1 F1200
G1 X81.147 Y73.237 E.10479
G1 X81.147 Y76.579 E.10479
G1 X77.805 Y76.579 E.10479
G1 X77.805 Y73.294 E.103
M204 S1000
;WIPE_START
G1 F8640
G1 X77.805 Y76.579 E-.75852
G1 X78.851 Y76.579 E-.24148
;WIPE_END
G1 Z.4 F720
G1 X104.18 Y43.435 F10800
G1 Z.2 F720
G1 E1 F2100
M204 S800
G1 F1200
G1 X105.319 Y43.483 E.03574
G1 X106.393 Y43.718 E.03447
G1 X107.411 Y44.131 E.03445
G1 X108.345 Y44.71 E.03446
G1 X109.168 Y45.439 E.03447
G1 X109.872 Y46.326 E.03551
G1 X110.389 Y47.257 E.03339
G1 X110.742 Y48.255 E.03319
G1 X110.931 Y49.338 E.03447
G1 X110.934 Y50.437 E.03446
G1 X110.742 Y51.56 E.03572
G1 X110.372 Y52.596 E.03449
G1 X109.812 Y53.58 E.0355
G1 X109.14 Y54.406 E.03339
G1 X108.345 Y55.106 E.03321
G1 X107.411 Y55.685 E.03446
G1 X106.354 Y56.11 E.03572
G1 X105.279 Y56.338 E.03446
G1 X104.18 Y56.381 E.03448
G1 X103.091 Y56.238 E.03444
G1 X102.01 Y55.898 E.03553
G1 X101.061 Y55.415 E.03339
G1 X100.21 Y54.786 E.03318
G1 X99.447 Y53.995 E.03446
G1 X98.829 Y53.086 E.03446
G1 X98.373 Y52.086 E.03446
G1 X98.086 Y50.983 E.03574
G1 X97.996 Y49.888 E.03445
G1 X98.092 Y48.793 E.03446
G1 X98.373 Y47.73 E.03447
G1 X98.809 Y46.765 E.0332
G1 X99.421 Y45.853 E.03444
G1 X100.21 Y45.03 E.03575
G1 X101.096 Y44.379 E.03447
G1 X102.079 Y43.888 E.03445
G1 X103.091 Y43.578 E.03319
G1 X104.124 Y43.442 E.03267
M204 S1000
;WIPE_START
G1 F8640
G1 X103.091 Y43.578 E-.24058
G1 X102.079 Y43.888 E-.24439
G1 X101.096 Y44.379 E-.25372
G1 X100.21 Y45.03 E-.25387
G1 X100.188 Y45.053 E-.00744
;WIPE_END
G1 Z.4 F720
G1 X132.686 Y89.217 F10800
G1 Z.2 F720
G1 E1 F2100
M204 S800
G1 F1200
G1 X132.686 Y60.768 E.892
G1 X132.267 Y60.768 E.01314
G1 X132.267 Y89.047 E.88667
G1 X131.848 Y89.047 E.01314
G1 X131.848 Y60.768 E.88667
G1 X131.429 Y60.768 E.01314
G1 X131.429 Y89.047 E.88667
G1 X131.01 Y89.047 E.01314
G1 X131.01 Y60.768 E.88667
G1 X130.591 Y60.768 E.01314
G1 X130.591 Y89.047 E.88667
G1 X130.529 Y89.047 E.00194
G1 X130.529 Y95.969 E.21703
G1 X130.172 Y95.969 E.01119
G1 X130.172 Y53.847 E1.32071
G1 X129.753 Y53.847 E.01314
G1 X129.753 Y95.969 E1.32071
G1 X129.334 Y95.969 E.01314
G1 X129.334 Y53.847 E1.32071
G1 X128.915 Y53.847 E.01314
G1 X128.915 Y95.969 E1.32071
G1 X128.496 Y95.969 E.01314
G1 X128.496 Y53.847 E1.32071
M73 Q0 S190
G1 X128.221 Y53.847 E.00862
G1 X128.221 Y49.233 E.14467
G1 X128.077 Y49.233 E.00452
G1 X128.077 Y100.583 E1.61004
G1 X127.658 Y100.583 E.01314
G1 X127.658 Y49.233 E1.61004
G1 X127.239 Y49.233 E.01314
G1 X127.239 Y100.583 E1.61004
G1 X126.82 Y100.583 E.01314
G1 X126.82 Y49.233 E1.61004
G1 X126.401 Y49.233 E.01314
G1 X126.401 Y100.583 E1.61004
G1 X125.982 Y100.583 E.01314
G1 X125.982 Y49.233 E1.61004
G1 X125.914 Y49.233 E.00213
G1 X125.914 Y44.619 E.14467
G1 X125.563 Y44.619 E.01101
G1 X125.563 Y105.197 E1.89938
G1 X125.144 Y105.197 E.01314
M73 P0 R189
G1 X125.144 Y44.619 E1.89938
G1 X124.725 Y44.619 E.01314
G1 X124.725 Y105.197 E1.89938
G1 X124.306 Y105.197 E.01314
G1 X124.306 Y44.619 E1.89938
G1 X123.887 Y44.619 E.01314
G1 X123.887 Y105.197 E1.89938
G1 X123.607 Y105.197 E.00878
G1 X123.607 Y109.811 E.14467
G1 X123.468 Y109.811 E.00436
G1 X123.468 Y40.005 E2.18872
G1 X123.049 Y40.005 E.01314
G1 X123.049 Y109.811 E2.18872
G1 X122.63 Y109.811 E.01314
G1 X122.63 Y40.005 E2.18872
G1 X122.211 Y40.005 E.01314
M73 P1 R189
M73 Q1 S190
G1 X122.211 Y109.811 E2.18872
G1 X121.792 Y109.811 E.01314
G1 X121.792 Y40.005 E2.18872
G1 X121.373 Y40.005 E.01314
G1 X121.373 Y109.811 E2.18872
G1 X121.3 Y109.811 E.00229
G1 X121.3 Y112.118 E.07233
G1 X120.954 Y112.118 E.01085
G1 X120.955 Y37.698 E2.33339
G1 X120.536 Y37.698 E.01314
G1 X120.536 Y112.118 E2.33339
G1 X120.117 Y112.118 E.01314
M73 Q1 S189
G1 X120.117 Y37.698 E2.33339
G1 X119.698 Y37.698 E.01314
G1 X119.698 Y112.118 E2.33339
G1 X119.279 Y112.118 E.01314
G1 X119.279 Y37.698 E2.33339
G1 X118.993 Y37.698 E.00897
G1 X118.993 Y35.391 E.07233
G1 X118.86 Y35.391 E.00417
G1 X118.86 Y114.425 E2.47806
G1 X118.441 Y114.425 E.01314
G1 X118.441 Y35.391 E2.47806
G1 X118.022 Y35.391 E.01314
M73 P1 R188
G1 X118.022 Y114.425 E2.47806
G1 X117.603 Y114.425 E.01314
G1 X117.603 Y35.391 E2.47806
G1 X117.184 Y35.391 E.01314
G1 X117.184 Y114.425 E2.47806
G1 X116.765 Y114.425 E.01314
G1 X116.765 Y35.391 E2.47806
G1 X116.686 Y35.391 E.00248
G1 X116.686 Y33.083 E.07237
G1 X116.346 Y33.083 E.01066
G1 X116.346 Y116.732 E2.62276
G1 X115.927 Y116.732 E.01314
G1 X115.927 Y33.083 E2.62276
G1 X115.508 Y33.083 E.01314
G1 X115.508 Y116.732 E2.62276
G1 X115.089 Y116.732 E.01314
G1 X115.089 Y33.083 E2.62276
G1 X114.67 Y33.083 E.01314
G1 X114.67 Y116.732 E2.62276
G1 X114.379 Y116.732 E.00912
G1 X114.379 Y119.039 E.07233
G1 X114.251 Y119.039 E.00401
G1 X114.251 Y30.776 E2.76742
G1 X113.832 Y30.776 E.01314
M73 Q1 S188
G1 X113.832 Y119.039 E2.76742
G1 X113.413 Y119.039 E.01314
G1 X113.413 Y30.776 E2.76742
G1 X112.994 Y30.776 E.01314
G1 X112.994 Y119.039 E2.76742
G1 X112.575 Y119.039 E.01314
G1 X112.575 Y30.776 E2.76742
G1 X112.156 Y30.776 E.01314
M73 P1 R187
G1 X112.156 Y119.039 E2.76742
G1 X111.737 Y119.039 E.01314
G1 X111.737 Y30.776 E2.76742
G1 X111.318 Y30.776 E.01314
G1 X111.318 Y119.039 E2.76742
G1 X110.899 Y119.039 E.01314
G1 X110.899 Y52.133 E2.09779
G1 X110.48 Y53.098 E.03299
M73 P2 R187
M73 Q2 S188
G1 X110.48 Y119.039 E2.06753
G1 X110.061 Y119.039 E.01314
G1 X110.061 Y53.811 E2.04518
G1 X109.642 Y54.33 E.02091
G1 X109.642 Y121.346 E2.10124
G1 X109.223 Y121.346 E.01314
G1 X109.223 Y54.785 E2.08697
G1 X108.804 Y55.154 E.01751
G1 X108.804 Y121.346 E2.0754
G1 X108.385 Y121.346 E.01314
G1 X108.385 Y55.484 E2.06506
G1 X107.966 Y55.742 E.01543
G1 X107.966 Y121.346 E2.05697
G1 X107.547 Y121.346 E.01314
M73 Q2 S187
G1 X107.547 Y55.996 E2.049
G1 X107.128 Y56.168 E.0142
G1 X107.128 Y121.346 E2.04361
G1 X106.709 Y121.346 E.01314
G1 X106.709 Y56.336 E2.03834
G1 X106.29 Y56.471 E.0138
G1 X106.29 Y121.346 E2.03411
G1 X105.871 Y121.346 E.01314
G1 X105.871 Y56.561 E2.03129
G1 X105.452 Y56.651 E.01344
G1 X105.452 Y121.346 E2.02847
G1 X105.151 Y121.346 E.00944
M73 P2 R186
G1 X105.151 Y123.654 E.07237
G1 X105.033 Y123.654 E.0037
G1 X105.033 Y56.688 E2.09967
G1 X104.614 Y56.706 E.01315
G1 X104.614 Y123.654 E2.09911
G1 X104.195 Y123.654 E.01314
G1 X104.195 Y56.722 E2.09861
G1 X103.776 Y56.672 E.01323
G1 X103.776 Y123.654 E2.10017
G1 X103.357 Y123.654 E.01314
G1 X103.357 Y56.618 E2.10187
G1 X102.938 Y56.546 E.01333
G1 X102.938 Y123.654 E2.10412
G1 X102.52 Y123.654 E.01311
G1 X102.52 Y56.418 E2.10814
G1 X102.101 Y56.29 E.01374
G1 X102.101 Y123.654 E2.11215
G1 X101.682 Y123.654 E.01314
G1 X101.682 Y56.112 E2.11773
G1 X101.263 Y55.901 E.01471
G1 X101.263 Y123.654 E2.12435
G1 X100.844 Y123.654 E.01314
G1 X100.844 Y55.677 E2.13137
G1 X100.425 Y55.367 E.01634
G1 X100.425 Y125.961 E2.21343
G1 X100.006 Y125.961 E.01314
M73 Q2 S186
G1 X100.006 Y55.057 E2.22315
G1 X99.587 Y54.631 E.01873
G1 X99.587 Y125.961 E2.2365
G1 X99.168 Y125.961 E.01314
G1 X99.168 Y54.189 E2.25036
G1 X98.749 Y53.574 E.02333
G1 X98.749 Y125.961 E2.26964
G1 X98.33 Y125.961 E.01314
G1 X98.33 Y52.815 E2.29344
G1 X97.911 Y51.672 E.03817
M73 P2 R185
G1 X97.911 Y125.961 E2.32928
G1 X97.492 Y125.961 E.01314
G1 X97.492 Y23.855 E3.20146
G1 X97.911 Y23.855 E.01314
G1 X97.911 Y48.144 E.76156
G1 X98.33 Y47.001 E.03817
G1 X98.33 Y23.855 E.72573
G1 X98.749 Y23.855 E.01314
M73 P3 R185
M73 Q3 S186
G1 X98.749 Y46.242 E.70193
G1 X99.168 Y45.627 E.02333
G1 X99.168 Y23.855 E.68265
G1 X99.587 Y23.855 E.01314
G1 X99.587 Y45.185 E.66879
G1 X100.006 Y44.759 E.01873
G1 X100.006 Y23.855 E.65543
G1 X100.425 Y23.855 E.01314
G1 X100.425 Y44.449 E.64571
G1 X100.844 Y44.139 E.01634
G1 X100.844 Y26.162 E.56366
G1 X101.263 Y26.162 E.01314
G1 X101.263 Y43.915 E.55663
G1 X101.682 Y43.704 E.01471
G1 X101.682 Y26.162 E.55002
G1 X102.101 Y26.162 E.01314
G1 X102.101 Y43.526 E.54444
G1 X102.52 Y43.398 E.01374
G1 X102.52 Y26.162 E.54042
G1 X102.938 Y26.162 E.01311
G1 X102.938 Y43.269 E.53638
G1 X103.357 Y43.198 E.01332
G1 X103.357 Y26.162 E.53415
G1 X103.776 Y26.162 E.01314
G1 X103.776 Y43.144 E.53246
G1 X104.195 Y43.094 E.01323
G1 X104.195 Y26.162 E.53089
G1 X104.614 Y26.162 E.01314
G1 X104.614 Y43.11 E.53139
G1 X105.033 Y43.128 E.01315
G1 X105.033 Y26.162 E.53196
G1 X105.151 Y26.162 E.0037
G1 X105.151 Y28.469 E.07233
G1 X105.452 Y28.469 E.00944
G1 X105.452 Y43.165 E.46078
G1 X105.871 Y43.255 E.01344
G1 X105.871 Y28.469 E.4636
G1 X106.29 Y28.469 E.01314
G1 X106.29 Y43.345 E.46643
G1 X106.709 Y43.479 E.01379
G1 X106.709 Y28.469 E.47063
G1 X107.128 Y28.469 E.01314
G1 X107.128 Y43.648 E.47593
G1 X107.547 Y43.819 E.01419
G1 X107.547 Y28.469 E.48129
G1 X107.966 Y28.469 E.01314
G1 X107.966 Y44.074 E.48928
G1 X108.385 Y44.332 E.01543
G1 X108.385 Y28.469 E.49737
G1 X108.804 Y28.469 E.01314
G1 X108.804 Y44.662 E.50772
G1 X109.223 Y45.031 E.01751
G1 X109.223 Y28.469 E.51929
G1 X109.642 Y28.469 E.01314
G1 X109.642 Y45.486 E.53356
G1 X110.061 Y46.005 E.02091
G1 X110.061 Y30.776 E.47749
G1 X110.48 Y30.776 E.01314
G1 X110.48 Y46.718 E.49985
