; generated by PrusaSlicer 2.9.4 on 2026-05-28 at 16:51:32 UTC


;
;
; 

; external perimeters extrusion width = 0.45mm
; perimeters extrusion width = 0.45mm
; infill extrusion width = 0.45mm
; solid infill extrusion width = 0.45mm
; top infill extrusion width = 0.40mm
; support material extrusion width = 0.35mm
; first layer extrusion width = 0.42mm

M73 P0 R169
M73 Q0 S170
M201 X1000 Y1000 Z200 E5000 ; sets maximum accelerations, mm/sec^2
M203 X200 Y200 Z12 E120 ; sets maximum feedrates, mm / sec
M204 S1250 T1250 ; sets acceleration (S) and retract acceleration (R), mm/sec^2
M205 X8.00 Y8.00 Z0.40 E4.50 ; sets the jerk limits, mm/sec
M205 S0 T0 ; sets the minimum extruding and travel feed rate, mm/sec

; printing object disc_up_down.stl id:0 copy 0
; stop printing object disc_up_down.stl id:0 copy 0

;TYPE:Custom
M862.3 P "MK3S" ; printer model check
M862.1 P0.4 ; nozzle diameter check
M115 U3.14.1 ; tell printer latest fw version
G90 ; use absolute coordinates
M83 ; extruder relative mode
M104 S250 ; set extruder temp
M140 S85 ; set bed temp
M190 S85 ; wait for bed temp
M109 S250 ; wait for extruder temp
G28 W ; home all without mesh bed level
G80 X12.26 Y15.7932 W112.153 H112.153 ; mesh bed levelling

G1 Z0.2 F720
G1 Y-3 F1000 ; go outside print area
G92 E0
G1 X60 E9 F1000 ; intro line
G1 X100 E12.5 F1000 ; intro line

G92 E0
M221 S95

; Don't change E values below. Excessive value can damage the printer.

M907 E538 ; set extruder motor current
G21 ; set units to millimeters
G90 ; use absolute coordinates
M83 ; use relative distances for extrusion

M900 K0.08 ; Filament gcode LA 1.5
M900 K45 ; Filament gcode LA 1.0




M107
;LAYER_CHANGE
;Z:0.2
;HEIGHT:0.2
G1 E-1 F2100
G1 Z.4 F720
G1 X28.699 Y28.699 F10800
G1 Z.2 F720
G1 E1 F2100
M204 S800
;TYPE:Skirt/Brim
;WIDTH:0.42
G1 F1200
G1 X31.546 Y25.851 E.12626
G1 X32.115 Y25.441 E.02199
G1 X45.957 Y18.52 E.48523
G1 X53.165 Y16.094 E.23846
G1 X53.857 Y15.982 E.02198
G1 X82.815 Y15.982 E.90796
G1 X83.507 Y16.094 E.02198
G1 X90.715 Y18.52 E.23846
G1 X104.558 Y25.441 E.48526
G1 X105.126 Y25.851 E.02196
G1 X114.355 Y35.079 E.40921
G1 X114.765 Y35.648 E.02199
G1 X121.686 Y49.491 E.48526
G1 X124.112 Y56.699 E.23846
G1 X124.224 Y57.391 E.02198
G1 X124.224 Y86.348 E.90793
G1 X124.112 Y87.04 E.02198
G1 X121.686 Y94.248 E.23846
G1 X114.765 Y108.091 E.48526
G1 X114.355 Y108.66 E.02199
G1 X112.048 Y110.967 E.1023
G1 X105.126 Y117.888 E.30691
G1 X104.558 Y118.298 E.02196
G1 X90.715 Y125.219 E.48526
G1 X83.507 Y127.645 E.23846
G1 X82.815 Y127.757 E.02198
G1 X53.857 Y127.757 E.90796
G1 X53.165 Y127.645 E.02198
G1 X45.957 Y125.219 E.23846
G1 X32.115 Y118.298 E.48523
G1 X31.546 Y117.888 E.02199
G1 X22.318 Y108.66 E.40918
G1 X21.908 Y108.091 E.02199
G1 X14.987 Y94.248 E.48526
G1 X12.561 Y87.04 E.23846
G1 X12.449 Y86.348 E.02198
G1 X12.449 Y57.391 E.90793
G1 X12.561 Y56.699 E.02198
G1 X14.987 Y49.491 E.23846
G1 X21.908 Y35.648 E.48526
G1 X22.318 Y35.079 E.02199
G1 X28.656 Y28.741 E.28104
M204 S1000
;WIPE_START
G1 F8640
G1 X28.699 Y28.699 E-.01388
G1 X31.546 Y25.851 E-.92984
G1 X31.744 Y25.709 E-.05628
;WIPE_END
G1 Z.4 F720
; printing object disc_up_down.stl id:0 copy 0
G1 X82.815 Y20.477 F10800
G1 Z.2 F720
G1 E1 F2100
M204 S800
;TYPE:Support material
G1 F1200
G1 X89.736 Y20.477 E.217
G1 X89.736 Y22.784 E.07233
G1 X94.351 Y22.784 E.1447
G1 X94.351 Y25.091 E.07233
G1 X98.965 Y25.091 E.14467
G1 X98.965 Y27.399 E.07237
G1 X103.579 Y27.399 E.14467
G1 X103.579 Y29.706 E.07233
G1 X105.886 Y29.706 E.07233
G1 X105.886 Y32.013 E.07233
G1 X108.193 Y32.013 E.07233
G1 X108.193 Y34.32 E.07233
G1 X110.5 Y34.32 E.07233
G1 X110.5 Y36.627 E.07233
G1 X112.807 Y36.627 E.07233
G1 X112.807 Y41.241 E.14467
G1 X115.114 Y41.241 E.07233
G1 X115.114 Y45.855 E.14467
G1 X117.421 Y45.855 E.07233
G1 X117.421 Y50.469 E.14467
G1 X119.728 Y50.469 E.07233
G1 X119.728 Y57.391 E.21703
G1 X122.035 Y57.391 E.07233
G1 X122.035 Y86.348 E.90793
G1 X119.728 Y86.348 E.07233
G1 X119.728 Y93.27 E.21703
G1 X117.421 Y93.27 E.07233
G1 X117.421 Y97.884 E.14467
G1 X115.114 Y97.884 E.07233
G1 X115.114 Y102.498 E.14467
G1 X112.807 Y102.498 E.07233
G1 X112.807 Y107.112 E.14467
G1 X110.5 Y107.112 E.07233
G1 X110.5 Y109.419 E.07233
G1 X108.193 Y109.419 E.07233
G1 X108.193 Y111.726 E.07233
G1 X105.886 Y111.726 E.07233
G1 X105.886 Y114.033 E.07233
G1 X103.579 Y114.033 E.07233
G1 X103.579 Y116.34 E.07233
G1 X98.965 Y116.34 E.14467
G1 X98.965 Y118.647 E.07233
G1 X94.351 Y118.647 E.14467
M73 Q0 S169
G1 X94.351 Y120.954 E.07233
G1 X89.736 Y120.954 E.1447
G1 X89.736 Y123.262 E.07237
G1 X82.815 Y123.262 E.217
G1 X82.815 Y125.569 E.07233
G1 X53.857 Y125.569 E.90796
G1 X53.857 Y123.262 E.07233
G1 X46.936 Y123.262 E.217
G1 X46.936 Y120.954 E.07237
G1 X42.322 Y120.954 E.14467
G1 X42.322 Y118.647 E.07233
G1 X37.708 Y118.647 E.14467
G1 X37.708 Y116.34 E.07233
G1 X33.094 Y116.34 E.14467
G1 X33.094 Y114.033 E.07233
G1 X30.787 Y114.033 E.07233
G1 X30.787 Y111.726 E.07233
G1 X28.48 Y111.726 E.07233
G1 X28.48 Y109.419 E.07233
G1 X26.172 Y109.419 E.07237
G1 X26.172 Y107.112 E.07233
G1 X23.865 Y107.112 E.07233
G1 X23.865 Y102.498 E.14467
G1 X21.558 Y102.498 E.07233
G1 X21.558 Y97.884 E.14467
G1 X19.251 Y97.884 E.07233
G1 X19.251 Y93.27 E.14467
G1 X16.944 Y93.27 E.07233
G1 X16.944 Y86.348 E.21703
G1 X14.637 Y86.348 E.07233
G1 X14.637 Y57.391 E.90793
G1 X16.944 Y57.391 E.07233
G1 X16.944 Y50.469 E.21703
G1 X19.251 Y50.469 E.07233
G1 X19.251 Y45.855 E.14467
G1 X21.558 Y45.855 E.07233
G1 X21.558 Y41.241 E.14467
G1 X23.865 Y41.241 E.07233
G1 X23.865 Y36.627 E.14467
G1 X26.172 Y36.627 E.07233
G1 X26.172 Y34.32 E.07233
G1 X28.48 Y34.32 E.07237
G1 X28.48 Y32.013 E.07233
G1 X30.787 Y32.013 E.07233
G1 X30.787 Y29.706 E.07233
G1 X33.094 Y29.706 E.07233
G1 X33.094 Y27.399 E.07233
G1 X37.708 Y27.399 E.14467
G1 X37.708 Y25.091 E.07237
G1 X42.322 Y25.091 E.14467
G1 X42.322 Y22.784 E.07233
G1 X46.936 Y22.784 E.14467
G1 X46.936 Y20.477 E.07233
G1 X53.857 Y20.477 E.217
G1 X53.857 Y18.17 E.07233
G1 X82.815 Y18.17 E.90796
G1 X82.815 Y20.421 E.07058
M204 S1000
G1 X43.041 Y90.397 F10800
M204 S800
G1 F1200
G1 X44.139 Y90.44 E.03445
G1 X45.214 Y90.668 E.03446
G1 X46.235 Y91.074 E.03445
G1 X47.206 Y91.672 E.03576
G1 X48.029 Y92.401 E.03447
G1 X48.716 Y93.258 E.03444
G1 X49.249 Y94.219 E.03446
G1 X49.602 Y95.217 E.03319
G1 X49.791 Y96.3 E.03447
G1 X49.795 Y97.399 E.03446
G1 X49.612 Y98.483 E.03447
G1 X49.233 Y99.558 E.03574
G1 X48.694 Y100.515 E.03444
G1 X48 Y101.368 E.03448
G1 X47.206 Y102.068 E.03319
G1 X46.272 Y102.647 E.03446
G1 X45.253 Y103.06 E.03447
G1 X44.139 Y103.3 E.03573
G1 X43.041 Y103.343 E.03445
G1 X41.951 Y103.2 E.03447
G1 X40.901 Y102.875 E.03446
G1 X39.956 Y102.398 E.03319
G1 X39.07 Y101.748 E.03445
G1 X38.307 Y100.957 E.03446
G1 X37.669 Y100.012 E.03575
G1 X37.22 Y99.009 E.03446
G1 X36.946 Y97.945 E.03445
G1 X36.856 Y96.849 E.03448
G1 X36.953 Y95.755 E.03444
G1 X37.233 Y94.692 E.03447
G1 X37.669 Y93.727 E.0332
G1 X38.282 Y92.815 E.03445
G1 X39.04 Y92.019 E.03446
G1 X39.956 Y91.341 E.03573
G1 X40.939 Y90.849 E.03447
G1 X41.951 Y90.54 E.03318
G1 X42.985 Y90.404 E.0327
M204 S1000
G1 X66.666 Y70.199 F10800
M204 S800
G1 F1200
G1 X70.007 Y70.199 E.10475
G1 X70.007 Y73.54 E.10475
G1 X66.666 Y73.54 E.10475
G1 X66.666 Y70.255 E.103
M204 S1000
;WIPE_START
G1 F8640
G1 X66.666 Y73.54 E-.75852
G1 X67.712 Y73.54 E-.24148
;WIPE_END
G1 Z.4 F720
G1 X93.041 Y40.397 F10800
G1 Z.2 F720
G1 E1 F2100
M204 S800
G1 F1200
G1 X94.139 Y40.44 E.03445
G1 X95.214 Y40.668 E.03446
M73 P0 R168
G1 X96.235 Y41.074 E.03445
G1 X97.206 Y41.672 E.03576
G1 X98.029 Y42.401 E.03447
G1 X98.716 Y43.258 E.03444
G1 X99.249 Y44.219 E.03446
G1 X99.602 Y45.217 E.03319
G1 X99.791 Y46.3 E.03447
G1 X99.795 Y47.399 E.03446
G1 X99.612 Y48.483 E.03447
G1 X99.233 Y49.558 E.03574
G1 X98.694 Y50.515 E.03444
G1 X98 Y51.368 E.03448
G1 X97.206 Y52.068 E.03319
G1 X96.272 Y52.647 E.03446
G1 X95.253 Y53.06 E.03447
G1 X94.139 Y53.3 E.03573
G1 X93.041 Y53.343 E.03445
G1 X91.951 Y53.2 E.03447
G1 X90.901 Y52.875 E.03446
G1 X89.956 Y52.398 E.03319
G1 X89.07 Y51.748 E.03445
G1 X88.307 Y50.957 E.03446
G1 X87.689 Y50.048 E.03446
G1 X87.22 Y49.009 E.03574
G1 X86.946 Y47.945 E.03445
G1 X86.856 Y46.849 E.03448
G1 X86.953 Y45.755 E.03444
G1 X87.233 Y44.692 E.03447
G1 X87.669 Y43.727 E.0332
G1 X88.282 Y42.815 E.03445
G1 X89.04 Y42.019 E.03446
G1 X89.956 Y41.341 E.03573
G1 X90.939 Y40.849 E.03447
G1 X91.951 Y40.54 E.03318
G1 X92.985 Y40.404 E.0327
M204 S1000
;WIPE_START
G1 F8640
G1 X91.951 Y40.54 E-.24081
G1 X90.939 Y40.849 E-.24432
G1 X89.956 Y41.341 E-.25382
G1 X89.047 Y42.014 E-.26105
;WIPE_END
G1 Z.4 F720
G1 X121.546 Y86.179 F10800
G1 Z.2 F720
G1 E1 F2100
M204 S800
G1 F1200
G1 X121.546 Y57.73 E.892
G1 X121.127 Y57.73 E.01314
G1 X121.127 Y86.009 E.88667
G1 X120.708 Y86.009 E.01314
G1 X120.708 Y57.73 E.88667
G1 X120.289 Y57.73 E.01314
G1 X120.289 Y86.009 E.88667
G1 X119.87 Y86.009 E.01314
G1 X119.87 Y57.73 E.88667
G1 X119.451 Y57.73 E.01314
G1 X119.451 Y86.009 E.88667
G1 X119.389 Y86.009 E.00194
G1 X119.389 Y92.93 E.217
G1 X119.032 Y92.93 E.01119
G1 X119.032 Y50.809 E1.32067
G1 X118.613 Y50.809 E.01314
G1 X118.613 Y92.93 E1.32067
G1 X118.195 Y92.93 E.01311
G1 X118.195 Y50.809 E1.32067
G1 X117.776 Y50.809 E.01314
G1 X117.776 Y92.93 E1.32067
G1 X117.357 Y92.93 E.01314
G1 X117.357 Y50.809 E1.32067
G1 X117.082 Y50.809 E.00862
G1 X117.082 Y46.195 E.14467
G1 X116.938 Y46.195 E.00452
G1 X116.938 Y97.544 E1.61001
G1 X116.519 Y97.544 E.01314
G1 X116.519 Y46.195 E1.61001
G1 X116.1 Y46.195 E.01314
G1 X116.1 Y97.544 E1.61001
G1 X115.681 Y97.544 E.01314
G1 X115.681 Y46.195 E1.61001
G1 X115.262 Y46.195 E.01314
G1 X115.262 Y97.544 E1.61001
G1 X114.843 Y97.544 E.01314
G1 X114.843 Y46.195 E1.61001
G1 X114.775 Y46.195 E.00213
G1 X114.775 Y41.58 E.1447
G1 X114.424 Y41.58 E.01101
G1 X114.424 Y102.158 E1.89938
G1 X114.005 Y102.158 E.01314
M73 Q0 S168
G1 X114.005 Y41.58 E1.89938
G1 X113.586 Y41.58 E.01314
G1 X113.586 Y102.158 E1.89938
G1 X113.167 Y102.158 E.01314
G1 X113.167 Y41.58 E1.89938
G1 X112.748 Y41.58 E.01314
M73 P1 R168
M73 Q1 S168
G1 X112.748 Y102.158 E1.89938
G1 X112.468 Y102.158 E.00878
G1 X112.468 Y106.773 E.1447
G1 X112.329 Y106.773 E.00436
G1 X112.329 Y36.966 E2.18875
G1 X111.91 Y36.966 E.01314
G1 X111.91 Y106.773 E2.18875
G1 X111.491 Y106.773 E.01314
M73 P1 R167
G1 X111.491 Y36.966 E2.18875
G1 X111.072 Y36.966 E.01314
G1 X111.072 Y106.773 E2.18875
G1 X110.653 Y106.773 E.01314
G1 X110.653 Y36.966 E2.18875
G1 X110.234 Y36.966 E.01314
G1 X110.234 Y106.773 E2.18875
G1 X110.161 Y106.773 E.00229
G1 X110.161 Y109.08 E.07233
G1 X109.815 Y109.08 E.01085
G1 X109.815 Y34.659 E2.33342
G1 X109.396 Y34.659 E.01314
G1 X109.396 Y109.08 E2.33342
G1 X108.977 Y109.08 E.01314
G1 X108.977 Y34.659 E2.33342
G1 X108.558 Y34.659 E.01314
G1 X108.558 Y109.08 E2.33342
G1 X108.139 Y109.08 E.01314
G1 X108.139 Y34.659 E2.33342
G1 X107.854 Y34.659 E.00894
G1 X107.854 Y32.352 E.07233
G1 X107.72 Y32.352 E.0042
G1 X107.72 Y111.387 E2.47809
G1 X107.301 Y111.387 E.01314
G1 X107.301 Y32.352 E2.47809
G1 X106.882 Y32.352 E.01314
M73 Q1 S167
G1 X106.882 Y111.387 E2.47809
G1 X106.463 Y111.387 E.01314
G1 X106.463 Y32.352 E2.47809
G1 X106.044 Y32.352 E.01314
G1 X106.044 Y111.387 E2.47809
G1 X105.625 Y111.387 E.01314
G1 X105.625 Y32.352 E2.47809
G1 X105.547 Y32.352 E.00245
G1 X105.547 Y30.045 E.07233
G1 X105.206 Y30.045 E.01069
G1 X105.206 Y113.694 E2.62276
G1 X104.787 Y113.694 E.01314
M73 P1 R166
G1 X104.787 Y30.045 E2.62276
G1 X104.368 Y30.045 E.01314
G1 X104.368 Y113.694 E2.62276
G1 X103.949 Y113.694 E.01314
G1 X103.949 Y30.045 E2.62276
G1 X103.53 Y30.045 E.01314
G1 X103.53 Y113.694 E2.62276
G1 X103.239 Y113.694 E.00912
G1 X103.239 Y116.001 E.07233
G1 X103.111 Y116.001 E.00401
G1 X103.111 Y27.738 E2.76742
G1 X102.692 Y27.738 E.01314
G1 X102.692 Y116.001 E2.76742
G1 X102.273 Y116.001 E.01314
G1 X102.273 Y27.738 E2.76742
G1 X101.854 Y27.738 E.01314
M73 P2 R166
M73 Q2 S167
G1 X101.854 Y116.001 E2.76742
G1 X101.435 Y116.001 E.01314
G1 X101.435 Y27.738 E2.76742
G1 X101.016 Y27.738 E.01314
M73 Q2 S166
G1 X101.016 Y116.001 E2.76742
G1 X100.597 Y116.001 E.01314
G1 X100.597 Y27.738 E2.76742
G1 X100.179 Y27.738 E.01311
G1 X100.178 Y116.001 E2.76742
G1 X99.76 Y116.001 E.01311
G1 X99.76 Y49.095 E2.09779
G1 X99.341 Y50.06 E.03299
G1 X99.341 Y116.001 E2.06753
G1 X98.922 Y116.001 E.01314
M73 P2 R165
G1 X98.922 Y50.773 E2.04518
G1 X98.503 Y51.292 E.02091
G1 X98.503 Y118.308 E2.10124
G1 X98.084 Y118.308 E.01314
G1 X98.084 Y51.747 E2.08697
G1 X97.665 Y52.116 E.01751
G1 X97.665 Y118.308 E2.0754
G1 X97.246 Y118.308 E.01314
G1 X97.246 Y52.446 E2.06506
G1 X96.827 Y52.704 E.01543
G1 X96.827 Y118.308 E2.05697
G1 X96.408 Y118.308 E.01314
G1 X96.408 Y52.958 E2.049
G1 X95.989 Y53.13 E.0142
G1 X95.989 Y118.308 E2.04361
G1 X95.57 Y118.308 E.01314
G1 X95.57 Y53.298 E2.03834
G1 X95.151 Y53.433 E.0138
G1 X95.151 Y118.308 E2.03411
G1 X94.732 Y118.308 E.01314
G1 X94.732 Y53.523 E2.03129
G1 X94.313 Y53.613 E.01344
G1 X94.313 Y118.308 E2.02847
G1 X94.011 Y118.308 E.00947
M73 Q2 S165
G1 X94.011 Y120.615 E.07233
G1 X93.894 Y120.615 E.00367
G1 X93.894 Y53.65 E2.09964
G1 X93.475 Y53.668 E.01315
G1 X93.475 Y120.615 E2.09908
G1 X93.056 Y120.615 E.01314
G1 X93.056 Y53.683 E2.09861
G1 X92.637 Y53.634 E.01323
G1 X92.637 Y120.615 E2.10014
G1 X92.218 Y120.615 E.01314
G1 X92.218 Y53.58 E2.10184
G1 X91.799 Y53.508 E.01333
G1 X91.799 Y120.615 E2.10409
G1 X91.38 Y120.615 E.01314
M73 P2 R164
G1 X91.38 Y53.38 E2.10811
G1 X90.961 Y53.252 E.01374
G1 X90.961 Y120.615 E2.11212
G1 X90.542 Y120.615 E.01314
G1 X90.542 Y53.074 E2.1177
G1 X90.123 Y52.863 E.01471
G1 X90.123 Y120.615 E2.12432
G1 X89.704 Y120.615 E.01314
M73 P3 R164
M73 Q3 S165
G1 X89.704 Y52.638 E2.13137
G1 X89.285 Y52.329 E.01632
G1 X89.285 Y122.922 E2.21339
G1 X88.866 Y122.922 E.01314
G1 X88.866 Y52.019 E2.22311
G1 X88.447 Y51.593 E.01873
G1 X88.447 Y122.922 E2.23647
G1 X88.028 Y122.922 E.01314
G1 X88.028 Y51.151 E2.25033
G1 X87.609 Y50.536 E.02333
G1 X87.609 Y122.922 E2.26961
G1 X87.19 Y122.922 E.01314
G1 X87.19 Y49.777 E2.29341
G1 X86.771 Y48.634 E.03817
M73 Q3 S164
G1 X86.771 Y122.922 E2.32925
G1 X86.352 Y122.922 E.01314
G1 X86.352 Y20.817 E3.20143
G1 X86.771 Y20.817 E.01314
G1 X86.771 Y45.105 E.76153
G1 X87.19 Y43.963 E.03814
G1 X87.19 Y20.817 E.72573
G1 X87.609 Y20.817 E.01314
G1 X87.609 Y43.204 E.70193
G1 X88.028 Y42.589 E.02333
G1 X88.028 Y20.817 E.68265
G1 X88.447 Y20.817 E.01314
G1 X88.447 Y42.147 E.66879
G1 X88.866 Y41.721 E.01873
G1 X88.866 Y20.817 E.65543
G1 X89.285 Y20.817 E.01314
G1 X89.285 Y41.411 E.64571
G1 X89.704 Y41.101 E.01634
G1 X89.704 Y23.124 E.56366
G1 X90.123 Y23.124 E.01314
G1 X90.123 Y40.877 E.55663
G1 X90.542 Y40.666 E.01471
M73 P3 R163
G1 X90.542 Y23.124 E.55002
G1 X90.961 Y23.124 E.01314
G1 X90.961 Y40.488 E.54444
G1 X91.38 Y40.36 E.01374
G1 X91.38 Y23.124 E.54042
G1 X91.799 Y23.124 E.01314
G1 X91.799 Y40.231 E.53638
G1 X92.218 Y40.16 E.01332
G1 X92.218 Y23.124 E.53415
G1 X92.637 Y23.124 E.01314
G1 X92.637 Y40.106 E.53246
G1 X93.056 Y40.056 E.01323
G1 X93.056 Y23.124 E.53089
G1 X93.475 Y23.124 E.01314
G1 X93.475 Y40.072 E.53139
G1 X93.894 Y40.09 E.01315
G1 X93.894 Y23.124 E.53196
G1 X94.011 Y23.124 E.00367
G1 X94.011 Y25.431 E.07233
G1 X94.313 Y25.431 E.00947
G1 X94.313 Y40.126 E.46075
G1 X94.732 Y40.217 E.01344
G1 X94.732 Y25.431 E.4636
G1 X95.151 Y25.431 E.01314
G1 X95.151 Y40.307 E.46643
G1 X95.57 Y40.441 E.01379
G1 X95.57 Y25.431 E.47063
G1 X95.989 Y25.431 E.01314
G1 X95.989 Y40.61 E.47593
G1 X96.408 Y40.781 E.01419
G1 X96.408 Y25.431 E.48129
G1 X96.827 Y25.431 E.01314
G1 X96.827 Y41.036 E.48928
G1 X97.246 Y41.294 E.01543
G1 X97.246 Y25.431 E.49737
G1 X97.665 Y25.431 E.01314
G1 X97.665 Y41.624 E.50772
G1 X98.084 Y41.992 E.01749
G1 X98.084 Y25.431 E.51926
G1 X98.503 Y25.431 E.01314
G1 X98.503 Y42.448 E.53356
G1 X98.922 Y42.966 E.02089
G1 X98.922 Y27.738 E.47746
G1 X99.341 Y27.738 E.01314
G1 X99.341 Y43.679 E.49982
G1 X99.76 Y44.644 E.03299
G1 X99.76 Y27.568 E.53541
M204 S1000
;WIPE_START
G1 F8640
G1 X99.76 Y31.899 E-1
;WIPE_END
G1 Z.4 F720
G1 X85.933 Y123.092 F10800
G1 Z.2 F720
G1 E1 F2100
M204 S800
G1 F1200
